( CUTOUT_POINTERS )
( File created: Thursday December 12 2019 - 06:31 PM)
( USBCNC Postprocessor )
( Material Size)
( X= 250.000, Y= 250.000, Z= 2.000)
()
(Toolpaths used in this file:)
(Pocket)
(Profile)
(Tools used in this file: )
(1 = End Mill {2 mm})
N110G00G21G17G90G40G49
N120G80
N130 (End Mill {2 mm})
N140G00G43Z20.000H1
N150S12000M03
N160(Toolpath:- Pocket)
N170()
N180G94
N190X0.000Y0.000F3600.0
N200G00X-0.400Y-7.400Z6.000
N210G1Z-0.500F1200.0
N220G1Y-6.600F3600.0
N230G1X0.400
N240G1Y-7.400
N250G1X-0.400
N260G1X-1.200Y-8.200
N270G1Y-5.800
N280G1X1.200
N290G1Y-8.200
N300G1X-1.200
N310G1X-2.000Y-9.000
N320G1Y-5.000
N330G1X2.000
N340G1Y-9.000
N350G1X-2.000
N360G1X-2.800Y-9.800
N370G1Y-4.200
N380G1X2.800
N390G1Y-9.800
N400G1X-2.800
N410G1X-3.600Y-10.600
N420G1Y-3.400
N430G1X3.600
N440G1Y-10.600
N450G1X-3.600
N460G1X-4.400Y-11.400
N470G1Y-2.600
N480G1X4.400
N490G1Y-11.400
N500G1X-4.400
N510G1X-5.200Y-12.200
N520G1Y-1.800
N530G1X5.200
N540G1Y-12.200
N550G1X-5.200
N560G1X-6.000Y-13.000
N570G1Y-1.000
N580G1X6.000
N590G1Y-13.000
N600G1X-6.000
N610G00Z6.000
N620G00X-15.400Y-7.400
N630G1Z-0.500F1200.0
N640G1Y-6.600F3600.0
N650G1X-14.600
N660G1Y-7.400
N670G1X-15.400
N680G1X-16.200Y-8.200
N690G1Y-5.800
N700G1X-13.800
N710G1Y-8.200
N720G1X-16.200
N730G1X-17.000Y-9.000
N740G1Y-5.000
N750G1X-13.000
N760G1Y-9.000
N770G1X-17.000
N780G1X-17.800Y-9.800
N790G1Y-4.200
N800G1X-12.200
N810G1Y-9.800
N820G1X-17.800
N830G1X-18.600Y-10.600
N840G1Y-3.400
N850G1X-11.400
N860G1Y-10.600
N870G1X-18.600
N880G1X-19.400Y-11.400
N890G1Y-2.600
N900G1X-10.600
N910G1Y-11.400
N920G1X-19.400
N930G1X-20.200Y-12.200
N940G1Y-1.800
N950G1X-9.800
N960G1Y-12.200
N970G1X-20.200
N980G1X-21.000Y-13.000
N990G1Y-1.000
N1000G1X-9.000
N1010G1Y-13.000
N1020G1X-21.000
N1030G00Z6.000
N1040G00X-30.400Y-7.400
N1050G1Z-0.500F1200.0
N1060G1Y-6.600F3600.0
N1070G1X-29.600
N1080G1Y-7.400
N1090G1X-30.400
N1100G1X-31.200Y-8.200
N1110G1Y-5.800
N1120G1X-28.800
N1130G1Y-8.200
N1140G1X-31.200
N1150G1X-32.000Y-9.000
N1160G1Y-5.000
N1170G1X-28.000
N1180G1Y-9.000
N1190G1X-32.000
N1200G1X-32.800Y-9.800
N1210G1Y-4.200
N1220G1X-27.200
N1230G1Y-9.800
N1240G1X-32.800
N1250G1X-33.600Y-10.600
N1260G1Y-3.400
N1270G1X-26.400
N1280G1Y-10.600
N1290G1X-33.600
N1300G1X-34.400Y-11.400
N1310G1Y-2.600
N1320G1X-25.600
N1330G1Y-11.400
N1340G1X-34.400
N1350G1X-35.200Y-12.200
N1360G1Y-1.800
N1370G1X-24.800
N1380G1Y-12.200
N1390G1X-35.200
N1400G1X-36.000Y-13.000
N1410G1Y-1.000
N1420G1X-24.000
N1430G1Y-13.000
N1440G1X-36.000
N1450G00Z6.000
N1460G00X-45.400Y-7.400
N1470G1Z-0.500F1200.0
N1480G1Y-6.600F3600.0
N1490G1X-44.600
N1500G1Y-7.400
N1510G1X-45.400
N1520G1X-46.200Y-8.200
N1530G1Y-5.800
N1540G1X-43.800
N1550G1Y-8.200
N1560G1X-46.200
N1570G1X-47.000Y-9.000
N1580G1Y-5.000
N1590G1X-43.000
N1600G1Y-9.000
N1610G1X-47.000
N1620G1X-47.800Y-9.800
N1630G1Y-4.200
N1640G1X-42.200
N1650G1Y-9.800
N1660G1X-47.800
N1670G1X-48.600Y-10.600
N1680G1Y-3.400
N1690G1X-41.400
N1700G1Y-10.600
N1710G1X-48.600
N1720G1X-49.400Y-11.400
N1730G1Y-2.600
N1740G1X-40.600
N1750G1Y-11.400
N1760G1X-49.400
N1770G1X-50.200Y-12.200
N1780G1Y-1.800
N1790G1X-39.800
N1800G1Y-12.200
N1810G1X-50.200
N1820G1X-51.000Y-13.000
N1830G1Y-1.000
N1840G1X-39.000
N1850G1Y-13.000
N1860G1X-51.000
N1870G00Z6.000
N1880G00X-60.400Y-7.400
N1890G1Z-0.500F1200.0
N1900G1Y-6.600F3600.0
N1910G1X-59.600
N1920G1Y-7.400
N1930G1X-60.400
N1940G1X-61.200Y-8.200
N1950G1Y-5.800
N1960G1X-58.800
N1970G1Y-8.200
N1980G1X-61.200
N1990G1X-62.000Y-9.000
N2000G1Y-5.000
N2010G1X-58.000
N2020G1Y-9.000
N2030G1X-62.000
N2040G1X-62.800Y-9.800
N2050G1Y-4.200
N2060G1X-57.200
N2070G1Y-9.800
N2080G1X-62.800
N2090G1X-63.600Y-10.600
N2100G1Y-3.400
N2110G1X-56.400
N2120G1Y-10.600
N2130G1X-63.600
N2140G1X-64.400Y-11.400
N2150G1Y-2.600
N2160G1X-55.600
N2170G1Y-11.400
N2180G1X-64.400
N2190G1X-65.200Y-12.200
N2200G1Y-1.800
N2210G1X-54.800
N2220G1Y-12.200
N2230G1X-65.200
N2240G1X-66.000Y-13.000
N2250G1Y-1.000
N2260G1X-54.000
N2270G1Y-13.000
N2280G1X-66.000
N2290G00Z6.000
N2300G00X-75.400Y-7.400
N2310G1Z-0.500F1200.0
N2320G1Y-6.600F3600.0
N2330G1X-74.600
N2340G1Y-7.400
N2350G1X-75.400
N2360G1X-76.200Y-8.200
N2370G1Y-5.800
N2380G1X-73.800
N2390G1Y-8.200
N2400G1X-76.200
N2410G1X-77.000Y-9.000
N2420G1Y-5.000
N2430G1X-73.000
N2440G1Y-9.000
N2450G1X-77.000
N2460G1X-77.800Y-9.800
N2470G1Y-4.200
N2480G1X-72.200
N2490G1Y-9.800
N2500G1X-77.800
N2510G1X-78.600Y-10.600
N2520G1Y-3.400
N2530G1X-71.400
N2540G1Y-10.600
N2550G1X-78.600
N2560G1X-79.400Y-11.400
N2570G1Y-2.600
N2580G1X-70.600
N2590G1Y-11.400
N2600G1X-79.400
N2610G1X-80.200Y-12.200
N2620G1Y-1.800
N2630G1X-69.800
N2640G1Y-12.200
N2650G1X-80.200
N2660G1X-81.000Y-13.000
N2670G1Y-1.000
N2680G1X-69.000
N2690G1Y-13.000
N2700G1X-81.000
N2710G00Z6.000
N2720G00X-90.400Y-7.400
N2730G1Z-0.500F1200.0
N2740G1Y-6.600F3600.0
N2750G1X-89.600
N2760G1Y-7.400
N2770G1X-90.400
N2780G1X-91.200Y-8.200
N2790G1Y-5.800
N2800G1X-88.800
N2810G1Y-8.200
N2820G1X-91.200
N2830G1X-92.000Y-9.000
N2840G1Y-5.000
N2850G1X-88.000
N2860G1Y-9.000
N2870G1X-92.000
N2880G1X-92.800Y-9.800
N2890G1Y-4.200
N2900G1X-87.200
N2910G1Y-9.800
N2920G1X-92.800
N2930G1X-93.600Y-10.600
N2940G1Y-3.400
N2950G1X-86.400
N2960G1Y-10.600
N2970G1X-93.600
N2980G1X-94.400Y-11.400
N2990G1Y-2.600
N3000G1X-85.600
N3010G1Y-11.400
N3020G1X-94.400
N3030G1X-95.200Y-12.200
N3040G1Y-1.800
N3050G1X-84.800
N3060G1Y-12.200
N3070G1X-95.200
N3080G1X-96.000Y-13.000
N3090G1Y-1.000
N3100G1X-84.000
N3110G1Y-13.000
N3120G1X-96.000
N3130G00Z6.000
N3140G00X-105.400Y-7.400
N3150G1Z-0.500F1200.0
N3160G1Y-6.600F3600.0
N3170G1X-104.600
N3180G1Y-7.400
N3190G1X-105.400
N3200G1X-106.200Y-8.200
N3210G1Y-5.800
N3220G1X-103.800
N3230G1Y-8.200
N3240G1X-106.200
N3250G1X-107.000Y-9.000
N3260G1Y-5.000
N3270G1X-103.000
N3280G1Y-9.000
N3290G1X-107.000
N3300G1X-107.800Y-9.800
N3310G1Y-4.200
N3320G1X-102.200
N3330G1Y-9.800
N3340G1X-107.800
N3350G1X-108.600Y-10.600
N3360G1Y-3.400
N3370G1X-101.400
N3380G1Y-10.600
N3390G1X-108.600
N3400G1X-109.400Y-11.400
N3410G1Y-2.600
N3420G1X-100.600
N3430G1Y-11.400
N3440G1X-109.400
N3450G1X-110.200Y-12.200
N3460G1Y-1.800
N3470G1X-99.800
N3480G1Y-12.200
N3490G1X-110.200
N3500G1X-111.000Y-13.000
N3510G1Y-1.000
N3520G1X-99.000
N3530G1Y-13.000
N3540G1X-111.000
N3550G00Z6.000
N3560G00X14.600Y-7.400
N3570G1Z-0.500F1200.0
N3580G1Y-6.600F3600.0
N3590G1X15.400
N3600G1Y-7.400
N3610G1X14.600
N3620G1X13.800Y-8.200
N3630G1Y-5.800
N3640G1X16.200
N3650G1Y-8.200
N3660G1X13.800
N3670G1X13.000Y-9.000
N3680G1Y-5.000
N3690G1X17.000
N3700G1Y-9.000
N3710G1X13.000
N3720G1X12.200Y-9.800
N3730G1Y-4.200
N3740G1X17.800
N3750G1Y-9.800
N3760G1X12.200
N3770G1X11.400Y-10.600
N3780G1Y-3.400
N3790G1X18.600
N3800G1Y-10.600
N3810G1X11.400
N3820G1X10.600Y-11.400
N3830G1Y-2.600
N3840G1X19.400
N3850G1Y-11.400
N3860G1X10.600
N3870G1X9.800Y-12.200
N3880G1Y-1.800
N3890G1X20.200
N3900G1Y-12.200
N3910G1X9.800
N3920G1X9.000Y-13.000
N3930G1Y-1.000
N3940G1X21.000
N3950G1Y-13.000
N3960G1X9.000
N3970G00Z6.000
N3980G00X29.400Y-20.600
N3990G1Z-0.500F1200.0
N4000G1Y-3.400F3600.0
N4010G1X30.600
N4020G1Y-20.600
N4030G1X29.400
N4040G1X28.600Y-21.400
N4050G1Y-2.600
N4060G1X31.400
N4070G1Y-21.400
N4080G1X28.600
N4090G1X27.800Y-22.200
N4100G1Y-1.800
N4110G1X32.200
N4120G1Y-22.200
N4130G1X27.800
N4140G1X27.000Y-23.000
N4150G1Y-1.000
N4160G1X33.000
N4170G1Y-23.000
N4180G1X27.000
N4190G00Z6.000
N4200G00X44.400Y-20.600
N4210G1Z-0.500F1200.0
N4220G1Y-3.400F3600.0
N4230G1X45.600
N4240G1Y-20.600
N4250G1X44.400
N4260G1X43.600Y-21.400
N4270G1Y-2.600
N4280G1X46.400
N4290G1Y-21.400
N4300G1X43.600
N4310G1X42.800Y-22.200
N4320G1Y-1.800
N4330G1X47.200
N4340G1Y-22.200
N4350G1X42.800
N4360G1X42.000Y-23.000
N4370G1Y-1.000
N4380G1X48.000
N4390G1Y-23.000
N4400G1X42.000
N4410G00Z6.000
N4420G00X59.400Y-20.600
N4430G1Z-0.500F1200.0
N4440G1Y-3.400F3600.0
N4450G1X60.600
N4460G1Y-20.600
N4470G1X59.400
N4480G1X58.600Y-21.400
N4490G1Y-2.600
N4500G1X61.400
N4510G1Y-21.400
N4520G1X58.600
N4530G1X57.800Y-22.200
N4540G1Y-1.800
N4550G1X62.200
N4560G1Y-22.200
N4570G1X57.800
N4580G1X57.000Y-23.000
N4590G1Y-1.000
N4600G1X63.000
N4610G1Y-23.000
N4620G1X57.000
N4630G00Z6.000
N4640G00X74.400Y-20.600
N4650G1Z-0.500F1200.0
N4660G1Y-3.400F3600.0
N4670G1X75.600
N4680G1Y-20.600
N4690G1X74.400
N4700G1X73.600Y-21.400
N4710G1Y-2.600
N4720G1X76.400
N4730G1Y-21.400
N4740G1X73.600
N4750G1X72.800Y-22.200
N4760G1Y-1.800
N4770G1X77.200
N4780G1Y-22.200
N4790G1X72.800
N4800G1X72.000Y-23.000
N4810G1Y-1.000
N4820G1X78.000
N4830G1Y-23.000
N4840G1X72.000
N4850G00Z6.000
N4860G00X89.400Y-18.600
N4870G1Z-0.500F1200.0
N4880G1Y-1.400F3600.0
N4890G1X90.600
N4900G1Y-18.600
N4910G1X89.400
N4920G1X88.600Y-19.400
N4930G1Y-0.600
N4940G1X91.400
N4950G1Y-19.400
N4960G1X88.600
N4970G1X87.800Y-20.200
N4980G1Y0.200
N4990G1X92.200
N5000G1Y-20.200
N5010G1X87.800
N5020G1X87.000Y-21.000
N5030G1Y1.000
N5040G1X93.000
N5050G1Y-21.000
N5060G1X87.000
N5070G00Z6.000
N5080G00X104.400Y-3.600
N5090G1Z-0.500F1200.0
N5100G1Y-2.400F3600.0
N5110G1X105.600
N5120G1Y-3.600
N5130G1X104.400
N5140G1X103.600Y-4.400
N5150G1Y-1.600
N5160G1X106.400
N5170G1Y-4.400
N5180G1X103.600
N5190G1X102.800Y-5.200
N5200G1Y-0.800
N5210G1X107.200
N5220G1Y-5.200
N5230G1X102.800
N5240G1X102.000Y-6.000
N5250G1Y0.000
N5260G1X108.000
N5270G1Y-6.000
N5280G1X102.000
N5290G00Z6.000
N5300S12000M03
(Profile)
()
N5330G00X-102.000Y-0.675Z6.000
N5340G1Z-0.500F1200.0
N5350G1Y4.110F3600.0
N5360G1X-104.024Y13.217
N5370G3X-105.976I-0.976J-0.217
N5380G1X-108.000Y4.110
N5390G1Y-0.675
N5400G3X-105.000Y-14.000I3.000J-6.325
N5410G3X-102.000Y-0.675I0.000J7.000
N5420G1Z-1.000F1200.0
N5430G1Y4.110F3600.0
N5440G1X-104.024Y13.217
N5450G3X-105.976I-0.976J-0.217
N5460G1X-108.000Y4.110
N5470G1Y-0.675
N5480G3X-105.000Y-14.000I3.000J-6.325
N5490G3X-102.000Y-0.675I0.000J7.000
N5500G1Z-1.500F1200.0
N5510G1Y4.110F3600.0
N5520G1X-104.024Y13.217
N5530G3X-105.976I-0.976J-0.217
N5540G1X-108.000Y4.110
N5550G1Y-0.675
N5560G3X-105.000Y-14.000I3.000J-6.325
N5570G3X-102.000Y-0.675I0.000J7.000
N5580G1Z-2.000F1200.0
N5590G1Y4.110F3600.0
N5600G1X-104.024Y13.217
N5610G3X-105.976I-0.976J-0.217
N5620G1X-108.000Y4.110
N5630G1Y-0.675
N5640G3X-105.000Y-14.000I3.000J-6.325
N5650G3X-102.000Y-0.675I0.000J7.000
N5660G00Z6.000
N5670G00X-93.000
N5680G1Z-0.500F1200.0
N5690G3X-90.000Y-14.000I3.000J-6.325F3600.0
N5700G3X-87.000Y-0.675I0.000J7.000
N5710G1Y4.110
N5720G1X-89.024Y13.217
N5730G3X-90.976I-0.976J-0.217
N5740G1X-93.000Y4.110
N5750G1Y-0.675
N5760G1Z-1.000F1200.0
N5770G3X-90.000Y-14.000I3.000J-6.325F3600.0
N5780G3X-87.000Y-0.675I0.000J7.000
N5790G1Y4.110
N5800G1X-89.024Y13.217
N5810G3X-90.976I-0.976J-0.217
N5820G1X-93.000Y4.110
N5830G1Y-0.675
N5840G1Z-1.500F1200.0
N5850G3X-90.000Y-14.000I3.000J-6.325F3600.0
N5860G3X-87.000Y-0.675I0.000J7.000
N5870G1Y4.110
N5880G1X-89.024Y13.217
N5890G3X-90.976I-0.976J-0.217
N5900G1X-93.000Y4.110
N5910G1Y-0.675
N5920G1Z-2.000F1200.0
N5930G3X-90.000Y-14.000I3.000J-6.325F3600.0
N5940G3X-87.000Y-0.675I0.000J7.000
N5950G1Y4.110
N5960G1X-89.024Y13.217
N5970G3X-90.976I-0.976J-0.217
N5980G1X-93.000Y4.110
N5990G1Y-0.675
N6000G00Z6.000
N6010G00X-78.000
N6020G1Z-0.500F1200.0
N6030G3X-75.000Y-14.000I3.000J-6.325F3600.0
N6040G3X-72.000Y-0.675I0.000J7.000
N6050G1Y4.110
N6060G1X-74.024Y13.217
N6070G3X-75.976I-0.976J-0.217
N6080G1X-78.000Y4.110
N6090G1Y-0.675
N6100G1Z-1.000F1200.0
N6110G3X-75.000Y-14.000I3.000J-6.325F3600.0
N6120G3X-72.000Y-0.675I0.000J7.000
N6130G1Y4.110
N6140G1X-74.024Y13.217
N6150G3X-75.976I-0.976J-0.217
N6160G1X-78.000Y4.110
N6170G1Y-0.675
N6180G1Z-1.500F1200.0
N6190G3X-75.000Y-14.000I3.000J-6.325F3600.0
N6200G3X-72.000Y-0.675I0.000J7.000
N6210G1Y4.110
N6220G1X-74.024Y13.217
N6230G3X-75.976I-0.976J-0.217
N6240G1X-78.000Y4.110
N6250G1Y-0.675
N6260G1Z-2.000F1200.0
N6270G3X-75.000Y-14.000I3.000J-6.325F3600.0
N6280G3X-72.000Y-0.675I0.000J7.000
N6290G1Y4.110
N6300G1X-74.024Y13.217
N6310G3X-75.976I-0.976J-0.217
N6320G1X-78.000Y4.110
N6330G1Y-0.675
N6340G00Z6.000
N6350G00X-63.000
N6360G1Z-0.500F1200.0
N6370G3X-60.000Y-14.000I3.000J-6.325F3600.0
N6380G3X-57.000Y-0.675I0.000J7.000
N6390G1Y4.110
N6400G1X-59.024Y13.217
N6410G3X-60.976I-0.976J-0.217
N6420G1X-63.000Y4.110
N6430G1Y-0.675
N6440G1Z-1.000F1200.0
N6450G3X-60.000Y-14.000I3.000J-6.325F3600.0
N6460G3X-57.000Y-0.675I0.000J7.000
N6470G1Y4.110
N6480G1X-59.024Y13.217
N6490G3X-60.976I-0.976J-0.217
N6500G1X-63.000Y4.110
N6510G1Y-0.675
N6520G1Z-1.500F1200.0
N6530G3X-60.000Y-14.000I3.000J-6.325F3600.0
N6540G3X-57.000Y-0.675I0.000J7.000
N6550G1Y4.110
N6560G1X-59.024Y13.217
N6570G3X-60.976I-0.976J-0.217
N6580G1X-63.000Y4.110
N6590G1Y-0.675
N6600G1Z-2.000F1200.0
N6610G3X-60.000Y-14.000I3.000J-6.325F3600.0
N6620G3X-57.000Y-0.675I0.000J7.000
N6630G1Y4.110
N6640G1X-59.024Y13.217
N6650G3X-60.976I-0.976J-0.217
N6660G1X-63.000Y4.110
N6670G1Y-0.675
N6680G00Z6.000
N6690G00X-48.000
N6700G1Z-0.500F1200.0
N6710G3X-45.000Y-14.000I3.000J-6.325F3600.0
N6720G3X-42.000Y-0.675I0.000J7.000
N6730G1Y4.110
N6740G1X-44.024Y13.217
N6750G3X-45.976I-0.976J-0.217
N6760G1X-48.000Y4.110
N6770G1Y-0.675
N6780G1Z-1.000F1200.0
N6790G3X-45.000Y-14.000I3.000J-6.325F3600.0
N6800G3X-42.000Y-0.675I0.000J7.000
N6810G1Y4.110
N6820G1X-44.024Y13.217
N6830G3X-45.976I-0.976J-0.217
N6840G1X-48.000Y4.110
N6850G1Y-0.675
N6860G1Z-1.500F1200.0
N6870G3X-45.000Y-14.000I3.000J-6.325F3600.0
N6880G3X-42.000Y-0.675I0.000J7.000
N6890G1Y4.110
N6900G1X-44.024Y13.217
N6910G3X-45.976I-0.976J-0.217
N6920G1X-48.000Y4.110
N6930G1Y-0.675
N6940G1Z-2.000F1200.0
N6950G3X-45.000Y-14.000I3.000J-6.325F3600.0
N6960G3X-42.000Y-0.675I0.000J7.000
N6970G1Y4.110
N6980G1X-44.024Y13.217
N6990G3X-45.976I-0.976J-0.217
N7000G1X-48.000Y4.110
N7010G1Y-0.675
N7020G00Z6.000
N7030G00X-33.000
N7040G1Z-0.500F1200.0
N7050G3X-30.000Y-14.000I3.000J-6.325F3600.0
N7060G3X-27.000Y-0.675I0.000J7.000
N7070G1Y4.110
N7080G1X-29.024Y13.217
N7090G3X-30.976I-0.976J-0.217
N7100G1X-33.000Y4.110
N7110G1Y-0.675
N7120G1Z-1.000F1200.0
N7130G3X-30.000Y-14.000I3.000J-6.325F3600.0
N7140G3X-27.000Y-0.675I0.000J7.000
N7150G1Y4.110
N7160G1X-29.024Y13.217
N7170G3X-30.976I-0.976J-0.217
N7180G1X-33.000Y4.110
N7190G1Y-0.675
N7200G1Z-1.500F1200.0
N7210G3X-30.000Y-14.000I3.000J-6.325F3600.0
N7220G3X-27.000Y-0.675I0.000J7.000
N7230G1Y4.110
N7240G1X-29.024Y13.217
N7250G3X-30.976I-0.976J-0.217
N7260G1X-33.000Y4.110
N7270G1Y-0.675
N7280G1Z-2.000F1200.0
N7290G3X-30.000Y-14.000I3.000J-6.325F3600.0
N7300G3X-27.000Y-0.675I0.000J7.000
N7310G1Y4.110
N7320G1X-29.024Y13.217
N7330G3X-30.976I-0.976J-0.217
N7340G1X-33.000Y4.110
N7350G1Y-0.675
N7360G00Z6.000
N7370G00X-18.000
N7380G1Z-0.500F1200.0
N7390G3X-15.000Y-14.000I3.000J-6.325F3600.0
N7400G3X-12.000Y-0.675I0.000J7.000
N7410G1Y4.110
N7420G1X-14.024Y13.217
N7430G3X-15.976I-0.976J-0.217
N7440G1X-18.000Y4.110
N7450G1Y-0.675
N7460G1Z-1.000F1200.0
N7470G3X-15.000Y-14.000I3.000J-6.325F3600.0
N7480G3X-12.000Y-0.675I0.000J7.000
N7490G1Y4.110
N7500G1X-14.024Y13.217
N7510G3X-15.976I-0.976J-0.217
N7520G1X-18.000Y4.110
N7530G1Y-0.675
N7540G1Z-1.500F1200.0
N7550G3X-15.000Y-14.000I3.000J-6.325F3600.0
N7560G3X-12.000Y-0.675I0.000J7.000
N7570G1Y4.110
N7580G1X-14.024Y13.217
N7590G3X-15.976I-0.976J-0.217
N7600G1X-18.000Y4.110
N7610G1Y-0.675
N7620G1Z-2.000F1200.0
N7630G3X-15.000Y-14.000I3.000J-6.325F3600.0
N7640G3X-12.000Y-0.675I0.000J7.000
N7650G1Y4.110
N7660G1X-14.024Y13.217
N7670G3X-15.976I-0.976J-0.217
N7680G1X-18.000Y4.110
N7690G1Y-0.675
N7700G00Z6.000
N7710G00X-3.000
N7720G1Z-0.500F1200.0
N7730G3X0.000Y-14.000I3.000J-6.325F3600.0
N7740G3X3.000Y-0.675I0.000J7.000
N7750G1Y4.110
N7760G1X0.976Y13.217
N7770G3X-0.976I-0.976J-0.217
N7780G1X-3.000Y4.110
N7790G1Y-0.675
N7800G1Z-1.000F1200.0
N7810G3X0.000Y-14.000I3.000J-6.325F3600.0
N7820G3X3.000Y-0.675I0.000J7.000
N7830G1Y4.110
N7840G1X0.976Y13.217
N7850G3X-0.976I-0.976J-0.217
N7860G1X-3.000Y4.110
N7870G1Y-0.675
N7880G1Z-1.500F1200.0
N7890G3X0.000Y-14.000I3.000J-6.325F3600.0
N7900G3X3.000Y-0.675I0.000J7.000
N7910G1Y4.110
N7920G1X0.976Y13.217
N7930G3X-0.976I-0.976J-0.217
N7940G1X-3.000Y4.110
N7950G1Y-0.675
N7960G1Z-2.000F1200.0
N7970G3X0.000Y-14.000I3.000J-6.325F3600.0
N7980G3X3.000Y-0.675I0.000J7.000
N7990G1Y4.110
N8000G1X0.976Y13.217
N8010G3X-0.976I-0.976J-0.217
N8020G1X-3.000Y4.110
N8030G1Y-0.675
N8040G00Z6.000
N8050G00X12.000
N8060G1Z-0.500F1200.0
N8070G3X15.000Y-14.000I3.000J-6.325F3600.0
N8080G3X18.000Y-0.675I0.000J7.000
N8090G1Y4.110
N8100G1X15.976Y13.217
N8110G3X14.024I-0.976J-0.217
N8120G1X12.000Y4.110
N8130G1Y-0.675
N8140G1Z-1.000F1200.0
N8150G3X15.000Y-14.000I3.000J-6.325F3600.0
N8160G3X18.000Y-0.675I0.000J7.000
N8170G1Y4.110
N8180G1X15.976Y13.217
N8190G3X14.024I-0.976J-0.217
N8200G1X12.000Y4.110
N8210G1Y-0.675
N8220G1Z-1.500F1200.0
N8230G3X15.000Y-14.000I3.000J-6.325F3600.0
N8240G3X18.000Y-0.675I0.000J7.000
N8250G1Y4.110
N8260G1X15.976Y13.217
N8270G3X14.024I-0.976J-0.217
N8280G1X12.000Y4.110
N8290G1Y-0.675
N8300G1Z-2.000F1200.0
N8310G3X15.000Y-14.000I3.000J-6.325F3600.0
N8320G3X18.000Y-0.675I0.000J7.000
N8330G1Y4.110
N8340G1X15.976Y13.217
N8350G3X14.024I-0.976J-0.217
N8360G1X12.000Y4.110
N8370G1Y-0.675
N8380G00Z6.000
N8390G00X27.750Y-4.625
N8400G1Z-0.500F1200.0
N8410G3Y-10.625I2.250J-3.000F3600.0
N8420G1Y-16.625
N8430G3X30.000Y-23.375I2.250J-3.000
N8440G3X32.250Y-16.625I0.000J3.750
N8450G1Y-10.625
N8460G3Y-4.625I-2.250J3.000
N8470G1Y12.611
N8480G1X31.750Y13.611
N8490G1Y21.111
N8500G1X30.894Y22.822
N8510G3X29.106I-0.894J-0.447
N8520G1X28.250Y21.111
N8530G1Y13.611
N8540G1X27.750Y12.611
N8550G1Y-4.625
N8560G1Z-1.000F1200.0
N8570G3Y-10.625I2.250J-3.000F3600.0
N8580G1Y-16.625
N8590G3X30.000Y-23.375I2.250J-3.000
N8600G3X32.250Y-16.625I0.000J3.750
N8610G1Y-10.625
N8620G3Y-4.625I-2.250J3.000
N8630G1Y12.611
N8640G1X31.750Y13.611
N8650G1Y21.111
N8660G1X30.894Y22.822
N8670G3X29.106I-0.894J-0.447
N8680G1X28.250Y21.111
N8690G1Y13.611
N8700G1X27.750Y12.611
N8710G1Y-4.625
N8720G1Z-1.500F1200.0
N8730G3Y-10.625I2.250J-3.000F3600.0
N8740G1Y-16.625
N8750G3X30.000Y-23.375I2.250J-3.000
N8760G3X32.250Y-16.625I0.000J3.750
N8770G1Y-10.625
N8780G3Y-4.625I-2.250J3.000
N8790G1Y12.611
N8800G1X31.750Y13.611
N8810G1Y21.111
N8820G1X30.894Y22.822
N8830G3X29.106I-0.894J-0.447
N8840G1X28.250Y21.111
N8850G1Y13.611
N8860G1X27.750Y12.611
N8870G1Y-4.625
N8880G1Z-2.000F1200.0
N8890G3Y-10.625I2.250J-3.000F3600.0
N8900G1Y-16.625
N8910G3X30.000Y-23.375I2.250J-3.000
N8920G3X32.250Y-16.625I0.000J3.750
N8930G1Y-10.625
N8940G3Y-4.625I-2.250J3.000
N8950G1Y12.611
N8960G1X31.750Y13.611
N8970G1Y21.111
N8980G1X30.894Y22.822
N8990G3X29.106I-0.894J-0.447
N9000G1X28.250Y21.111
N9010G1Y13.611
N9020G1X27.750Y12.611
N9030G1Y-4.625
N9040G00Z6.000
N9050G00X42.750
N9060G1Z-0.500F1200.0
N9070G3Y-10.625I2.250J-3.000F3600.0
N9080G1Y-16.625
N9090G3X45.000Y-23.375I2.250J-3.000
N9100G3X47.250Y-16.625I0.000J3.750
N9110G1Y-10.625
N9120G3Y-4.625I-2.250J3.000
N9130G1Y12.611
N9140G1X46.750Y13.611
N9150G1Y21.111
N9160G1X45.894Y22.822
N9170G3X44.106I-0.894J-0.447
N9180G1X43.250Y21.111
N9190G1Y13.611
N9200G1X42.750Y12.611
N9210G1Y-4.625
N9220G1Z-1.000F1200.0
N9230G3Y-10.625I2.250J-3.000F3600.0
N9240G1Y-16.625
N9250G3X45.000Y-23.375I2.250J-3.000
N9260G3X47.250Y-16.625I0.000J3.750
N9270G1Y-10.625
N9280G3Y-4.625I-2.250J3.000
N9290G1Y12.611
N9300G1X46.750Y13.611
N9310G1Y21.111
N9320G1X45.894Y22.822
N9330G3X44.106I-0.894J-0.447
N9340G1X43.250Y21.111
N9350G1Y13.611
N9360G1X42.750Y12.611
N9370G1Y-4.625
N9380G1Z-1.500F1200.0
N9390G3Y-10.625I2.250J-3.000F3600.0
N9400G1Y-16.625
N9410G3X45.000Y-23.375I2.250J-3.000
N9420G3X47.250Y-16.625I0.000J3.750
N9430G1Y-10.625
N9440G3Y-4.625I-2.250J3.000
N9450G1Y12.611
N9460G1X46.750Y13.611
N9470G1Y21.111
N9480G1X45.894Y22.822
N9490G3X44.106I-0.894J-0.447
N9500G1X43.250Y21.111
N9510G1Y13.611
N9520G1X42.750Y12.611
N9530G1Y-4.625
N9540G1Z-2.000F1200.0
N9550G3Y-10.625I2.250J-3.000F3600.0
N9560G1Y-16.625
N9570G3X45.000Y-23.375I2.250J-3.000
N9580G3X47.250Y-16.625I0.000J3.750
N9590G1Y-10.625
N9600G3Y-4.625I-2.250J3.000
N9610G1Y12.611
N9620G1X46.750Y13.611
N9630G1Y21.111
N9640G1X45.894Y22.822
N9650G3X44.106I-0.894J-0.447
N9660G1X43.250Y21.111
N9670G1Y13.611
N9680G1X42.750Y12.611
N9690G1Y-4.625
N9700G00Z6.000
N9710G00X58.250Y-5.969
N9720G1Z-0.500F1200.0
N9730G3Y-12.031I1.750J-3.031F3600.0
N9740G1Y-21.000
N9750G3X59.250Y-22.000I1.000J0.000
N9760G1X60.750
N9770G3X61.750Y-21.000I0.000J1.000
N9780G1Y-12.031
N9790G3Y-5.969I-1.750J3.031
N9800G1Y10.314
N9810G3X62.500Y11.750I-1.000J1.436
N9820G1Y18.236
N9830G1X60.894Y21.447
N9840G3X59.106I-0.894J-0.447
N9850G1X57.500Y18.236
N9860G1Y11.750
N9870G3X58.250Y10.314I1.750J0.000
N9880G1Y-5.969
N9890G1Z-1.000F1200.0
N9900G3Y-12.031I1.750J-3.031F3600.0
N9910G1Y-21.000
N9920G3X59.250Y-22.000I1.000J0.000
N9930G1X60.750
N9940G3X61.750Y-21.000I0.000J1.000
N9950G1Y-12.031
N9960G3Y-5.969I-1.750J3.031
N9970G1Y10.314
N9980G3X62.500Y11.750I-1.000J1.436
N9990G1Y18.236
N10000G1X60.894Y21.447
N10010G3X59.106I-0.894J-0.447
N10020G1X57.500Y18.236
N10030G1Y11.750
N10040G3X58.250Y10.314I1.750J0.000
N10050G1Y-5.969
N10060G1Z-1.500F1200.0
N10070G3Y-12.031I1.750J-3.031F3600.0
N10080G1Y-21.000
N10090G3X59.250Y-22.000I1.000J0.000
N10100G1X60.750
N10110G3X61.750Y-21.000I0.000J1.000
N10120G1Y-12.031
N10130G3Y-5.969I-1.750J3.031
N10140G1Y10.314
N10150G3X62.500Y11.750I-1.000J1.436
N10160G1Y18.236
N10170G1X60.894Y21.447
N10180G3X59.106I-0.894J-0.447
N10190G1X57.500Y18.236
N10200G1Y11.750
N10210G3X58.250Y10.314I1.750J0.000
N10220G1Y-5.969
N10230G1Z-2.000F1200.0
N10240G3Y-12.031I1.750J-3.031F3600.0
N10250G1Y-21.000
N10260G3X59.250Y-22.000I1.000J0.000
N10270G1X60.750
N10280G3X61.750Y-21.000I0.000J1.000
N10290G1Y-12.031
N10300G3Y-5.969I-1.750J3.031
N10310G1Y10.314
N10320G3X62.500Y11.750I-1.000J1.436
N10330G1Y18.236
N10340G1X60.894Y21.447
N10350G3X59.106I-0.894J-0.447
N10360G1X57.500Y18.236
N10370G1Y11.750
N10380G3X58.250Y10.314I1.750J0.000
N10390G1Y-5.969
N10400G00Z6.000
N10410G00X73.250
N10420G1Z-0.500F1200.0
N10430G3Y-12.031I1.750J-3.031F3600.0
N10440G1Y-21.000
N10450G3X74.250Y-22.000I1.000J0.000
N10460G1X75.750
N10470G3X76.750Y-21.000I0.000J1.000
N10480G1Y-12.031
N10490G3Y-5.969I-1.750J3.031
N10500G1Y10.314
N10510G3X77.500Y11.750I-1.000J1.436
N10520G1Y18.236
N10530G1X75.894Y21.447
N10540G3X74.106I-0.894J-0.447
N10550G1X72.500Y18.236
N10560G1Y11.750
N10570G3X73.250Y10.314I1.750J0.000
N10580G1Y-5.969
N10590G1Z-1.000F1200.0
N10600G3Y-12.031I1.750J-3.031F3600.0
N10610G1Y-21.000
N10620G3X74.250Y-22.000I1.000J0.000
N10630G1X75.750
N10640G3X76.750Y-21.000I0.000J1.000
N10650G1Y-12.031
N10660G3Y-5.969I-1.750J3.031
N10670G1Y10.314
N10680G3X77.500Y11.750I-1.000J1.436
N10690G1Y18.236
N10700G1X75.894Y21.447
N10710G3X74.106I-0.894J-0.447
N10720G1X72.500Y18.236
N10730G1Y11.750
N10740G3X73.250Y10.314I1.750J0.000
N10750G1Y-5.969
N10760G1Z-1.500F1200.0
N10770G3Y-12.031I1.750J-3.031F3600.0
N10780G1Y-21.000
N10790G3X74.250Y-22.000I1.000J0.000
N10800G1X75.750
N10810G3X76.750Y-21.000I0.000J1.000
N10820G1Y-12.031
N10830G3Y-5.969I-1.750J3.031
N10840G1Y10.314
N10850G3X77.500Y11.750I-1.000J1.436
N10860G1Y18.236
N10870G1X75.894Y21.447
N10880G3X74.106I-0.894J-0.447
N10890G1X72.500Y18.236
N10900G1Y11.750
N10910G3X73.250Y10.314I1.750J0.000
N10920G1Y-5.969
N10930G1Z-2.000F1200.0
N10940G3Y-12.031I1.750J-3.031F3600.0
N10950G1Y-21.000
N10960G3X74.250Y-22.000I1.000J0.000
N10970G1X75.750
N10980G3X76.750Y-21.000I0.000J1.000
N10990G1Y-12.031
N11000G3Y-5.969I-1.750J3.031
N11010G1Y10.314
N11020G3X77.500Y11.750I-1.000J1.436
N11030G1Y18.236
N11040G1X75.894Y21.447
N11050G3X74.106I-0.894J-0.447
N11060G1X72.500Y18.236
N11070G1Y11.750
N11080G3X73.250Y10.314I1.750J0.000
N11090G1Y-5.969
N11100G00Z6.000
N11110G00X87.750Y-6.625
N11120G1Z-0.500F1200.0
N11130G1Y-10.625F3600.0
N11140G3X90.000Y-17.375I2.250J-3.000
N11150G3X92.250Y-10.625I0.000J3.750
N11160G1Y-6.625
N11170G3Y-0.625I-2.250J3.000
N11180G1Y14.111
N11190G1X90.894Y16.822
N11200G3X89.106I-0.894J-0.447
N11210G1X87.750Y14.111
N11220G1Y-0.625
N11230G3Y-6.625I2.250J-3.000
N11240G1Z-1.000F1200.0
N11250G1Y-10.625F3600.0
N11260G3X90.000Y-17.375I2.250J-3.000
N11270G3X92.250Y-10.625I0.000J3.750
N11280G1Y-6.625
N11290G3Y-0.625I-2.250J3.000
N11300G1Y14.111
N11310G1X90.894Y16.822
N11320G3X89.106I-0.894J-0.447
N11330G1X87.750Y14.111
N11340G1Y-0.625
N11350G3Y-6.625I2.250J-3.000
N11360G1Z-1.500F1200.0
N11370G1Y-10.625F3600.0
N11380G3X90.000Y-17.375I2.250J-3.000
N11390G3X92.250Y-10.625I0.000J3.750
N11400G1Y-6.625
N11410G3Y-0.625I-2.250J3.000
N11420G1Y14.111
N11430G1X90.894Y16.822
N11440G3X89.106I-0.894J-0.447
N11450G1X87.750Y14.111
N11460G1Y-0.625
N11470G3Y-6.625I2.250J-3.000
N11480G1Z-2.000F1200.0
N11490G1Y-10.625F3600.0
N11500G3X90.000Y-17.375I2.250J-3.000
N11510G3X92.250Y-10.625I0.000J3.750
N11520G1Y-6.625
N11530G3Y-0.625I-2.250J3.000
N11540G1Y14.111
N11550G1X90.894Y16.822
N11560G3X89.106I-0.894J-0.447
N11570G1X87.750Y14.111
N11580G1Y-0.625
N11590G3Y-6.625I2.250J-3.000
N11600G00Z6.000
N11610G00X101.080Y-4.430
N11620G1Z-0.500F1200.0
N11630G1X101.179Y-4.814F3600.0
N11640G1X101.314Y-5.183
N11650G1X101.482Y-5.533
N11660G1X101.683Y-5.863
N11670G1X101.913Y-6.170
N11680G1X102.171Y-6.454
N11690G1X102.455Y-6.712
N11700G1X102.762Y-6.942
N11710G1X103.092Y-7.143
N11720G1X103.442Y-7.311
N11730G1X103.811Y-7.446
N11740G1X104.195Y-7.545
N11750G1X104.592Y-7.606
N11760G1X105.000Y-7.626
N11770G1X105.408Y-7.606
N11780G1X105.805Y-7.545
N11790G1X106.189Y-7.446
N11800G1X106.558Y-7.311
N11810G1X106.908Y-7.143
N11820G1X107.238Y-6.942
N11830G1X107.545Y-6.712
N11840G1X107.829Y-6.454
N11850G1X108.087Y-6.170
N11860G1X108.317Y-5.863
N11870G1X108.518Y-5.533
N11880G1X108.686Y-5.183
N11890G1X108.821Y-4.814
N11900G1X108.920Y-4.430
N11910G1X108.981Y-4.033
N11920G1X109.001Y-3.632
N11930G1X108.990Y-3.326
N11940G1X108.957Y-3.033
N11950G1X108.903Y-2.745
N11960G1X108.830Y-2.465
N11970G1X108.737Y-2.194
N11980G1X108.625Y-1.931
N11990G1X108.496Y-1.679
N12000G1X108.341Y-1.423
N12010G1X108.012Y-0.990
N12020G1X107.614Y-0.595
N12030G1X107.251Y-0.323
N12040G1X107.250Y14.111
N12050G1X105.894Y16.822
N12060G3X104.106I-0.894J-0.447
N12070G1X102.750Y14.111
N12080G1X102.749Y-0.323
N12090G1X102.386Y-0.595
N12100G1X101.988Y-0.990
N12110G1X101.648Y-1.437
N12120G1X101.382Y-1.915
N12130G1X101.263Y-2.194
N12140G1X101.170Y-2.465
N12150G1X101.097Y-2.745
N12160G1X101.043Y-3.033
N12170G1X101.010Y-3.326
N12180G1X100.999Y-3.632
N12190G1X101.019Y-4.033
N12200G1X101.080Y-4.430
N12210G1Z-1.000F1200.0
N12220G1X101.179Y-4.814F3600.0
N12230G1X101.314Y-5.183
N12240G1X101.482Y-5.533
N12250G1X101.683Y-5.863
N12260G1X101.913Y-6.170
N12270G1X102.171Y-6.454
N12280G1X102.455Y-6.712
N12290G1X102.762Y-6.942
N12300G1X103.092Y-7.143
N12310G1X103.442Y-7.311
N12320G1X103.811Y-7.446
N12330G1X104.195Y-7.545
N12340G1X104.592Y-7.606
N12350G1X105.000Y-7.626
N12360G1X105.408Y-7.606
N12370G1X105.805Y-7.545
N12380G1X106.189Y-7.446
N12390G1X106.558Y-7.311
N12400G1X106.908Y-7.143
N12410G1X107.238Y-6.942
N12420G1X107.545Y-6.712
N12430G1X107.829Y-6.454
N12440G1X108.087Y-6.170
N12450G1X108.317Y-5.863
N12460G1X108.518Y-5.533
N12470G1X108.686Y-5.183
N12480G1X108.821Y-4.814
N12490G1X108.920Y-4.430
N12500G1X108.981Y-4.033
N12510G1X109.001Y-3.632
N12520G1X108.990Y-3.326
N12530G1X108.957Y-3.033
N12540G1X108.903Y-2.745
N12550G1X108.830Y-2.465
N12560G1X108.737Y-2.194
N12570G1X108.625Y-1.931
N12580G1X108.496Y-1.679
N12590G1X108.341Y-1.423
N12600G1X108.012Y-0.990
N12610G1X107.614Y-0.595
N12620G1X107.251Y-0.323
N12630G1X107.250Y14.111
N12640G1X105.894Y16.822
N12650G3X104.106I-0.894J-0.447
N12660G1X102.750Y14.111
N12670G1X102.749Y-0.323
N12680G1X102.386Y-0.595
N12690G1X101.988Y-0.990
N12700G1X101.648Y-1.437
N12710G1X101.382Y-1.915
N12720G1X101.263Y-2.194
N12730G1X101.170Y-2.465
N12740G1X101.097Y-2.745
N12750G1X101.043Y-3.033
N12760G1X101.010Y-3.326
N12770G1X100.999Y-3.632
N12780G1X101.019Y-4.033
N12790G1X101.080Y-4.430
N12800G1Z-1.500F1200.0
N12810G1X101.179Y-4.814F3600.0
N12820G1X101.314Y-5.183
N12830G1X101.482Y-5.533
N12840G1X101.683Y-5.863
N12850G1X101.913Y-6.170
N12860G1X102.171Y-6.454
N12870G1X102.455Y-6.712
N12880G1X102.762Y-6.942
N12890G1X103.092Y-7.143
N12900G1X103.442Y-7.311
N12910G1X103.811Y-7.446
N12920G1X104.195Y-7.545
N12930G1X104.592Y-7.606
N12940G1X105.000Y-7.626
N12950G1X105.408Y-7.606
N12960G1X105.805Y-7.545
N12970G1X106.189Y-7.446
N12980G1X106.558Y-7.311
N12990G1X106.908Y-7.143
N13000G1X107.238Y-6.942
N13010G1X107.545Y-6.712
N13020G1X107.829Y-6.454
N13030G1X108.087Y-6.170
N13040G1X108.317Y-5.863
N13050G1X108.518Y-5.533
N13060G1X108.686Y-5.183
N13070G1X108.821Y-4.814
N13080G1X108.920Y-4.430
N13090G1X108.981Y-4.033
N13100G1X109.001Y-3.632
N13110G1X108.990Y-3.326
N13120G1X108.957Y-3.033
N13130G1X108.903Y-2.745
N13140G1X108.830Y-2.465
N13150G1X108.737Y-2.194
N13160G1X108.625Y-1.931
N13170G1X108.496Y-1.679
N13180G1X108.341Y-1.423
N13190G1X108.012Y-0.990
N13200G1X107.614Y-0.595
N13210G1X107.251Y-0.323
N13220G1X107.250Y14.111
N13230G1X105.894Y16.822
N13240G3X104.106I-0.894J-0.447
N13250G1X102.750Y14.111
N13260G1X102.749Y-0.323
N13270G1X102.386Y-0.595
N13280G1X101.988Y-0.990
N13290G1X101.648Y-1.437
N13300G1X101.382Y-1.915
N13310G1X101.263Y-2.194
N13320G1X101.170Y-2.465
N13330G1X101.097Y-2.745
N13340G1X101.043Y-3.033
N13350G1X101.010Y-3.326
N13360G1X100.999Y-3.632
N13370G1X101.019Y-4.033
N13380G1X101.080Y-4.430
N13390G1Z-2.000F1200.0
N13400G1X101.179Y-4.814F3600.0
N13410G1X101.314Y-5.183
N13420G1X101.482Y-5.533
N13430G1X101.683Y-5.863
N13440G1X101.913Y-6.170
N13450G1X102.171Y-6.454
N13460G1X102.455Y-6.712
N13470G1X102.762Y-6.942
N13480G1X103.092Y-7.143
N13490G1X103.442Y-7.311
N13500G1X103.811Y-7.446
N13510G1X104.195Y-7.545
N13520G1X104.592Y-7.606
N13530G1X105.000Y-7.626
N13540G1X105.408Y-7.606
N13550G1X105.805Y-7.545
N13560G1X106.189Y-7.446
N13570G1X106.558Y-7.311
N13580G1X106.908Y-7.143
N13590G1X107.238Y-6.942
N13600G1X107.545Y-6.712
N13610G1X107.829Y-6.454
N13620G1X108.087Y-6.170
N13630G1X108.317Y-5.863
N13640G1X108.518Y-5.533
N13650G1X108.686Y-5.183
N13660G1X108.821Y-4.814
N13670G1X108.920Y-4.430
N13680G1X108.981Y-4.033
N13690G1X109.001Y-3.632
N13700G1X108.990Y-3.326
N13710G1X108.957Y-3.033
N13720G1X108.903Y-2.745
N13730G1X108.830Y-2.465
N13740G1X108.737Y-2.194
N13750G1X108.625Y-1.931
N13760G1X108.496Y-1.679
N13770G1X108.341Y-1.423
N13780G1X108.012Y-0.990
N13790G1X107.614Y-0.595
N13800G1X107.251Y-0.323
N13810G1X107.250Y14.111
N13820G1X105.894Y16.822
N13830G3X104.106I-0.894J-0.447
N13840G1X102.750Y14.111
N13850G1X102.749Y-0.323
N13860G1X102.386Y-0.595
N13870G1X101.988Y-0.990
N13880G1X101.648Y-1.437
N13890G1X101.382Y-1.915
N13900G1X101.263Y-2.194
N13910G1X101.170Y-2.465
N13920G1X101.097Y-2.745
N13930G1X101.043Y-3.033
N13940G1X101.010Y-3.326
N13950G1X100.999Y-3.632
N13960G1X101.019Y-4.033
N13970G1X101.080Y-4.430
N13980G00Z6.000
N13990G00Z20.000
N14000G00X0.000Y0.000
N14010M09
N14020M30
%
