( DISPLAY_FRONT_GLASS_CUTOUT )
( File created: Saturday January 11 2020 - 02:06 AM)
( USBCNC Postprocessor )
( Material Size)
( X= 250.000, Y= 250.000, Z= 4.000)
()
(Toolpaths used in this file:)
(Profile 1)
(Tools used in this file: )
(1 = End Mill {2 mm})
N100G00G21G17G90G40G49
N110G80
N120 (End Mill {2 mm})
N130G00G43Z20.000H1
N140S12000M03
N150(Toolpath:- Profile 1)
N160()
N170G94
N180X0.000Y0.000F3600.0
N190G00X-51.000Y82.449Z6.000
N200G1Z-0.500F1200.0
N210G1Y-82.449F3600.0
N220G1X-50.962Y-82.878
N230G1X-50.837Y-83.342
N240G1X-50.634Y-83.761
N250G1X-50.480Y-83.988
N260G1X-50.317Y-84.183
N270G1X-50.131Y-84.364
N280G1X-49.923Y-84.526
N290G1X-49.695Y-84.668
N300G1X-49.449Y-84.787
N310G1X-49.188Y-84.880
N320G1X-48.913Y-84.947
N330G1X-48.628Y-84.988
N340G1X-48.356Y-85.000
N350G1X48.356
N360G1X48.628Y-84.988
N370G1X48.913Y-84.947
N380G1X49.188Y-84.880
N390G1X49.449Y-84.787
N400G1X49.695Y-84.668
N410G1X49.923Y-84.526
N420G1X50.131Y-84.364
N430G1X50.317Y-84.183
N440G1X50.480Y-83.988
N450G1X50.634Y-83.761
N460G1X50.837Y-83.342
N470G1X50.962Y-82.878
N480G1X51.000Y-82.449
N490G1Y82.449
N500G1X50.962Y82.878
N510G1X50.837Y83.342
N520G1X50.634Y83.761
N530G1X50.480Y83.988
N540G1X50.317Y84.183
N550G1X50.131Y84.364
N560G1X49.923Y84.526
N570G1X49.695Y84.668
N580G1X49.449Y84.787
N590G1X49.188Y84.880
N600G1X48.913Y84.947
N610G1X48.628Y84.988
N620G1X48.356Y85.000
N630G1X-48.356
N640G1X-48.628Y84.988
N650G1X-48.913Y84.947
N660G1X-49.188Y84.880
N670G1X-49.449Y84.787
N680G1X-49.695Y84.668
N690G1X-49.923Y84.526
N700G1X-50.131Y84.364
N710G1X-50.317Y84.183
N720G1X-50.480Y83.988
N730G1X-50.634Y83.761
N740G1X-50.837Y83.342
N750G1X-50.962Y82.878
N760G1X-51.000Y82.449
N770G1Z-1.000F1200.0
N780G1Y-82.449F3600.0
N790G1X-50.962Y-82.878
N800G1X-50.837Y-83.342
N810G1X-50.634Y-83.761
N820G1X-50.480Y-83.988
N830G1X-50.317Y-84.183
N840G1X-50.131Y-84.364
N850G1X-49.923Y-84.526
N860G1X-49.695Y-84.668
N870G1X-49.449Y-84.787
N880G1X-49.188Y-84.880
N890G1X-48.913Y-84.947
N900G1X-48.628Y-84.988
N910G1X-48.356Y-85.000
N920G1X48.356
N930G1X48.628Y-84.988
N940G1X48.913Y-84.947
N950G1X49.188Y-84.880
N960G1X49.449Y-84.787
N970G1X49.695Y-84.668
N980G1X49.923Y-84.526
N990G1X50.131Y-84.364
N1000G1X50.317Y-84.183
N1010G1X50.480Y-83.988
N1020G1X50.634Y-83.761
N1030G1X50.837Y-83.342
N1040G1X50.962Y-82.878
N1050G1X51.000Y-82.449
N1060G1Y82.449
N1070G1X50.962Y82.878
N1080G1X50.837Y83.342
N1090G1X50.634Y83.761
N1100G1X50.480Y83.988
N1110G1X50.317Y84.183
N1120G1X50.131Y84.364
N1130G1X49.923Y84.526
N1140G1X49.695Y84.668
N1150G1X49.449Y84.787
N1160G1X49.188Y84.880
N1170G1X48.913Y84.947
N1180G1X48.628Y84.988
N1190G1X48.356Y85.000
N1200G1X-48.356
N1210G1X-48.628Y84.988
N1220G1X-48.913Y84.947
N1230G1X-49.188Y84.880
N1240G1X-49.449Y84.787
N1250G1X-49.695Y84.668
N1260G1X-49.923Y84.526
N1270G1X-50.131Y84.364
N1280G1X-50.317Y84.183
N1290G1X-50.480Y83.988
N1300G1X-50.634Y83.761
N1310G1X-50.837Y83.342
N1320G1X-50.962Y82.878
N1330G1X-51.000Y82.449
N1340G1Z-1.500F1200.0
N1350G1Y-82.449F3600.0
N1360G1X-50.962Y-82.878
N1370G1X-50.837Y-83.342
N1380G1X-50.634Y-83.761
N1390G1X-50.480Y-83.988
N1400G1X-50.317Y-84.183
N1410G1X-50.131Y-84.364
N1420G1X-49.923Y-84.526
N1430G1X-49.695Y-84.668
N1440G1X-49.449Y-84.787
N1450G1X-49.188Y-84.880
N1460G1X-48.913Y-84.947
N1470G1X-48.628Y-84.988
N1480G1X-48.356Y-85.000
N1490G1X48.356
N1500G1X48.628Y-84.988
N1510G1X48.913Y-84.947
N1520G1X49.188Y-84.880
N1530G1X49.449Y-84.787
N1540G1X49.695Y-84.668
N1550G1X49.923Y-84.526
N1560G1X50.131Y-84.364
N1570G1X50.317Y-84.183
N1580G1X50.480Y-83.988
N1590G1X50.634Y-83.761
N1600G1X50.837Y-83.342
N1610G1X50.962Y-82.878
N1620G1X51.000Y-82.449
N1630G1Y82.449
N1640G1X50.962Y82.878
N1650G1X50.837Y83.342
N1660G1X50.634Y83.761
N1670G1X50.480Y83.988
N1680G1X50.317Y84.183
N1690G1X50.131Y84.364
N1700G1X49.923Y84.526
N1710G1X49.695Y84.668
N1720G1X49.449Y84.787
N1730G1X49.188Y84.880
N1740G1X48.913Y84.947
N1750G1X48.628Y84.988
N1760G1X48.356Y85.000
N1770G1X-48.356
N1780G1X-48.628Y84.988
N1790G1X-48.913Y84.947
N1800G1X-49.188Y84.880
N1810G1X-49.449Y84.787
N1820G1X-49.695Y84.668
N1830G1X-49.923Y84.526
N1840G1X-50.131Y84.364
N1850G1X-50.317Y84.183
N1860G1X-50.480Y83.988
N1870G1X-50.634Y83.761
N1880G1X-50.837Y83.342
N1890G1X-50.962Y82.878
N1900G1X-51.000Y82.449
N1910G1Z-2.000F1200.0
N1920G1Y-82.449F3600.0
N1930G1X-50.962Y-82.878
N1940G1X-50.837Y-83.342
N1950G1X-50.634Y-83.761
N1960G1X-50.480Y-83.988
N1970G1X-50.317Y-84.183
N1980G1X-50.131Y-84.364
N1990G1X-49.923Y-84.526
N2000G1X-49.695Y-84.668
N2010G1X-49.449Y-84.787
N2020G1X-49.188Y-84.880
N2030G1X-48.913Y-84.947
N2040G1X-48.628Y-84.988
N2050G1X-48.356Y-85.000
N2060G1X48.356
N2070G1X48.628Y-84.988
N2080G1X48.913Y-84.947
N2090G1X49.188Y-84.880
N2100G1X49.449Y-84.787
N2110G1X49.695Y-84.668
N2120G1X49.923Y-84.526
N2130G1X50.131Y-84.364
N2140G1X50.317Y-84.183
N2150G1X50.480Y-83.988
N2160G1X50.634Y-83.761
N2170G1X50.837Y-83.342
N2180G1X50.962Y-82.878
N2190G1X51.000Y-82.449
N2200G1Y82.449
N2210G1X50.962Y82.878
N2220G1X50.837Y83.342
N2230G1X50.634Y83.761
N2240G1X50.480Y83.988
N2250G1X50.317Y84.183
N2260G1X50.131Y84.364
N2270G1X49.923Y84.526
N2280G1X49.695Y84.668
N2290G1X49.449Y84.787
N2300G1X49.188Y84.880
N2310G1X48.913Y84.947
N2320G1X48.628Y84.988
N2330G1X48.356Y85.000
N2340G1X-48.356
N2350G1X-48.628Y84.988
N2360G1X-48.913Y84.947
N2370G1X-49.188Y84.880
N2380G1X-49.449Y84.787
N2390G1X-49.695Y84.668
N2400G1X-49.923Y84.526
N2410G1X-50.131Y84.364
N2420G1X-50.317Y84.183
N2430G1X-50.480Y83.988
N2440G1X-50.634Y83.761
N2450G1X-50.837Y83.342
N2460G1X-50.962Y82.878
N2470G1X-51.000Y82.449
N2480G1Z-2.500F1200.0
N2490G1Y-82.449F3600.0
N2500G1X-50.962Y-82.878
N2510G1X-50.837Y-83.342
N2520G1X-50.634Y-83.761
N2530G1X-50.480Y-83.988
N2540G1X-50.317Y-84.183
N2550G1X-50.131Y-84.364
N2560G1X-49.923Y-84.526
N2570G1X-49.695Y-84.668
N2580G1X-49.449Y-84.787
N2590G1X-49.188Y-84.880
N2600G1X-48.913Y-84.947
N2610G1X-48.628Y-84.988
N2620G1X-48.356Y-85.000
N2630G1X48.356
N2640G1X48.628Y-84.988
N2650G1X48.913Y-84.947
N2660G1X49.188Y-84.880
N2670G1X49.449Y-84.787
N2680G1X49.695Y-84.668
N2690G1X49.923Y-84.526
N2700G1X50.131Y-84.364
N2710G1X50.317Y-84.183
N2720G1X50.480Y-83.988
N2730G1X50.634Y-83.761
N2740G1X50.837Y-83.342
N2750G1X50.962Y-82.878
N2760G1X51.000Y-82.449
N2770G1Y82.449
N2780G1X50.962Y82.878
N2790G1X50.837Y83.342
N2800G1X50.634Y83.761
N2810G1X50.480Y83.988
N2820G1X50.317Y84.183
N2830G1X50.131Y84.364
N2840G1X49.923Y84.526
N2850G1X49.695Y84.668
N2860G1X49.449Y84.787
N2870G1X49.188Y84.880
N2880G1X48.913Y84.947
N2890G1X48.628Y84.988
N2900G1X48.356Y85.000
N2910G1X-48.356
N2920G1X-48.628Y84.988
N2930G1X-48.913Y84.947
N2940G1X-49.188Y84.880
N2950G1X-49.449Y84.787
N2960G1X-49.695Y84.668
N2970G1X-49.923Y84.526
N2980G1X-50.131Y84.364
N2990G1X-50.317Y84.183
N3000G1X-50.480Y83.988
N3010G1X-50.634Y83.761
N3020G1X-50.837Y83.342
N3030G1X-50.962Y82.878
N3040G1X-51.000Y82.449
N3050G1Z-3.000F1200.0
N3060G1Y-82.449F3600.0
N3070G1X-50.962Y-82.878
N3080G1X-50.837Y-83.342
N3090G1X-50.634Y-83.761
N3100G1X-50.480Y-83.988
N3110G1X-50.317Y-84.183
N3120G1X-50.131Y-84.364
N3130G1X-49.923Y-84.526
N3140G1X-49.695Y-84.668
N3150G1X-49.449Y-84.787
N3160G1X-49.188Y-84.880
N3170G1X-48.913Y-84.947
N3180G1X-48.628Y-84.988
N3190G1X-48.356Y-85.000
N3200G1X48.356
N3210G1X48.628Y-84.988
N3220G1X48.913Y-84.947
N3230G1X49.188Y-84.880
N3240G1X49.449Y-84.787
N3250G1X49.695Y-84.668
N3260G1X49.923Y-84.526
N3270G1X50.131Y-84.364
N3280G1X50.317Y-84.183
N3290G1X50.480Y-83.988
N3300G1X50.634Y-83.761
N3310G1X50.837Y-83.342
N3320G1X50.962Y-82.878
N3330G1X51.000Y-82.449
N3340G1Y82.449
N3350G1X50.962Y82.878
N3360G1X50.837Y83.342
N3370G1X50.634Y83.761
N3380G1X50.480Y83.988
N3390G1X50.317Y84.183
N3400G1X50.131Y84.364
N3410G1X49.923Y84.526
N3420G1X49.695Y84.668
N3430G1X49.449Y84.787
N3440G1X49.188Y84.880
N3450G1X48.913Y84.947
N3460G1X48.628Y84.988
N3470G1X48.356Y85.000
N3480G1X-48.356
N3490G1X-48.628Y84.988
N3500G1X-48.913Y84.947
N3510G1X-49.188Y84.880
N3520G1X-49.449Y84.787
N3530G1X-49.695Y84.668
N3540G1X-49.923Y84.526
N3550G1X-50.131Y84.364
N3560G1X-50.317Y84.183
N3570G1X-50.480Y83.988
N3580G1X-50.634Y83.761
N3590G1X-50.837Y83.342
N3600G1X-50.962Y82.878
N3610G1X-51.000Y82.449
N3620G1Z-3.500F1200.0
N3630G1Y-82.449F3600.0
N3640G1X-50.962Y-82.878
N3650G1X-50.837Y-83.342
N3660G1X-50.634Y-83.761
N3670G1X-50.480Y-83.988
N3680G1X-50.317Y-84.183
N3690G1X-50.131Y-84.364
N3700G1X-49.923Y-84.526
N3710G1X-49.695Y-84.668
N3720G1X-49.449Y-84.787
N3730G1X-49.188Y-84.880
N3740G1X-48.913Y-84.947
N3750G1X-48.628Y-84.988
N3760G1X-48.356Y-85.000
N3770G1X48.356
N3780G1X48.628Y-84.988
N3790G1X48.913Y-84.947
N3800G1X49.188Y-84.880
N3810G1X49.449Y-84.787
N3820G1X49.695Y-84.668
N3830G1X49.923Y-84.526
N3840G1X50.131Y-84.364
N3850G1X50.317Y-84.183
N3860G1X50.480Y-83.988
N3870G1X50.634Y-83.761
N3880G1X50.837Y-83.342
N3890G1X50.962Y-82.878
N3900G1X51.000Y-82.449
N3910G1Y82.449
N3920G1X50.962Y82.878
N3930G1X50.837Y83.342
N3940G1X50.634Y83.761
N3950G1X50.480Y83.988
N3960G1X50.317Y84.183
N3970G1X50.131Y84.364
N3980G1X49.923Y84.526
N3990G1X49.695Y84.668
N4000G1X49.449Y84.787
N4010G1X49.188Y84.880
N4020G1X48.913Y84.947
N4030G1X48.628Y84.988
N4040G1X48.356Y85.000
N4050G1X-48.356
N4060G1X-48.628Y84.988
N4070G1X-48.913Y84.947
N4080G1X-49.188Y84.880
N4090G1X-49.449Y84.787
N4100G1X-49.695Y84.668
N4110G1X-49.923Y84.526
N4120G1X-50.131Y84.364
N4130G1X-50.317Y84.183
N4140G1X-50.480Y83.988
N4150G1X-50.634Y83.761
N4160G1X-50.837Y83.342
N4170G1X-50.962Y82.878
N4180G1X-51.000Y82.449
N4190G1Z-4.000F1200.0
N4200G1Y-82.449F3600.0
N4210G1X-50.962Y-82.878
N4220G1X-50.837Y-83.342
N4230G1X-50.634Y-83.761
N4240G1X-50.480Y-83.988
N4250G1X-50.317Y-84.183
N4260G1X-50.131Y-84.364
N4270G1X-49.923Y-84.526
N4280G1X-49.695Y-84.668
N4290G1X-49.449Y-84.787
N4300G1X-49.188Y-84.880
N4310G1X-48.913Y-84.947
N4320G1X-48.628Y-84.988
N4330G1X-48.356Y-85.000
N4340G1X48.356
N4350G1X48.628Y-84.988
N4360G1X48.913Y-84.947
N4370G1X49.188Y-84.880
N4380G1X49.449Y-84.787
N4390G1X49.695Y-84.668
N4400G1X49.923Y-84.526
N4410G1X50.131Y-84.364
N4420G1X50.317Y-84.183
N4430G1X50.480Y-83.988
N4440G1X50.634Y-83.761
N4450G1X50.837Y-83.342
N4460G1X50.962Y-82.878
N4470G1X51.000Y-82.449
N4480G1Y82.449
N4490G1X50.962Y82.878
N4500G1X50.837Y83.342
N4510G1X50.634Y83.761
N4520G1X50.480Y83.988
N4530G1X50.317Y84.183
N4540G1X50.131Y84.364
N4550G1X49.923Y84.526
N4560G1X49.695Y84.668
N4570G1X49.449Y84.787
N4580G1X49.188Y84.880
N4590G1X48.913Y84.947
N4600G1X48.628Y84.988
N4610G1X48.356Y85.000
N4620G1X-48.356
N4630G1X-48.628Y84.988
N4640G1X-48.913Y84.947
N4650G1X-49.188Y84.880
N4660G1X-49.449Y84.787
N4670G1X-49.695Y84.668
N4680G1X-49.923Y84.526
N4690G1X-50.131Y84.364
N4700G1X-50.317Y84.183
N4710G1X-50.480Y83.988
N4720G1X-50.634Y83.761
N4730G1X-50.837Y83.342
N4740G1X-50.962Y82.878
N4750G1X-51.000Y82.449
N4760G00Z6.000
N4770G00Z20.000
N4780G00X0.000Y0.000
N4790M09
N4800M30
%
