( DRILL_POINTERS )
( File created: Thursday December 12 2019 - 06:31 PM)
( USBCNC Postprocessor )
( Material Size)
( X= 250.000, Y= 250.000, Z= 2.000)
()
(Toolpaths used in this file:)
(Drill)
(Tools used in this file: )
(1 = Drill {1.0 mm})
N100G00G21G17G90G40G49
N110G80
N120 (Drill {1.0 mm})
N130G00G43Z20.000H1
N140S12000M03
N150(Toolpath:- Drill)
N160()
N170G94
N180X0.000Y0.000F3747.6
N190G00X-105.000Y-7.000Z6.000
N200G1Z-4.000F1200.0
N210G00Z6.000
N220G00X-90.000
N230G1Z-4.000F1200.0
N240G00Z6.000
N250G00X-75.000
N260G1Z-4.000F1200.0
N270G00Z6.000
N280G00X-60.000
N290G1Z-4.000F1200.0
N300G00Z6.000
N310G00X-45.000
N320G1Z-4.000F1200.0
N330G00Z6.000
N340G00X-30.000
N350G1Z-4.000F1200.0
N360G00Z6.000
N370G00X-15.000
N380G1Z-4.000F1200.0
N390G00Z6.000
N400G00X0.000
N410G1Z-4.000F1200.0
N420G00Z6.000
N430G00X15.000
N440G1Z-4.000F1200.0
N450G00Z6.000
N460G00X30.000Y-7.625
N470G1Z-4.000F1200.0
N480G00Z6.000
N490G00X45.000
N500G1Z-4.000F1200.0
N510G00Z6.000
N520G00X60.000Y-9.000
N530G1Z-4.000F1200.0
N540G00Z6.000
N550G00X75.000
N560G1Z-4.000F1200.0
N570G00Z6.000
N580G00X90.000Y-3.625
N590G1Z-4.000F1200.0
N600G00Z6.000
N610G00X105.000
N620G1Z-4.000F1200.0
N630G00Z6.000
N640G00Z20.000
N650G00X0.000Y0.000
N660M09
N670M30
%
