( ENCODERS_PANEL_CUTOUT )
( File created: Friday December 13 2019 - 06:23 PM)
( USBCNC Postprocessor )
( Material Size)
( X= 250.000, Y= 250.000, Z= 2.000)
()
(Toolpaths used in this file:)
(Profile 1)
(Profile 2)
(Profile 3)
(Profile 4)
(Profile 5)
(Profile 6)
(Profile 7)
(Tools used in this file: )
(1 = End Mill {2 mm})
N160G00G21G17G90G40G49
N170G80
N180 (End Mill {2 mm})
N190G00G43Z20.000H1
N200S12000M03
N210(Toolpath:- Profile 1)
N220()
N230G94
N240X0.000Y0.000F3600.0
N250G00X-21.000Y13.000Z6.000
N260G1Z-0.500F1200.0
N270G2X-24.000Y10.000I-3.000J0.000F3600.0
N280G2X-27.000Y13.000I0.000J3.000
N290G2X-24.000Y16.000I3.000J0.000
N300G2X-21.000Y13.000I0.000J-3.000
N310G1Z-1.000F1200.0
N320G2X-24.000Y10.000I-3.000J0.000F3600.0
N330G2X-27.000Y13.000I0.000J3.000
N340G2X-24.000Y16.000I3.000J0.000
N350G2X-21.000Y13.000I0.000J-3.000
N360G1Z-1.500F1200.0
N370G2X-24.000Y10.000I-3.000J0.000F3600.0
N380G2X-27.000Y13.000I0.000J3.000
N390G2X-24.000Y16.000I3.000J0.000
N400G2X-21.000Y13.000I0.000J-3.000
N410G1Z-2.000F1200.0
N420G2X-24.000Y10.000I-3.000J0.000F3600.0
N430G2X-27.000Y13.000I0.000J3.000
N440G2X-24.000Y16.000I3.000J0.000
N450G2X-21.000Y13.000I0.000J-3.000
N460G00Z6.000
N470G00X-16.476Y20.621
N480G1Z-0.500F1200.0
N490G1X-16.558Y20.671F3600.0
N500G1X-16.635Y20.729
N510G1X-16.706Y20.794
N520G1X-16.771Y20.865
N530G1X-16.829Y20.942
N540G1X-16.879Y21.024
N550G1X-16.921Y21.111
N560G1X-16.954Y21.202
N570G1X-16.978Y21.297
N580G1X-16.993Y21.396
N590G1X-16.999Y21.500
N600G1X-16.993Y21.604
N610G1X-16.978Y21.703
N620G1X-16.954Y21.798
N630G1X-16.921Y21.889
N640G1X-16.879Y21.976
N650G1X-16.829Y22.058
N660G1X-16.771Y22.135
N670G1X-16.706Y22.206
N680G1X-16.635Y22.271
N690G1X-16.558Y22.329
N700G1X-16.476Y22.379
N710G1X-16.389Y22.421
N720G1X-16.298Y22.454
N730G1X-16.203Y22.478
N740G1X-16.104Y22.493
N750G1X-16.000Y22.499
N760G1X-15.896Y22.493
N770G1X-15.797Y22.478
N780G1X-15.702Y22.454
N790G1X-15.611Y22.421
N800G1X-15.524Y22.379
N810G1X-15.442Y22.329
N820G1X-15.365Y22.271
N830G1X-15.294Y22.206
N840G1X-15.229Y22.135
N850G1X-15.171Y22.058
N860G1X-15.121Y21.976
N870G1X-15.079Y21.889
N880G1X-15.046Y21.798
N890G1X-15.022Y21.703
N900G1X-15.007Y21.604
N910G1X-15.001Y21.500
N920G1X-15.007Y21.396
N930G1X-15.022Y21.297
N940G1X-15.046Y21.202
N950G1X-15.079Y21.111
N960G1X-15.121Y21.024
N970G1X-15.171Y20.942
N980G1X-15.229Y20.865
N990G1X-15.294Y20.794
N1000G1X-15.365Y20.729
N1010G1X-15.442Y20.671
N1020G1X-15.524Y20.621
N1030G1X-15.611Y20.579
N1040G1X-15.702Y20.546
N1050G1X-15.797Y20.522
N1060G1X-15.896Y20.507
N1070G1X-16.000Y20.501
N1080G1X-16.104Y20.507
N1090G1X-16.203Y20.522
N1100G1X-16.298Y20.546
N1110G1X-16.389Y20.579
N1120G1X-16.476Y20.621
N1130G1Z-1.000F1200.0
N1140G1X-16.558Y20.671F3600.0
N1150G1X-16.635Y20.729
N1160G1X-16.706Y20.794
N1170G1X-16.771Y20.865
N1180G1X-16.829Y20.942
N1190G1X-16.879Y21.024
N1200G1X-16.921Y21.111
N1210G1X-16.954Y21.202
N1220G1X-16.978Y21.297
N1230G1X-16.993Y21.396
N1240G1X-16.999Y21.500
N1250G1X-16.993Y21.604
N1260G1X-16.978Y21.703
N1270G1X-16.954Y21.798
N1280G1X-16.921Y21.889
N1290G1X-16.879Y21.976
N1300G1X-16.829Y22.058
N1310G1X-16.771Y22.135
N1320G1X-16.706Y22.206
N1330G1X-16.635Y22.271
N1340G1X-16.558Y22.329
N1350G1X-16.476Y22.379
N1360G1X-16.389Y22.421
N1370G1X-16.298Y22.454
N1380G1X-16.203Y22.478
N1390G1X-16.104Y22.493
N1400G1X-16.000Y22.499
N1410G1X-15.896Y22.493
N1420G1X-15.797Y22.478
N1430G1X-15.702Y22.454
N1440G1X-15.611Y22.421
N1450G1X-15.524Y22.379
N1460G1X-15.442Y22.329
N1470G1X-15.365Y22.271
N1480G1X-15.294Y22.206
N1490G1X-15.229Y22.135
N1500G1X-15.171Y22.058
N1510G1X-15.121Y21.976
N1520G1X-15.079Y21.889
N1530G1X-15.046Y21.798
N1540G1X-15.022Y21.703
N1550G1X-15.007Y21.604
N1560G1X-15.001Y21.500
N1570G1X-15.007Y21.396
N1580G1X-15.022Y21.297
N1590G1X-15.046Y21.202
N1600G1X-15.079Y21.111
N1610G1X-15.121Y21.024
N1620G1X-15.171Y20.942
N1630G1X-15.229Y20.865
N1640G1X-15.294Y20.794
N1650G1X-15.365Y20.729
N1660G1X-15.442Y20.671
N1670G1X-15.524Y20.621
N1680G1X-15.611Y20.579
N1690G1X-15.702Y20.546
N1700G1X-15.797Y20.522
N1710G1X-15.896Y20.507
N1720G1X-16.000Y20.501
N1730G1X-16.104Y20.507
N1740G1X-16.203Y20.522
N1750G1X-16.298Y20.546
N1760G1X-16.389Y20.579
N1770G1X-16.476Y20.621
N1780G1Z-1.500F1200.0
N1790G1X-16.558Y20.671F3600.0
N1800G1X-16.635Y20.729
N1810G1X-16.706Y20.794
N1820G1X-16.771Y20.865
N1830G1X-16.829Y20.942
N1840G1X-16.879Y21.024
N1850G1X-16.921Y21.111
N1860G1X-16.954Y21.202
N1870G1X-16.978Y21.297
N1880G1X-16.993Y21.396
N1890G1X-16.999Y21.500
N1900G1X-16.993Y21.604
N1910G1X-16.978Y21.703
N1920G1X-16.954Y21.798
N1930G1X-16.921Y21.889
N1940G1X-16.879Y21.976
N1950G1X-16.829Y22.058
N1960G1X-16.771Y22.135
N1970G1X-16.706Y22.206
N1980G1X-16.635Y22.271
N1990G1X-16.558Y22.329
N2000G1X-16.476Y22.379
N2010G1X-16.389Y22.421
N2020G1X-16.298Y22.454
N2030G1X-16.203Y22.478
N2040G1X-16.104Y22.493
N2050G1X-16.000Y22.499
N2060G1X-15.896Y22.493
N2070G1X-15.797Y22.478
N2080G1X-15.702Y22.454
N2090G1X-15.611Y22.421
N2100G1X-15.524Y22.379
N2110G1X-15.442Y22.329
N2120G1X-15.365Y22.271
N2130G1X-15.294Y22.206
N2140G1X-15.229Y22.135
N2150G1X-15.171Y22.058
N2160G1X-15.121Y21.976
N2170G1X-15.079Y21.889
N2180G1X-15.046Y21.798
N2190G1X-15.022Y21.703
N2200G1X-15.007Y21.604
N2210G1X-15.001Y21.500
N2220G1X-15.007Y21.396
N2230G1X-15.022Y21.297
N2240G1X-15.046Y21.202
N2250G1X-15.079Y21.111
N2260G1X-15.121Y21.024
N2270G1X-15.171Y20.942
N2280G1X-15.229Y20.865
N2290G1X-15.294Y20.794
N2300G1X-15.365Y20.729
N2310G1X-15.442Y20.671
N2320G1X-15.524Y20.621
N2330G1X-15.611Y20.579
N2340G1X-15.702Y20.546
N2350G1X-15.797Y20.522
N2360G1X-15.896Y20.507
N2370G1X-16.000Y20.501
N2380G1X-16.104Y20.507
N2390G1X-16.203Y20.522
N2400G1X-16.298Y20.546
N2410G1X-16.389Y20.579
N2420G1X-16.476Y20.621
N2430G1Z-2.000F1200.0
N2440G1X-16.558Y20.671F3600.0
N2450G1X-16.635Y20.729
N2460G1X-16.706Y20.794
N2470G1X-16.771Y20.865
N2480G1X-16.829Y20.942
N2490G1X-16.879Y21.024
N2500G1X-16.921Y21.111
N2510G1X-16.954Y21.202
N2520G1X-16.978Y21.297
N2530G1X-16.993Y21.396
N2540G1X-16.999Y21.500
N2550G1X-16.993Y21.604
N2560G1X-16.978Y21.703
N2570G1X-16.954Y21.798
N2580G1X-16.921Y21.889
N2590G1X-16.879Y21.976
N2600G1X-16.829Y22.058
N2610G1X-16.771Y22.135
N2620G1X-16.706Y22.206
N2630G1X-16.635Y22.271
N2640G1X-16.558Y22.329
N2650G1X-16.476Y22.379
N2660G1X-16.389Y22.421
N2670G1X-16.298Y22.454
N2680G1X-16.203Y22.478
N2690G1X-16.104Y22.493
N2700G1X-16.000Y22.499
N2710G1X-15.896Y22.493
N2720G1X-15.797Y22.478
N2730G1X-15.702Y22.454
N2740G1X-15.611Y22.421
N2750G1X-15.524Y22.379
N2760G1X-15.442Y22.329
N2770G1X-15.365Y22.271
N2780G1X-15.294Y22.206
N2790G1X-15.229Y22.135
N2800G1X-15.171Y22.058
N2810G1X-15.121Y21.976
N2820G1X-15.079Y21.889
N2830G1X-15.046Y21.798
N2840G1X-15.022Y21.703
N2850G1X-15.007Y21.604
N2860G1X-15.001Y21.500
N2870G1X-15.007Y21.396
N2880G1X-15.022Y21.297
N2890G1X-15.046Y21.202
N2900G1X-15.079Y21.111
N2910G1X-15.121Y21.024
N2920G1X-15.171Y20.942
N2930G1X-15.229Y20.865
N2940G1X-15.294Y20.794
N2950G1X-15.365Y20.729
N2960G1X-15.442Y20.671
N2970G1X-15.524Y20.621
N2980G1X-15.611Y20.579
N2990G1X-15.702Y20.546
N3000G1X-15.797Y20.522
N3010G1X-15.896Y20.507
N3020G1X-16.000Y20.501
N3030G1X-16.104Y20.507
N3040G1X-16.203Y20.522
N3050G1X-16.298Y20.546
N3060G1X-16.389Y20.579
N3070G1X-16.476Y20.621
N3080G00Z6.000
N3090G00X-3.000Y13.000
N3100G1Z-0.500F1200.0
N3110G2X0.000Y16.000I3.000J0.000F3600.0
N3120G2X3.000Y13.000I0.000J-3.000
N3130G2X0.000Y10.000I-3.000J0.000
N3140G2X-3.000Y13.000I0.000J3.000
N3150G1Z-1.000F1200.0
N3160G2X0.000Y16.000I3.000J0.000F3600.0
N3170G2X3.000Y13.000I0.000J-3.000
N3180G2X0.000Y10.000I-3.000J0.000
N3190G2X-3.000Y13.000I0.000J3.000
N3200G1Z-1.500F1200.0
N3210G2X0.000Y16.000I3.000J0.000F3600.0
N3220G2X3.000Y13.000I0.000J-3.000
N3230G2X0.000Y10.000I-3.000J0.000
N3240G2X-3.000Y13.000I0.000J3.000
N3250G1Z-2.000F1200.0
N3260G2X0.000Y16.000I3.000J0.000F3600.0
N3270G2X3.000Y13.000I0.000J-3.000
N3280G2X0.000Y10.000I-3.000J0.000
N3290G2X-3.000Y13.000I0.000J3.000
N3300G00Z6.000
N3310G00X7.229Y20.865
N3320G1Z-0.500F1200.0
N3330G1X7.171Y20.942F3600.0
N3340G1X7.121Y21.024
N3350G1X7.079Y21.111
N3360G1X7.046Y21.202
N3370G1X7.022Y21.297
N3380G1X7.007Y21.396
N3390G1X7.001Y21.500
N3400G1X7.007Y21.604
N3410G1X7.022Y21.703
N3420G1X7.046Y21.798
N3430G1X7.079Y21.889
N3440G1X7.121Y21.976
N3450G1X7.171Y22.058
N3460G1X7.229Y22.135
N3470G1X7.294Y22.206
N3480G1X7.365Y22.271
N3490G1X7.442Y22.329
N3500G1X7.524Y22.379
N3510G1X7.611Y22.421
N3520G1X7.702Y22.454
N3530G1X7.797Y22.478
N3540G1X7.896Y22.493
N3550G1X8.000Y22.499
N3560G1X8.104Y22.493
N3570G1X8.203Y22.478
N3580G1X8.298Y22.454
N3590G1X8.389Y22.421
N3600G1X8.476Y22.379
N3610G1X8.558Y22.329
N3620G1X8.635Y22.271
N3630G1X8.706Y22.206
N3640G1X8.771Y22.135
N3650G1X8.829Y22.058
N3660G1X8.879Y21.976
N3670G1X8.921Y21.889
N3680G1X8.954Y21.798
N3690G1X8.978Y21.703
N3700G1X8.993Y21.604
N3710G1X8.999Y21.500
N3720G1X8.993Y21.396
N3730G1X8.978Y21.297
N3740G1X8.954Y21.202
N3750G1X8.921Y21.111
N3760G1X8.879Y21.024
N3770G1X8.829Y20.942
N3780G1X8.771Y20.865
N3790G1X8.706Y20.794
N3800G1X8.635Y20.729
N3810G1X8.558Y20.671
N3820G1X8.476Y20.621
N3830G1X8.389Y20.579
N3840G1X8.298Y20.546
N3850G1X8.203Y20.522
N3860G1X8.104Y20.507
N3870G1X8.000Y20.501
N3880G1X7.896Y20.507
N3890G1X7.797Y20.522
N3900G1X7.702Y20.546
N3910G1X7.611Y20.579
N3920G1X7.524Y20.621
N3930G1X7.442Y20.671
N3940G1X7.365Y20.729
N3950G1X7.294Y20.794
N3960G1X7.229Y20.865
N3970G1Z-1.000F1200.0
N3980G1X7.171Y20.942F3600.0
N3990G1X7.121Y21.024
N4000G1X7.079Y21.111
N4010G1X7.046Y21.202
N4020G1X7.022Y21.297
N4030G1X7.007Y21.396
N4040G1X7.001Y21.500
N4050G1X7.007Y21.604
N4060G1X7.022Y21.703
N4070G1X7.046Y21.798
N4080G1X7.079Y21.889
N4090G1X7.121Y21.976
N4100G1X7.171Y22.058
N4110G1X7.229Y22.135
N4120G1X7.294Y22.206
N4130G1X7.365Y22.271
N4140G1X7.442Y22.329
N4150G1X7.524Y22.379
N4160G1X7.611Y22.421
N4170G1X7.702Y22.454
N4180G1X7.797Y22.478
N4190G1X7.896Y22.493
N4200G1X8.000Y22.499
N4210G1X8.104Y22.493
N4220G1X8.203Y22.478
N4230G1X8.298Y22.454
N4240G1X8.389Y22.421
N4250G1X8.476Y22.379
N4260G1X8.558Y22.329
N4270G1X8.635Y22.271
N4280G1X8.706Y22.206
N4290G1X8.771Y22.135
N4300G1X8.829Y22.058
N4310G1X8.879Y21.976
N4320G1X8.921Y21.889
N4330G1X8.954Y21.798
N4340G1X8.978Y21.703
N4350G1X8.993Y21.604
N4360G1X8.999Y21.500
N4370G1X8.993Y21.396
N4380G1X8.978Y21.297
N4390G1X8.954Y21.202
N4400G1X8.921Y21.111
N4410G1X8.879Y21.024
N4420G1X8.829Y20.942
N4430G1X8.771Y20.865
N4440G1X8.706Y20.794
N4450G1X8.635Y20.729
N4460G1X8.558Y20.671
N4470G1X8.476Y20.621
N4480G1X8.389Y20.579
N4490G1X8.298Y20.546
N4500G1X8.203Y20.522
N4510G1X8.104Y20.507
N4520G1X8.000Y20.501
N4530G1X7.896Y20.507
N4540G1X7.797Y20.522
N4550G1X7.702Y20.546
N4560G1X7.611Y20.579
N4570G1X7.524Y20.621
N4580G1X7.442Y20.671
N4590G1X7.365Y20.729
N4600G1X7.294Y20.794
N4610G1X7.229Y20.865
N4620G1Z-1.500F1200.0
N4630G1X7.171Y20.942F3600.0
N4640G1X7.121Y21.024
N4650G1X7.079Y21.111
N4660G1X7.046Y21.202
N4670G1X7.022Y21.297
N4680G1X7.007Y21.396
N4690G1X7.001Y21.500
N4700G1X7.007Y21.604
N4710G1X7.022Y21.703
N4720G1X7.046Y21.798
N4730G1X7.079Y21.889
N4740G1X7.121Y21.976
N4750G1X7.171Y22.058
N4760G1X7.229Y22.135
N4770G1X7.294Y22.206
N4780G1X7.365Y22.271
N4790G1X7.442Y22.329
N4800G1X7.524Y22.379
N4810G1X7.611Y22.421
N4820G1X7.702Y22.454
N4830G1X7.797Y22.478
N4840G1X7.896Y22.493
N4850G1X8.000Y22.499
N4860G1X8.104Y22.493
N4870G1X8.203Y22.478
N4880G1X8.298Y22.454
N4890G1X8.389Y22.421
N4900G1X8.476Y22.379
N4910G1X8.558Y22.329
N4920G1X8.635Y22.271
N4930G1X8.706Y22.206
N4940G1X8.771Y22.135
N4950G1X8.829Y22.058
N4960G1X8.879Y21.976
N4970G1X8.921Y21.889
N4980G1X8.954Y21.798
N4990G1X8.978Y21.703
N5000G1X8.993Y21.604
N5010G1X8.999Y21.500
N5020G1X8.993Y21.396
N5030G1X8.978Y21.297
N5040G1X8.954Y21.202
N5050G1X8.921Y21.111
N5060G1X8.879Y21.024
N5070G1X8.829Y20.942
N5080G1X8.771Y20.865
N5090G1X8.706Y20.794
N5100G1X8.635Y20.729
N5110G1X8.558Y20.671
N5120G1X8.476Y20.621
N5130G1X8.389Y20.579
N5140G1X8.298Y20.546
N5150G1X8.203Y20.522
N5160G1X8.104Y20.507
N5170G1X8.000Y20.501
N5180G1X7.896Y20.507
N5190G1X7.797Y20.522
N5200G1X7.702Y20.546
N5210G1X7.611Y20.579
N5220G1X7.524Y20.621
N5230G1X7.442Y20.671
N5240G1X7.365Y20.729
N5250G1X7.294Y20.794
N5260G1X7.229Y20.865
N5270G1Z-2.000F1200.0
N5280G1X7.171Y20.942F3600.0
N5290G1X7.121Y21.024
N5300G1X7.079Y21.111
N5310G1X7.046Y21.202
N5320G1X7.022Y21.297
N5330G1X7.007Y21.396
N5340G1X7.001Y21.500
N5350G1X7.007Y21.604
N5360G1X7.022Y21.703
N5370G1X7.046Y21.798
N5380G1X7.079Y21.889
N5390G1X7.121Y21.976
N5400G1X7.171Y22.058
N5410G1X7.229Y22.135
N5420G1X7.294Y22.206
N5430G1X7.365Y22.271
N5440G1X7.442Y22.329
N5450G1X7.524Y22.379
N5460G1X7.611Y22.421
N5470G1X7.702Y22.454
N5480G1X7.797Y22.478
N5490G1X7.896Y22.493
N5500G1X8.000Y22.499
N5510G1X8.104Y22.493
N5520G1X8.203Y22.478
N5530G1X8.298Y22.454
N5540G1X8.389Y22.421
N5550G1X8.476Y22.379
N5560G1X8.558Y22.329
N5570G1X8.635Y22.271
N5580G1X8.706Y22.206
N5590G1X8.771Y22.135
N5600G1X8.829Y22.058
N5610G1X8.879Y21.976
N5620G1X8.921Y21.889
N5630G1X8.954Y21.798
N5640G1X8.978Y21.703
N5650G1X8.993Y21.604
N5660G1X8.999Y21.500
N5670G1X8.993Y21.396
N5680G1X8.978Y21.297
N5690G1X8.954Y21.202
N5700G1X8.921Y21.111
N5710G1X8.879Y21.024
N5720G1X8.829Y20.942
N5730G1X8.771Y20.865
N5740G1X8.706Y20.794
N5750G1X8.635Y20.729
N5760G1X8.558Y20.671
N5770G1X8.476Y20.621
N5780G1X8.389Y20.579
N5790G1X8.298Y20.546
N5800G1X8.203Y20.522
N5810G1X8.104Y20.507
N5820G1X8.000Y20.501
N5830G1X7.896Y20.507
N5840G1X7.797Y20.522
N5850G1X7.702Y20.546
N5860G1X7.611Y20.579
N5870G1X7.524Y20.621
N5880G1X7.442Y20.671
N5890G1X7.365Y20.729
N5900G1X7.294Y20.794
N5910G1X7.229Y20.865
N5920G00Z6.000
N5930G00X21.000Y13.000
N5940G1Z-0.500F1200.0
N5950G2X24.000Y16.000I3.000J0.000F3600.0
N5960G2X27.000Y13.000I0.000J-3.000
N5970G2X24.000Y10.000I-3.000J0.000
N5980G2X21.000Y13.000I0.000J3.000
N5990G1Z-1.000F1200.0
N6000G2X24.000Y16.000I3.000J0.000F3600.0
N6010G2X27.000Y13.000I0.000J-3.000
N6020G2X24.000Y10.000I-3.000J0.000
N6030G2X21.000Y13.000I0.000J3.000
N6040G1Z-1.500F1200.0
N6050G2X24.000Y16.000I3.000J0.000F3600.0
N6060G2X27.000Y13.000I0.000J-3.000
N6070G2X24.000Y10.000I-3.000J0.000
N6080G2X21.000Y13.000I0.000J3.000
N6090G1Z-2.000F1200.0
N6100G2X24.000Y16.000I3.000J0.000F3600.0
N6110G2X27.000Y13.000I0.000J-3.000
N6120G2X24.000Y10.000I-3.000J0.000
N6130G2X21.000Y13.000I0.000J3.000
N6140G00Z6.000
N6150G00X31.229Y20.865
N6160G1Z-0.500F1200.0
N6170G1X31.171Y20.942F3600.0
N6180G1X31.121Y21.024
N6190G1X31.079Y21.111
N6200G1X31.046Y21.202
N6210G1X31.022Y21.297
N6220G1X31.007Y21.396
N6230G1X31.001Y21.500
N6240G1X31.007Y21.604
N6250G1X31.022Y21.703
N6260G1X31.046Y21.798
N6270G1X31.079Y21.889
N6280G1X31.121Y21.976
N6290G1X31.171Y22.058
N6300G1X31.229Y22.135
N6310G1X31.294Y22.206
N6320G1X31.365Y22.271
N6330G1X31.442Y22.329
N6340G1X31.524Y22.379
N6350G1X31.611Y22.421
N6360G1X31.702Y22.454
N6370G1X31.797Y22.478
N6380G1X31.896Y22.493
N6390G1X32.000Y22.499
N6400G1X32.104Y22.493
N6410G1X32.203Y22.478
N6420G1X32.298Y22.454
N6430G1X32.389Y22.421
N6440G1X32.476Y22.379
N6450G1X32.558Y22.329
N6460G1X32.635Y22.271
N6470G1X32.706Y22.206
N6480G1X32.771Y22.135
N6490G1X32.829Y22.058
N6500G1X32.879Y21.976
N6510G1X32.921Y21.889
N6520G1X32.954Y21.798
N6530G1X32.978Y21.703
N6540G1X32.993Y21.604
N6550G1X32.999Y21.500
N6560G1X32.993Y21.396
N6570G1X32.978Y21.297
N6580G1X32.954Y21.202
N6590G1X32.921Y21.111
N6600G1X32.879Y21.024
N6610G1X32.829Y20.942
N6620G1X32.771Y20.865
N6630G1X32.706Y20.794
N6640G1X32.635Y20.729
N6650G1X32.558Y20.671
N6660G1X32.476Y20.621
N6670G1X32.389Y20.579
N6680G1X32.298Y20.546
N6690G1X32.203Y20.522
N6700G1X32.104Y20.507
N6710G1X32.000Y20.501
N6720G1X31.896Y20.507
N6730G1X31.797Y20.522
N6740G1X31.702Y20.546
N6750G1X31.611Y20.579
N6760G1X31.524Y20.621
N6770G1X31.442Y20.671
N6780G1X31.365Y20.729
N6790G1X31.294Y20.794
N6800G1X31.229Y20.865
N6810G1Z-1.000F1200.0
N6820G1X31.171Y20.942F3600.0
N6830G1X31.121Y21.024
N6840G1X31.079Y21.111
N6850G1X31.046Y21.202
N6860G1X31.022Y21.297
N6870G1X31.007Y21.396
N6880G1X31.001Y21.500
N6890G1X31.007Y21.604
N6900G1X31.022Y21.703
N6910G1X31.046Y21.798
N6920G1X31.079Y21.889
N6930G1X31.121Y21.976
N6940G1X31.171Y22.058
N6950G1X31.229Y22.135
N6960G1X31.294Y22.206
N6970G1X31.365Y22.271
N6980G1X31.442Y22.329
N6990G1X31.524Y22.379
N7000G1X31.611Y22.421
N7010G1X31.702Y22.454
N7020G1X31.797Y22.478
N7030G1X31.896Y22.493
N7040G1X32.000Y22.499
N7050G1X32.104Y22.493
N7060G1X32.203Y22.478
N7070G1X32.298Y22.454
N7080G1X32.389Y22.421
N7090G1X32.476Y22.379
N7100G1X32.558Y22.329
N7110G1X32.635Y22.271
N7120G1X32.706Y22.206
N7130G1X32.771Y22.135
N7140G1X32.829Y22.058
N7150G1X32.879Y21.976
N7160G1X32.921Y21.889
N7170G1X32.954Y21.798
N7180G1X32.978Y21.703
N7190G1X32.993Y21.604
N7200G1X32.999Y21.500
N7210G1X32.993Y21.396
N7220G1X32.978Y21.297
N7230G1X32.954Y21.202
N7240G1X32.921Y21.111
N7250G1X32.879Y21.024
N7260G1X32.829Y20.942
N7270G1X32.771Y20.865
N7280G1X32.706Y20.794
N7290G1X32.635Y20.729
N7300G1X32.558Y20.671
N7310G1X32.476Y20.621
N7320G1X32.389Y20.579
N7330G1X32.298Y20.546
N7340G1X32.203Y20.522
N7350G1X32.104Y20.507
N7360G1X32.000Y20.501
N7370G1X31.896Y20.507
N7380G1X31.797Y20.522
N7390G1X31.702Y20.546
N7400G1X31.611Y20.579
N7410G1X31.524Y20.621
N7420G1X31.442Y20.671
N7430G1X31.365Y20.729
N7440G1X31.294Y20.794
N7450G1X31.229Y20.865
N7460G1Z-1.500F1200.0
N7470G1X31.171Y20.942F3600.0
N7480G1X31.121Y21.024
N7490G1X31.079Y21.111
N7500G1X31.046Y21.202
N7510G1X31.022Y21.297
N7520G1X31.007Y21.396
N7530G1X31.001Y21.500
N7540G1X31.007Y21.604
N7550G1X31.022Y21.703
N7560G1X31.046Y21.798
N7570G1X31.079Y21.889
N7580G1X31.121Y21.976
N7590G1X31.171Y22.058
N7600G1X31.229Y22.135
N7610G1X31.294Y22.206
N7620G1X31.365Y22.271
N7630G1X31.442Y22.329
N7640G1X31.524Y22.379
N7650G1X31.611Y22.421
N7660G1X31.702Y22.454
N7670G1X31.797Y22.478
N7680G1X31.896Y22.493
N7690G1X32.000Y22.499
N7700G1X32.104Y22.493
N7710G1X32.203Y22.478
N7720G1X32.298Y22.454
N7730G1X32.389Y22.421
N7740G1X32.476Y22.379
N7750G1X32.558Y22.329
N7760G1X32.635Y22.271
N7770G1X32.706Y22.206
N7780G1X32.771Y22.135
N7790G1X32.829Y22.058
N7800G1X32.879Y21.976
N7810G1X32.921Y21.889
N7820G1X32.954Y21.798
N7830G1X32.978Y21.703
N7840G1X32.993Y21.604
N7850G1X32.999Y21.500
N7860G1X32.993Y21.396
N7870G1X32.978Y21.297
N7880G1X32.954Y21.202
N7890G1X32.921Y21.111
N7900G1X32.879Y21.024
N7910G1X32.829Y20.942
N7920G1X32.771Y20.865
N7930G1X32.706Y20.794
N7940G1X32.635Y20.729
N7950G1X32.558Y20.671
N7960G1X32.476Y20.621
N7970G1X32.389Y20.579
N7980G1X32.298Y20.546
N7990G1X32.203Y20.522
N8000G1X32.104Y20.507
N8010G1X32.000Y20.501
N8020G1X31.896Y20.507
N8030G1X31.797Y20.522
N8040G1X31.702Y20.546
N8050G1X31.611Y20.579
N8060G1X31.524Y20.621
N8070G1X31.442Y20.671
N8080G1X31.365Y20.729
N8090G1X31.294Y20.794
N8100G1X31.229Y20.865
N8110G1Z-2.000F1200.0
N8120G1X31.171Y20.942F3600.0
N8130G1X31.121Y21.024
N8140G1X31.079Y21.111
N8150G1X31.046Y21.202
N8160G1X31.022Y21.297
N8170G1X31.007Y21.396
N8180G1X31.001Y21.500
N8190G1X31.007Y21.604
N8200G1X31.022Y21.703
N8210G1X31.046Y21.798
N8220G1X31.079Y21.889
N8230G1X31.121Y21.976
N8240G1X31.171Y22.058
N8250G1X31.229Y22.135
N8260G1X31.294Y22.206
N8270G1X31.365Y22.271
N8280G1X31.442Y22.329
N8290G1X31.524Y22.379
N8300G1X31.611Y22.421
N8310G1X31.702Y22.454
N8320G1X31.797Y22.478
N8330G1X31.896Y22.493
N8340G1X32.000Y22.499
N8350G1X32.104Y22.493
N8360G1X32.203Y22.478
N8370G1X32.298Y22.454
N8380G1X32.389Y22.421
N8390G1X32.476Y22.379
N8400G1X32.558Y22.329
N8410G1X32.635Y22.271
N8420G1X32.706Y22.206
N8430G1X32.771Y22.135
N8440G1X32.829Y22.058
N8450G1X32.879Y21.976
N8460G1X32.921Y21.889
N8470G1X32.954Y21.798
N8480G1X32.978Y21.703
N8490G1X32.993Y21.604
N8500G1X32.999Y21.500
N8510G1X32.993Y21.396
N8520G1X32.978Y21.297
N8530G1X32.954Y21.202
N8540G1X32.921Y21.111
N8550G1X32.879Y21.024
N8560G1X32.829Y20.942
N8570G1X32.771Y20.865
N8580G1X32.706Y20.794
N8590G1X32.635Y20.729
N8600G1X32.558Y20.671
N8610G1X32.476Y20.621
N8620G1X32.389Y20.579
N8630G1X32.298Y20.546
N8640G1X32.203Y20.522
N8650G1X32.104Y20.507
N8660G1X32.000Y20.501
N8670G1X31.896Y20.507
N8680G1X31.797Y20.522
N8690G1X31.702Y20.546
N8700G1X31.611Y20.579
N8710G1X31.524Y20.621
N8720G1X31.442Y20.671
N8730G1X31.365Y20.729
N8740G1X31.294Y20.794
N8750G1X31.229Y20.865
N8760G00Z6.000
N8770G00X-21.000Y-13.000
N8780G1Z-0.500F1200.0
N8790G2X-24.000Y-16.000I-3.000J0.000F3600.0
N8800G2X-27.000Y-13.000I0.000J3.000
N8810G2X-24.000Y-10.000I3.000J0.000
N8820G2X-21.000Y-13.000I0.000J-3.000
N8830G1Z-1.000F1200.0
N8840G2X-24.000Y-16.000I-3.000J0.000F3600.0
N8850G2X-27.000Y-13.000I0.000J3.000
N8860G2X-24.000Y-10.000I3.000J0.000
N8870G2X-21.000Y-13.000I0.000J-3.000
N8880G1Z-1.500F1200.0
N8890G2X-24.000Y-16.000I-3.000J0.000F3600.0
N8900G2X-27.000Y-13.000I0.000J3.000
N8910G2X-24.000Y-10.000I3.000J0.000
N8920G2X-21.000Y-13.000I0.000J-3.000
N8930G1Z-2.000F1200.0
N8940G2X-24.000Y-16.000I-3.000J0.000F3600.0
N8950G2X-27.000Y-13.000I0.000J3.000
N8960G2X-24.000Y-10.000I3.000J0.000
N8970G2X-21.000Y-13.000I0.000J-3.000
N8980G00Z6.000
N8990G00X-16.476Y-5.379
N9000G1Z-0.500F1200.0
N9010G1X-16.558Y-5.329F3600.0
N9020G1X-16.635Y-5.271
N9030G1X-16.706Y-5.206
N9040G1X-16.771Y-5.135
N9050G1X-16.829Y-5.058
N9060G1X-16.879Y-4.976
N9070G1X-16.921Y-4.889
N9080G1X-16.954Y-4.798
N9090G1X-16.978Y-4.703
N9100G1X-16.993Y-4.604
N9110G1X-16.999Y-4.500
N9120G1X-16.993Y-4.396
N9130G1X-16.978Y-4.297
N9140G1X-16.954Y-4.202
N9150G1X-16.921Y-4.111
N9160G1X-16.879Y-4.024
N9170G1X-16.829Y-3.942
N9180G1X-16.771Y-3.865
N9190G1X-16.706Y-3.794
N9200G1X-16.635Y-3.729
N9210G1X-16.558Y-3.671
N9220G1X-16.476Y-3.621
N9230G1X-16.389Y-3.579
N9240G1X-16.298Y-3.546
N9250G1X-16.203Y-3.522
N9260G1X-16.104Y-3.507
N9270G1X-16.000Y-3.501
N9280G1X-15.896Y-3.507
N9290G1X-15.797Y-3.522
N9300G1X-15.702Y-3.546
N9310G1X-15.611Y-3.579
N9320G1X-15.524Y-3.621
N9330G1X-15.442Y-3.671
N9340G1X-15.365Y-3.729
N9350G1X-15.294Y-3.794
N9360G1X-15.229Y-3.865
N9370G1X-15.171Y-3.942
N9380G1X-15.121Y-4.024
N9390G1X-15.079Y-4.111
N9400G1X-15.046Y-4.202
N9410G1X-15.022Y-4.297
N9420G1X-15.007Y-4.396
N9430G1X-15.001Y-4.500
N9440G1X-15.007Y-4.604
N9450G1X-15.022Y-4.703
N9460G1X-15.046Y-4.798
N9470G1X-15.079Y-4.889
N9480G1X-15.121Y-4.976
N9490G1X-15.171Y-5.058
N9500G1X-15.229Y-5.135
N9510G1X-15.294Y-5.206
N9520G1X-15.365Y-5.271
N9530G1X-15.442Y-5.329
N9540G1X-15.524Y-5.379
N9550G1X-15.611Y-5.421
N9560G1X-15.702Y-5.454
N9570G1X-15.797Y-5.478
N9580G1X-15.896Y-5.493
N9590G1X-16.000Y-5.499
N9600G1X-16.104Y-5.493
N9610G1X-16.203Y-5.478
N9620G1X-16.298Y-5.454
N9630G1X-16.389Y-5.421
N9640G1X-16.476Y-5.379
N9650G1Z-1.000F1200.0
N9660G1X-16.558Y-5.329F3600.0
N9670G1X-16.635Y-5.271
N9680G1X-16.706Y-5.206
N9690G1X-16.771Y-5.135
N9700G1X-16.829Y-5.058
N9710G1X-16.879Y-4.976
N9720G1X-16.921Y-4.889
N9730G1X-16.954Y-4.798
N9740G1X-16.978Y-4.703
N9750G1X-16.993Y-4.604
N9760G1X-16.999Y-4.500
N9770G1X-16.993Y-4.396
N9780G1X-16.978Y-4.297
N9790G1X-16.954Y-4.202
N9800G1X-16.921Y-4.111
N9810G1X-16.879Y-4.024
N9820G1X-16.829Y-3.942
N9830G1X-16.771Y-3.865
N9840G1X-16.706Y-3.794
N9850G1X-16.635Y-3.729
N9860G1X-16.558Y-3.671
N9870G1X-16.476Y-3.621
N9880G1X-16.389Y-3.579
N9890G1X-16.298Y-3.546
N9900G1X-16.203Y-3.522
N9910G1X-16.104Y-3.507
N9920G1X-16.000Y-3.501
N9930G1X-15.896Y-3.507
N9940G1X-15.797Y-3.522
N9950G1X-15.702Y-3.546
N9960G1X-15.611Y-3.579
N9970G1X-15.524Y-3.621
N9980G1X-15.442Y-3.671
N9990G1X-15.365Y-3.729
N10000G1X-15.294Y-3.794
N10010G1X-15.229Y-3.865
N10020G1X-15.171Y-3.942
N10030G1X-15.121Y-4.024
N10040G1X-15.079Y-4.111
N10050G1X-15.046Y-4.202
N10060G1X-15.022Y-4.297
N10070G1X-15.007Y-4.396
N10080G1X-15.001Y-4.500
N10090G1X-15.007Y-4.604
N10100G1X-15.022Y-4.703
N10110G1X-15.046Y-4.798
N10120G1X-15.079Y-4.889
N10130G1X-15.121Y-4.976
N10140G1X-15.171Y-5.058
N10150G1X-15.229Y-5.135
N10160G1X-15.294Y-5.206
N10170G1X-15.365Y-5.271
N10180G1X-15.442Y-5.329
N10190G1X-15.524Y-5.379
N10200G1X-15.611Y-5.421
N10210G1X-15.702Y-5.454
N10220G1X-15.797Y-5.478
N10230G1X-15.896Y-5.493
N10240G1X-16.000Y-5.499
N10250G1X-16.104Y-5.493
N10260G1X-16.203Y-5.478
N10270G1X-16.298Y-5.454
N10280G1X-16.389Y-5.421
N10290G1X-16.476Y-5.379
N10300G1Z-1.500F1200.0
N10310G1X-16.558Y-5.329F3600.0
N10320G1X-16.635Y-5.271
N10330G1X-16.706Y-5.206
N10340G1X-16.771Y-5.135
N10350G1X-16.829Y-5.058
N10360G1X-16.879Y-4.976
N10370G1X-16.921Y-4.889
N10380G1X-16.954Y-4.798
N10390G1X-16.978Y-4.703
N10400G1X-16.993Y-4.604
N10410G1X-16.999Y-4.500
N10420G1X-16.993Y-4.396
N10430G1X-16.978Y-4.297
N10440G1X-16.954Y-4.202
N10450G1X-16.921Y-4.111
N10460G1X-16.879Y-4.024
N10470G1X-16.829Y-3.942
N10480G1X-16.771Y-3.865
N10490G1X-16.706Y-3.794
N10500G1X-16.635Y-3.729
N10510G1X-16.558Y-3.671
N10520G1X-16.476Y-3.621
N10530G1X-16.389Y-3.579
N10540G1X-16.298Y-3.546
N10550G1X-16.203Y-3.522
N10560G1X-16.104Y-3.507
N10570G1X-16.000Y-3.501
N10580G1X-15.896Y-3.507
N10590G1X-15.797Y-3.522
N10600G1X-15.702Y-3.546
N10610G1X-15.611Y-3.579
N10620G1X-15.524Y-3.621
N10630G1X-15.442Y-3.671
N10640G1X-15.365Y-3.729
N10650G1X-15.294Y-3.794
N10660G1X-15.229Y-3.865
N10670G1X-15.171Y-3.942
N10680G1X-15.121Y-4.024
N10690G1X-15.079Y-4.111
N10700G1X-15.046Y-4.202
N10710G1X-15.022Y-4.297
N10720G1X-15.007Y-4.396
N10730G1X-15.001Y-4.500
N10740G1X-15.007Y-4.604
N10750G1X-15.022Y-4.703
N10760G1X-15.046Y-4.798
N10770G1X-15.079Y-4.889
N10780G1X-15.121Y-4.976
N10790G1X-15.171Y-5.058
N10800G1X-15.229Y-5.135
N10810G1X-15.294Y-5.206
N10820G1X-15.365Y-5.271
N10830G1X-15.442Y-5.329
N10840G1X-15.524Y-5.379
N10850G1X-15.611Y-5.421
N10860G1X-15.702Y-5.454
N10870G1X-15.797Y-5.478
N10880G1X-15.896Y-5.493
N10890G1X-16.000Y-5.499
N10900G1X-16.104Y-5.493
N10910G1X-16.203Y-5.478
N10920G1X-16.298Y-5.454
N10930G1X-16.389Y-5.421
N10940G1X-16.476Y-5.379
N10950G1Z-2.000F1200.0
N10960G1X-16.558Y-5.329F3600.0
N10970G1X-16.635Y-5.271
N10980G1X-16.706Y-5.206
N10990G1X-16.771Y-5.135
N11000G1X-16.829Y-5.058
N11010G1X-16.879Y-4.976
N11020G1X-16.921Y-4.889
N11030G1X-16.954Y-4.798
N11040G1X-16.978Y-4.703
N11050G1X-16.993Y-4.604
N11060G1X-16.999Y-4.500
N11070G1X-16.993Y-4.396
N11080G1X-16.978Y-4.297
N11090G1X-16.954Y-4.202
N11100G1X-16.921Y-4.111
N11110G1X-16.879Y-4.024
N11120G1X-16.829Y-3.942
N11130G1X-16.771Y-3.865
N11140G1X-16.706Y-3.794
N11150G1X-16.635Y-3.729
N11160G1X-16.558Y-3.671
N11170G1X-16.476Y-3.621
N11180G1X-16.389Y-3.579
N11190G1X-16.298Y-3.546
N11200G1X-16.203Y-3.522
N11210G1X-16.104Y-3.507
N11220G1X-16.000Y-3.501
N11230G1X-15.896Y-3.507
N11240G1X-15.797Y-3.522
N11250G1X-15.702Y-3.546
N11260G1X-15.611Y-3.579
N11270G1X-15.524Y-3.621
N11280G1X-15.442Y-3.671
N11290G1X-15.365Y-3.729
N11300G1X-15.294Y-3.794
N11310G1X-15.229Y-3.865
N11320G1X-15.171Y-3.942
N11330G1X-15.121Y-4.024
N11340G1X-15.079Y-4.111
N11350G1X-15.046Y-4.202
N11360G1X-15.022Y-4.297
N11370G1X-15.007Y-4.396
N11380G1X-15.001Y-4.500
N11390G1X-15.007Y-4.604
N11400G1X-15.022Y-4.703
N11410G1X-15.046Y-4.798
N11420G1X-15.079Y-4.889
N11430G1X-15.121Y-4.976
N11440G1X-15.171Y-5.058
N11450G1X-15.229Y-5.135
N11460G1X-15.294Y-5.206
N11470G1X-15.365Y-5.271
N11480G1X-15.442Y-5.329
N11490G1X-15.524Y-5.379
N11500G1X-15.611Y-5.421
N11510G1X-15.702Y-5.454
N11520G1X-15.797Y-5.478
N11530G1X-15.896Y-5.493
N11540G1X-16.000Y-5.499
N11550G1X-16.104Y-5.493
N11560G1X-16.203Y-5.478
N11570G1X-16.298Y-5.454
N11580G1X-16.389Y-5.421
N11590G1X-16.476Y-5.379
N11600G00Z6.000
N11610G00X-3.000Y-13.000
N11620G1Z-0.500F1200.0
N11630G2X0.000Y-10.000I3.000J0.000F3600.0
N11640G2X3.000Y-13.000I0.000J-3.000
N11650G2X0.000Y-16.000I-3.000J0.000
N11660G2X-3.000Y-13.000I0.000J3.000
N11670G1Z-1.000F1200.0
N11680G2X0.000Y-10.000I3.000J0.000F3600.0
N11690G2X3.000Y-13.000I0.000J-3.000
N11700G2X0.000Y-16.000I-3.000J0.000
N11710G2X-3.000Y-13.000I0.000J3.000
N11720G1Z-1.500F1200.0
N11730G2X0.000Y-10.000I3.000J0.000F3600.0
N11740G2X3.000Y-13.000I0.000J-3.000
N11750G2X0.000Y-16.000I-3.000J0.000
N11760G2X-3.000Y-13.000I0.000J3.000
N11770G1Z-2.000F1200.0
N11780G2X0.000Y-10.000I3.000J0.000F3600.0
N11790G2X3.000Y-13.000I0.000J-3.000
N11800G2X0.000Y-16.000I-3.000J0.000
N11810G2X-3.000Y-13.000I0.000J3.000
N11820G00Z6.000
N11830G00X7.229Y-5.135
N11840G1Z-0.500F1200.0
N11850G1X7.171Y-5.058F3600.0
N11860G1X7.121Y-4.976
N11870G1X7.079Y-4.889
N11880G1X7.046Y-4.798
N11890G1X7.022Y-4.703
N11900G1X7.007Y-4.604
N11910G1X7.001Y-4.500
N11920G1X7.007Y-4.396
N11930G1X7.022Y-4.297
N11940G1X7.046Y-4.202
N11950G1X7.079Y-4.111
N11960G1X7.121Y-4.024
N11970G1X7.171Y-3.942
N11980G1X7.229Y-3.865
N11990G1X7.294Y-3.794
N12000G1X7.365Y-3.729
N12010G1X7.442Y-3.671
N12020G1X7.524Y-3.621
N12030G1X7.611Y-3.579
N12040G1X7.702Y-3.546
N12050G1X7.797Y-3.522
N12060G1X7.896Y-3.507
N12070G1X8.000Y-3.501
N12080G1X8.104Y-3.507
N12090G1X8.203Y-3.522
N12100G1X8.298Y-3.546
N12110G1X8.389Y-3.579
N12120G1X8.476Y-3.621
N12130G1X8.558Y-3.671
N12140G1X8.635Y-3.729
N12150G1X8.706Y-3.794
N12160G1X8.771Y-3.865
N12170G1X8.829Y-3.942
N12180G1X8.879Y-4.024
N12190G1X8.921Y-4.111
N12200G1X8.954Y-4.202
N12210G1X8.978Y-4.297
N12220G1X8.993Y-4.396
N12230G1X8.999Y-4.500
N12240G1X8.993Y-4.604
N12250G1X8.978Y-4.703
N12260G1X8.954Y-4.798
N12270G1X8.921Y-4.889
N12280G1X8.879Y-4.976
N12290G1X8.829Y-5.058
N12300G1X8.771Y-5.135
N12310G1X8.706Y-5.206
N12320G1X8.635Y-5.271
N12330G1X8.558Y-5.329
N12340G1X8.476Y-5.379
N12350G1X8.389Y-5.421
N12360G1X8.298Y-5.454
N12370G1X8.203Y-5.478
N12380G1X8.104Y-5.493
N12390G1X8.000Y-5.499
N12400G1X7.896Y-5.493
N12410G1X7.797Y-5.478
N12420G1X7.702Y-5.454
N12430G1X7.611Y-5.421
N12440G1X7.524Y-5.379
N12450G1X7.442Y-5.329
N12460G1X7.365Y-5.271
N12470G1X7.294Y-5.206
N12480G1X7.229Y-5.135
N12490G1Z-1.000F1200.0
N12500G1X7.171Y-5.058F3600.0
N12510G1X7.121Y-4.976
N12520G1X7.079Y-4.889
N12530G1X7.046Y-4.798
N12540G1X7.022Y-4.703
N12550G1X7.007Y-4.604
N12560G1X7.001Y-4.500
N12570G1X7.007Y-4.396
N12580G1X7.022Y-4.297
N12590G1X7.046Y-4.202
N12600G1X7.079Y-4.111
N12610G1X7.121Y-4.024
N12620G1X7.171Y-3.942
N12630G1X7.229Y-3.865
N12640G1X7.294Y-3.794
N12650G1X7.365Y-3.729
N12660G1X7.442Y-3.671
N12670G1X7.524Y-3.621
N12680G1X7.611Y-3.579
N12690G1X7.702Y-3.546
N12700G1X7.797Y-3.522
N12710G1X7.896Y-3.507
N12720G1X8.000Y-3.501
N12730G1X8.104Y-3.507
N12740G1X8.203Y-3.522
N12750G1X8.298Y-3.546
N12760G1X8.389Y-3.579
N12770G1X8.476Y-3.621
N12780G1X8.558Y-3.671
N12790G1X8.635Y-3.729
N12800G1X8.706Y-3.794
N12810G1X8.771Y-3.865
N12820G1X8.829Y-3.942
N12830G1X8.879Y-4.024
N12840G1X8.921Y-4.111
N12850G1X8.954Y-4.202
N12860G1X8.978Y-4.297
N12870G1X8.993Y-4.396
N12880G1X8.999Y-4.500
N12890G1X8.993Y-4.604
N12900G1X8.978Y-4.703
N12910G1X8.954Y-4.798
N12920G1X8.921Y-4.889
N12930G1X8.879Y-4.976
N12940G1X8.829Y-5.058
N12950G1X8.771Y-5.135
N12960G1X8.706Y-5.206
N12970G1X8.635Y-5.271
N12980G1X8.558Y-5.329
N12990G1X8.476Y-5.379
N13000G1X8.389Y-5.421
N13010G1X8.298Y-5.454
N13020G1X8.203Y-5.478
N13030G1X8.104Y-5.493
N13040G1X8.000Y-5.499
N13050G1X7.896Y-5.493
N13060G1X7.797Y-5.478
N13070G1X7.702Y-5.454
N13080G1X7.611Y-5.421
N13090G1X7.524Y-5.379
N13100G1X7.442Y-5.329
N13110G1X7.365Y-5.271
N13120G1X7.294Y-5.206
N13130G1X7.229Y-5.135
N13140G1Z-1.500F1200.0
N13150G1X7.171Y-5.058F3600.0
N13160G1X7.121Y-4.976
N13170G1X7.079Y-4.889
N13180G1X7.046Y-4.798
N13190G1X7.022Y-4.703
N13200G1X7.007Y-4.604
N13210G1X7.001Y-4.500
N13220G1X7.007Y-4.396
N13230G1X7.022Y-4.297
N13240G1X7.046Y-4.202
N13250G1X7.079Y-4.111
N13260G1X7.121Y-4.024
N13270G1X7.171Y-3.942
N13280G1X7.229Y-3.865
N13290G1X7.294Y-3.794
N13300G1X7.365Y-3.729
N13310G1X7.442Y-3.671
N13320G1X7.524Y-3.621
N13330G1X7.611Y-3.579
N13340G1X7.702Y-3.546
N13350G1X7.797Y-3.522
N13360G1X7.896Y-3.507
N13370G1X8.000Y-3.501
N13380G1X8.104Y-3.507
N13390G1X8.203Y-3.522
N13400G1X8.298Y-3.546
N13410G1X8.389Y-3.579
N13420G1X8.476Y-3.621
N13430G1X8.558Y-3.671
N13440G1X8.635Y-3.729
N13450G1X8.706Y-3.794
N13460G1X8.771Y-3.865
N13470G1X8.829Y-3.942
N13480G1X8.879Y-4.024
N13490G1X8.921Y-4.111
N13500G1X8.954Y-4.202
N13510G1X8.978Y-4.297
N13520G1X8.993Y-4.396
N13530G1X8.999Y-4.500
N13540G1X8.993Y-4.604
N13550G1X8.978Y-4.703
N13560G1X8.954Y-4.798
N13570G1X8.921Y-4.889
N13580G1X8.879Y-4.976
N13590G1X8.829Y-5.058
N13600G1X8.771Y-5.135
N13610G1X8.706Y-5.206
N13620G1X8.635Y-5.271
N13630G1X8.558Y-5.329
N13640G1X8.476Y-5.379
N13650G1X8.389Y-5.421
N13660G1X8.298Y-5.454
N13670G1X8.203Y-5.478
N13680G1X8.104Y-5.493
N13690G1X8.000Y-5.499
N13700G1X7.896Y-5.493
N13710G1X7.797Y-5.478
N13720G1X7.702Y-5.454
N13730G1X7.611Y-5.421
N13740G1X7.524Y-5.379
N13750G1X7.442Y-5.329
N13760G1X7.365Y-5.271
N13770G1X7.294Y-5.206
N13780G1X7.229Y-5.135
N13790G1Z-2.000F1200.0
N13800G1X7.171Y-5.058F3600.0
N13810G1X7.121Y-4.976
N13820G1X7.079Y-4.889
N13830G1X7.046Y-4.798
N13840G1X7.022Y-4.703
N13850G1X7.007Y-4.604
N13860G1X7.001Y-4.500
N13870G1X7.007Y-4.396
N13880G1X7.022Y-4.297
N13890G1X7.046Y-4.202
N13900G1X7.079Y-4.111
N13910G1X7.121Y-4.024
N13920G1X7.171Y-3.942
N13930G1X7.229Y-3.865
N13940G1X7.294Y-3.794
N13950G1X7.365Y-3.729
N13960G1X7.442Y-3.671
N13970G1X7.524Y-3.621
N13980G1X7.611Y-3.579
N13990G1X7.702Y-3.546
N14000G1X7.797Y-3.522
N14010G1X7.896Y-3.507
N14020G1X8.000Y-3.501
N14030G1X8.104Y-3.507
N14040G1X8.203Y-3.522
N14050G1X8.298Y-3.546
N14060G1X8.389Y-3.579
N14070G1X8.476Y-3.621
N14080G1X8.558Y-3.671
N14090G1X8.635Y-3.729
N14100G1X8.706Y-3.794
N14110G1X8.771Y-3.865
N14120G1X8.829Y-3.942
N14130G1X8.879Y-4.024
N14140G1X8.921Y-4.111
N14150G1X8.954Y-4.202
N14160G1X8.978Y-4.297
N14170G1X8.993Y-4.396
N14180G1X8.999Y-4.500
N14190G1X8.993Y-4.604
N14200G1X8.978Y-4.703
N14210G1X8.954Y-4.798
N14220G1X8.921Y-4.889
N14230G1X8.879Y-4.976
N14240G1X8.829Y-5.058
N14250G1X8.771Y-5.135
N14260G1X8.706Y-5.206
N14270G1X8.635Y-5.271
N14280G1X8.558Y-5.329
N14290G1X8.476Y-5.379
N14300G1X8.389Y-5.421
N14310G1X8.298Y-5.454
N14320G1X8.203Y-5.478
N14330G1X8.104Y-5.493
N14340G1X8.000Y-5.499
N14350G1X7.896Y-5.493
N14360G1X7.797Y-5.478
N14370G1X7.702Y-5.454
N14380G1X7.611Y-5.421
N14390G1X7.524Y-5.379
N14400G1X7.442Y-5.329
N14410G1X7.365Y-5.271
N14420G1X7.294Y-5.206
N14430G1X7.229Y-5.135
N14440G00Z6.000
N14450G00X21.000Y-13.000
N14460G1Z-0.500F1200.0
N14470G2X24.000Y-10.000I3.000J0.000F3600.0
N14480G2X27.000Y-13.000I0.000J-3.000
N14490G2X24.000Y-16.000I-3.000J0.000
N14500G2X21.000Y-13.000I0.000J3.000
N14510G1Z-1.000F1200.0
N14520G2X24.000Y-10.000I3.000J0.000F3600.0
N14530G2X27.000Y-13.000I0.000J-3.000
N14540G2X24.000Y-16.000I-3.000J0.000
N14550G2X21.000Y-13.000I0.000J3.000
N14560G1Z-1.500F1200.0
N14570G2X24.000Y-10.000I3.000J0.000F3600.0
N14580G2X27.000Y-13.000I0.000J-3.000
N14590G2X24.000Y-16.000I-3.000J0.000
N14600G2X21.000Y-13.000I0.000J3.000
N14610G1Z-2.000F1200.0
N14620G2X24.000Y-10.000I3.000J0.000F3600.0
N14630G2X27.000Y-13.000I0.000J-3.000
N14640G2X24.000Y-16.000I-3.000J0.000
N14650G2X21.000Y-13.000I0.000J3.000
N14660G00Z6.000
N14670G00X31.229Y-5.135
N14680G1Z-0.500F1200.0
N14690G1X31.171Y-5.058F3600.0
N14700G1X31.121Y-4.976
N14710G1X31.079Y-4.889
N14720G1X31.046Y-4.798
N14730G1X31.022Y-4.703
N14740G1X31.007Y-4.604
N14750G1X31.001Y-4.500
N14760G1X31.007Y-4.396
N14770G1X31.022Y-4.297
N14780G1X31.046Y-4.202
N14790G1X31.079Y-4.111
N14800G1X31.121Y-4.024
N14810G1X31.171Y-3.942
N14820G1X31.229Y-3.865
N14830G1X31.294Y-3.794
N14840G1X31.365Y-3.729
N14850G1X31.442Y-3.671
N14860G1X31.524Y-3.621
N14870G1X31.611Y-3.579
N14880G1X31.702Y-3.546
N14890G1X31.797Y-3.522
N14900G1X31.896Y-3.507
N14910G1X32.000Y-3.501
N14920G1X32.104Y-3.507
N14930G1X32.203Y-3.522
N14940G1X32.298Y-3.546
N14950G1X32.389Y-3.579
N14960G1X32.476Y-3.621
N14970G1X32.558Y-3.671
N14980G1X32.635Y-3.729
N14990G1X32.706Y-3.794
N15000G1X32.771Y-3.865
N15010G1X32.829Y-3.942
N15020G1X32.879Y-4.024
N15030G1X32.921Y-4.111
N15040G1X32.954Y-4.202
N15050G1X32.978Y-4.297
N15060G1X32.993Y-4.396
N15070G1X32.999Y-4.500
N15080G1X32.993Y-4.604
N15090G1X32.978Y-4.703
N15100G1X32.954Y-4.798
N15110G1X32.921Y-4.889
N15120G1X32.879Y-4.976
N15130G1X32.829Y-5.058
N15140G1X32.771Y-5.135
N15150G1X32.706Y-5.206
N15160G1X32.635Y-5.271
N15170G1X32.558Y-5.329
N15180G1X32.476Y-5.379
N15190G1X32.389Y-5.421
N15200G1X32.298Y-5.454
N15210G1X32.203Y-5.478
N15220G1X32.104Y-5.493
N15230G1X32.000Y-5.499
N15240G1X31.896Y-5.493
N15250G1X31.797Y-5.478
N15260G1X31.702Y-5.454
N15270G1X31.611Y-5.421
N15280G1X31.524Y-5.379
N15290G1X31.442Y-5.329
N15300G1X31.365Y-5.271
N15310G1X31.294Y-5.206
N15320G1X31.229Y-5.135
N15330G1Z-1.000F1200.0
N15340G1X31.171Y-5.058F3600.0
N15350G1X31.121Y-4.976
N15360G1X31.079Y-4.889
N15370G1X31.046Y-4.798
N15380G1X31.022Y-4.703
N15390G1X31.007Y-4.604
N15400G1X31.001Y-4.500
N15410G1X31.007Y-4.396
N15420G1X31.022Y-4.297
N15430G1X31.046Y-4.202
N15440G1X31.079Y-4.111
N15450G1X31.121Y-4.024
N15460G1X31.171Y-3.942
N15470G1X31.229Y-3.865
N15480G1X31.294Y-3.794
N15490G1X31.365Y-3.729
N15500G1X31.442Y-3.671
N15510G1X31.524Y-3.621
N15520G1X31.611Y-3.579
N15530G1X31.702Y-3.546
N15540G1X31.797Y-3.522
N15550G1X31.896Y-3.507
N15560G1X32.000Y-3.501
N15570G1X32.104Y-3.507
N15580G1X32.203Y-3.522
N15590G1X32.298Y-3.546
N15600G1X32.389Y-3.579
N15610G1X32.476Y-3.621
N15620G1X32.558Y-3.671
N15630G1X32.635Y-3.729
N15640G1X32.706Y-3.794
N15650G1X32.771Y-3.865
N15660G1X32.829Y-3.942
N15670G1X32.879Y-4.024
N15680G1X32.921Y-4.111
N15690G1X32.954Y-4.202
N15700G1X32.978Y-4.297
N15710G1X32.993Y-4.396
N15720G1X32.999Y-4.500
N15730G1X32.993Y-4.604
N15740G1X32.978Y-4.703
N15750G1X32.954Y-4.798
N15760G1X32.921Y-4.889
N15770G1X32.879Y-4.976
N15780G1X32.829Y-5.058
N15790G1X32.771Y-5.135
N15800G1X32.706Y-5.206
N15810G1X32.635Y-5.271
N15820G1X32.558Y-5.329
N15830G1X32.476Y-5.379
N15840G1X32.389Y-5.421
N15850G1X32.298Y-5.454
N15860G1X32.203Y-5.478
N15870G1X32.104Y-5.493
N15880G1X32.000Y-5.499
N15890G1X31.896Y-5.493
N15900G1X31.797Y-5.478
N15910G1X31.702Y-5.454
N15920G1X31.611Y-5.421
N15930G1X31.524Y-5.379
N15940G1X31.442Y-5.329
N15950G1X31.365Y-5.271
N15960G1X31.294Y-5.206
N15970G1X31.229Y-5.135
N15980G1Z-1.500F1200.0
N15990G1X31.171Y-5.058F3600.0
N16000G1X31.121Y-4.976
N16010G1X31.079Y-4.889
N16020G1X31.046Y-4.798
N16030G1X31.022Y-4.703
N16040G1X31.007Y-4.604
N16050G1X31.001Y-4.500
N16060G1X31.007Y-4.396
N16070G1X31.022Y-4.297
N16080G1X31.046Y-4.202
N16090G1X31.079Y-4.111
N16100G1X31.121Y-4.024
N16110G1X31.171Y-3.942
N16120G1X31.229Y-3.865
N16130G1X31.294Y-3.794
N16140G1X31.365Y-3.729
N16150G1X31.442Y-3.671
N16160G1X31.524Y-3.621
N16170G1X31.611Y-3.579
N16180G1X31.702Y-3.546
N16190G1X31.797Y-3.522
N16200G1X31.896Y-3.507
N16210G1X32.000Y-3.501
N16220G1X32.104Y-3.507
N16230G1X32.203Y-3.522
N16240G1X32.298Y-3.546
N16250G1X32.389Y-3.579
N16260G1X32.476Y-3.621
N16270G1X32.558Y-3.671
N16280G1X32.635Y-3.729
N16290G1X32.706Y-3.794
N16300G1X32.771Y-3.865
N16310G1X32.829Y-3.942
N16320G1X32.879Y-4.024
N16330G1X32.921Y-4.111
N16340G1X32.954Y-4.202
N16350G1X32.978Y-4.297
N16360G1X32.993Y-4.396
N16370G1X32.999Y-4.500
N16380G1X32.993Y-4.604
N16390G1X32.978Y-4.703
N16400G1X32.954Y-4.798
N16410G1X32.921Y-4.889
N16420G1X32.879Y-4.976
N16430G1X32.829Y-5.058
N16440G1X32.771Y-5.135
N16450G1X32.706Y-5.206
N16460G1X32.635Y-5.271
N16470G1X32.558Y-5.329
N16480G1X32.476Y-5.379
N16490G1X32.389Y-5.421
N16500G1X32.298Y-5.454
N16510G1X32.203Y-5.478
N16520G1X32.104Y-5.493
N16530G1X32.000Y-5.499
N16540G1X31.896Y-5.493
N16550G1X31.797Y-5.478
N16560G1X31.702Y-5.454
N16570G1X31.611Y-5.421
N16580G1X31.524Y-5.379
N16590G1X31.442Y-5.329
N16600G1X31.365Y-5.271
N16610G1X31.294Y-5.206
N16620G1X31.229Y-5.135
N16630G1Z-2.000F1200.0
N16640G1X31.171Y-5.058F3600.0
N16650G1X31.121Y-4.976
N16660G1X31.079Y-4.889
N16670G1X31.046Y-4.798
N16680G1X31.022Y-4.703
N16690G1X31.007Y-4.604
N16700G1X31.001Y-4.500
N16710G1X31.007Y-4.396
N16720G1X31.022Y-4.297
N16730G1X31.046Y-4.202
N16740G1X31.079Y-4.111
N16750G1X31.121Y-4.024
N16760G1X31.171Y-3.942
N16770G1X31.229Y-3.865
N16780G1X31.294Y-3.794
N16790G1X31.365Y-3.729
N16800G1X31.442Y-3.671
N16810G1X31.524Y-3.621
N16820G1X31.611Y-3.579
N16830G1X31.702Y-3.546
N16840G1X31.797Y-3.522
N16850G1X31.896Y-3.507
N16860G1X32.000Y-3.501
N16870G1X32.104Y-3.507
N16880G1X32.203Y-3.522
N16890G1X32.298Y-3.546
N16900G1X32.389Y-3.579
N16910G1X32.476Y-3.621
N16920G1X32.558Y-3.671
N16930G1X32.635Y-3.729
N16940G1X32.706Y-3.794
N16950G1X32.771Y-3.865
N16960G1X32.829Y-3.942
N16970G1X32.879Y-4.024
N16980G1X32.921Y-4.111
N16990G1X32.954Y-4.202
N17000G1X32.978Y-4.297
N17010G1X32.993Y-4.396
N17020G1X32.999Y-4.500
N17030G1X32.993Y-4.604
N17040G1X32.978Y-4.703
N17050G1X32.954Y-4.798
N17060G1X32.921Y-4.889
N17070G1X32.879Y-4.976
N17080G1X32.829Y-5.058
N17090G1X32.771Y-5.135
N17100G1X32.706Y-5.206
N17110G1X32.635Y-5.271
N17120G1X32.558Y-5.329
N17130G1X32.476Y-5.379
N17140G1X32.389Y-5.421
N17150G1X32.298Y-5.454
N17160G1X32.203Y-5.478
N17170G1X32.104Y-5.493
N17180G1X32.000Y-5.499
N17190G1X31.896Y-5.493
N17200G1X31.797Y-5.478
N17210G1X31.702Y-5.454
N17220G1X31.611Y-5.421
N17230G1X31.524Y-5.379
N17240G1X31.442Y-5.329
N17250G1X31.365Y-5.271
N17260G1X31.294Y-5.206
N17270G1X31.229Y-5.135
N17280G00Z6.000
N17290S12000M03
(Profile 2)
()
N17320G00X-12.070Y2.796Z6.000
N17330G1Z-0.500F1200.0
N17340G1X-12.017Y3.143F3600.0
N17350G1X-12.000Y3.475
N17360G1Y22.525
N17370G1X-12.017Y22.857
N17380G1X-12.070Y23.204
N17390G1X-12.156Y23.541
N17400G1X-12.274Y23.863
N17410G1X-12.422Y24.169
N17420G1X-12.597Y24.458
N17430G1X-12.799Y24.727
N17440G1X-13.024Y24.976
N17450G1X-13.273Y25.201
N17460G1X-13.542Y25.403
N17470G1X-13.831Y25.578
N17480G1X-14.137Y25.726
N17490G1X-14.459Y25.844
N17500G1X-14.796Y25.930
N17510G1X-15.143Y25.983
N17520G1X-15.475Y26.000
N17530G1X-32.525
N17540G1X-32.857Y25.983
N17550G1X-33.204Y25.930
N17560G1X-33.541Y25.844
N17570G1X-33.863Y25.726
N17580G1X-34.169Y25.578
N17590G1X-34.458Y25.403
N17600G1X-34.727Y25.201
N17610G1X-34.976Y24.976
N17620G1X-35.201Y24.727
N17630G1X-35.403Y24.458
N17640G1X-35.578Y24.169
N17650G1X-35.726Y23.863
N17660G1X-35.844Y23.541
N17670G1X-35.930Y23.204
N17680G1X-35.983Y22.857
N17690G1X-36.000Y22.525
N17700G1Y3.475
N17710G1X-35.983Y3.143
N17720G1X-35.930Y2.796
N17730G1X-35.844Y2.459
N17740G1X-35.726Y2.137
N17750G1X-35.578Y1.831
N17760G1X-35.403Y1.542
N17770G1X-35.201Y1.273
N17780G1X-34.976Y1.024
N17790G1X-34.727Y0.799
N17800G1X-34.458Y0.597
N17810G1X-34.169Y0.422
N17820G1X-33.863Y0.274
N17830G1X-33.541Y0.156
N17840G1X-33.204Y0.070
N17850G1X-32.857Y0.017
N17860G1X-32.525Y0.000
N17870G1X-15.475
N17880G1X-15.143Y0.017
N17890G1X-14.796Y0.070
N17900G1X-14.459Y0.156
N17910G1X-14.137Y0.274
N17920G1X-13.831Y0.422
N17930G1X-13.542Y0.597
N17940G1X-13.273Y0.799
N17950G1X-13.024Y1.024
N17960G1X-12.799Y1.273
N17970G1X-12.597Y1.542
N17980G1X-12.422Y1.831
N17990G1X-12.274Y2.137
N18000G1X-12.156Y2.459
N18010G1X-12.070Y2.796
N18020G1Z-1.000F1200.0
N18030G1X-12.017Y3.143F3600.0
N18040G1X-12.000Y3.475
N18050G1Y22.525
N18060G1X-12.017Y22.857
N18070G1X-12.070Y23.204
N18080G1X-12.156Y23.541
N18090G1X-12.274Y23.863
N18100G1X-12.422Y24.169
N18110G1X-12.597Y24.458
N18120G1X-12.799Y24.727
N18130G1X-13.024Y24.976
N18140G1X-13.273Y25.201
N18150G1X-13.542Y25.403
N18160G1X-13.831Y25.578
N18170G1X-14.137Y25.726
N18180G1X-14.459Y25.844
N18190G1X-14.796Y25.930
N18200G1X-15.143Y25.983
N18210G1X-15.475Y26.000
N18220G1X-32.525
N18230G1X-32.857Y25.983
N18240G1X-33.204Y25.930
N18250G1X-33.541Y25.844
N18260G1X-33.863Y25.726
N18270G1X-34.169Y25.578
N18280G1X-34.458Y25.403
N18290G1X-34.727Y25.201
N18300G1X-34.976Y24.976
N18310G1X-35.201Y24.727
N18320G1X-35.403Y24.458
N18330G1X-35.578Y24.169
N18340G1X-35.726Y23.863
N18350G1X-35.844Y23.541
N18360G1X-35.930Y23.204
N18370G1X-35.983Y22.857
N18380G1X-36.000Y22.525
N18390G1Y3.475
N18400G1X-35.983Y3.143
N18410G1X-35.930Y2.796
N18420G1X-35.844Y2.459
N18430G1X-35.726Y2.137
N18440G1X-35.578Y1.831
N18450G1X-35.403Y1.542
N18460G1X-35.201Y1.273
N18470G1X-34.976Y1.024
N18480G1X-34.727Y0.799
N18490G1X-34.458Y0.597
N18500G1X-34.169Y0.422
N18510G1X-33.863Y0.274
N18520G1X-33.541Y0.156
N18530G1X-33.204Y0.070
N18540G1X-32.857Y0.017
N18550G1X-32.525Y0.000
N18560G1X-15.475
N18570G1X-15.143Y0.017
N18580G1X-14.796Y0.070
N18590G1X-14.459Y0.156
N18600G1X-14.137Y0.274
N18610G1X-13.831Y0.422
N18620G1X-13.542Y0.597
N18630G1X-13.273Y0.799
N18640G1X-13.024Y1.024
N18650G1X-12.799Y1.273
N18660G1X-12.597Y1.542
N18670G1X-12.422Y1.831
N18680G1X-12.274Y2.137
N18690G1X-12.156Y2.459
N18700G1X-12.070Y2.796
N18710G1Z-1.500F1200.0
N18720G1X-12.017Y3.143F3600.0
N18730G1X-12.000Y3.475
N18740G1Y22.525
N18750G1X-12.017Y22.857
N18760G1X-12.070Y23.204
N18770G1X-12.156Y23.541
N18780G1X-12.274Y23.863
N18790G1X-12.422Y24.169
N18800G1X-12.597Y24.458
N18810G1X-12.799Y24.727
N18820G1X-13.024Y24.976
N18830G1X-13.273Y25.201
N18840G1X-13.542Y25.403
N18850G1X-13.831Y25.578
N18860G1X-14.137Y25.726
N18870G1X-14.459Y25.844
N18880G1X-14.796Y25.930
N18890G1X-15.143Y25.983
N18900G1X-15.475Y26.000
N18910G1X-32.525
N18920G1X-32.857Y25.983
N18930G1X-33.204Y25.930
N18940G1X-33.541Y25.844
N18950G1X-33.863Y25.726
N18960G1X-34.169Y25.578
N18970G1X-34.458Y25.403
N18980G1X-34.727Y25.201
N18990G1X-34.976Y24.976
N19000G1X-35.201Y24.727
N19010G1X-35.403Y24.458
N19020G1X-35.578Y24.169
N19030G1X-35.726Y23.863
N19040G1X-35.844Y23.541
N19050G1X-35.930Y23.204
N19060G1X-35.983Y22.857
N19070G1X-36.000Y22.525
N19080G1Y3.475
N19090G1X-35.983Y3.143
N19100G1X-35.930Y2.796
N19110G1X-35.844Y2.459
N19120G1X-35.726Y2.137
N19130G1X-35.578Y1.831
N19140G1X-35.403Y1.542
N19150G1X-35.201Y1.273
N19160G1X-34.976Y1.024
N19170G1X-34.727Y0.799
N19180G1X-34.458Y0.597
N19190G1X-34.169Y0.422
N19200G1X-33.863Y0.274
N19210G1X-33.541Y0.156
N19220G1X-33.204Y0.070
N19230G1X-32.857Y0.017
N19240G1X-32.525Y0.000
N19250G1X-15.475
N19260G1X-15.143Y0.017
N19270G1X-14.796Y0.070
N19280G1X-14.459Y0.156
N19290G1X-14.137Y0.274
N19300G1X-13.831Y0.422
N19310G1X-13.542Y0.597
N19320G1X-13.273Y0.799
N19330G1X-13.024Y1.024
N19340G1X-12.799Y1.273
N19350G1X-12.597Y1.542
N19360G1X-12.422Y1.831
N19370G1X-12.274Y2.137
N19380G1X-12.156Y2.459
N19390G1X-12.070Y2.796
N19400G1Z-2.000F1200.0
N19410G1X-12.017Y3.143F3600.0
N19420G1X-12.000Y3.475
N19430G1Y22.525
N19440G1X-12.017Y22.857
N19450G1X-12.070Y23.204
N19460G1X-12.156Y23.541
N19470G1X-12.274Y23.863
N19480G1X-12.422Y24.169
N19490G1X-12.597Y24.458
N19500G1X-12.799Y24.727
N19510G1X-13.024Y24.976
N19520G1X-13.273Y25.201
N19530G1X-13.542Y25.403
N19540G1X-13.831Y25.578
N19550G1X-14.137Y25.726
N19560G1X-14.459Y25.844
N19570G1X-14.796Y25.930
N19580G1X-15.143Y25.983
N19590G1X-15.475Y26.000
N19600G1X-32.525
N19610G1X-32.857Y25.983
N19620G1X-33.204Y25.930
N19630G1X-33.541Y25.844
N19640G1X-33.863Y25.726
N19650G1X-34.169Y25.578
N19660G1X-34.458Y25.403
N19670G1X-34.727Y25.201
N19680G1X-34.976Y24.976
N19690G1X-35.201Y24.727
N19700G1X-35.403Y24.458
N19710G1X-35.578Y24.169
N19720G1X-35.726Y23.863
N19730G1X-35.844Y23.541
N19740G1X-35.930Y23.204
N19750G1X-35.983Y22.857
N19760G1X-36.000Y22.525
N19770G1Y3.475
N19780G1X-35.983Y3.143
N19790G1X-35.930Y2.796
N19800G1X-35.844Y2.459
N19810G1X-35.726Y2.137
N19820G1X-35.578Y1.831
N19830G1X-35.403Y1.542
N19840G1X-35.201Y1.273
N19850G1X-34.976Y1.024
N19860G1X-34.727Y0.799
N19870G1X-34.458Y0.597
N19880G1X-34.169Y0.422
N19890G1X-33.863Y0.274
N19900G1X-33.541Y0.156
N19910G1X-33.204Y0.070
N19920G1X-32.857Y0.017
N19930G1X-32.525Y0.000
N19940G1X-15.475
N19950G1X-15.143Y0.017
N19960G1X-14.796Y0.070
N19970G1X-14.459Y0.156
N19980G1X-14.137Y0.274
N19990G1X-13.831Y0.422
N20000G1X-13.542Y0.597
N20010G1X-13.273Y0.799
N20020G1X-13.024Y1.024
N20030G1X-12.799Y1.273
N20040G1X-12.597Y1.542
N20050G1X-12.422Y1.831
N20060G1X-12.274Y2.137
N20070G1X-12.156Y2.459
N20080G1X-12.070Y2.796
N20090G00Z6.000
N20100S12000M03
(Profile 3)
()
N20130G00X-8.525Y0.000Z6.000
N20140G1Z-0.500F1200.0
N20150G1X8.525F3600.0
N20160G1X8.857Y0.017
N20170G1X9.204Y0.070
N20180G1X9.541Y0.156
N20190G1X9.863Y0.274
N20200G1X10.169Y0.422
N20210G1X10.458Y0.597
N20220G1X10.727Y0.799
N20230G1X10.976Y1.024
N20240G1X11.201Y1.273
N20250G1X11.403Y1.542
N20260G1X11.578Y1.831
N20270G1X11.726Y2.137
N20280G1X11.844Y2.459
N20290G1X11.930Y2.796
N20300G1X11.983Y3.143
N20310G1X12.000Y3.475
N20320G1Y22.525
N20330G1X11.983Y22.857
N20340G1X11.930Y23.204
N20350G1X11.844Y23.541
N20360G1X11.726Y23.863
N20370G1X11.578Y24.169
N20380G1X11.403Y24.458
N20390G1X11.201Y24.727
N20400G1X10.976Y24.976
N20410G1X10.727Y25.201
N20420G1X10.458Y25.403
N20430G1X10.169Y25.578
N20440G1X9.863Y25.726
N20450G1X9.541Y25.844
N20460G1X9.204Y25.930
N20470G1X8.857Y25.983
N20480G1X8.525Y26.000
N20490G1X-8.525
N20500G1X-8.857Y25.983
N20510G1X-9.204Y25.930
N20520G1X-9.541Y25.844
N20530G1X-9.863Y25.726
N20540G1X-10.169Y25.578
N20550G1X-10.458Y25.403
N20560G1X-10.727Y25.201
N20570G1X-10.976Y24.976
N20580G1X-11.201Y24.727
N20590G1X-11.403Y24.458
N20600G1X-11.578Y24.169
N20610G1X-11.726Y23.863
N20620G1X-11.844Y23.541
N20630G1X-11.930Y23.204
N20640G1X-11.983Y22.857
N20650G1X-12.000Y22.525
N20660G1Y3.475
N20670G1X-11.983Y3.143
N20680G1X-11.930Y2.796
N20690G1X-11.844Y2.459
N20700G1X-11.726Y2.137
N20710G1X-11.578Y1.831
N20720G1X-11.403Y1.542
N20730G1X-11.201Y1.273
N20740G1X-10.976Y1.024
N20750G1X-10.727Y0.799
N20760G1X-10.458Y0.597
N20770G1X-10.169Y0.422
N20780G1X-9.863Y0.274
N20790G1X-9.541Y0.156
N20800G1X-9.204Y0.070
N20810G1X-8.857Y0.017
N20820G1X-8.525Y0.000
N20830G1Z-1.000F1200.0
N20840G1X8.525F3600.0
N20850G1X8.857Y0.017
N20860G1X9.204Y0.070
N20870G1X9.541Y0.156
N20880G1X9.863Y0.274
N20890G1X10.169Y0.422
N20900G1X10.458Y0.597
N20910G1X10.727Y0.799
N20920G1X10.976Y1.024
N20930G1X11.201Y1.273
N20940G1X11.403Y1.542
N20950G1X11.578Y1.831
N20960G1X11.726Y2.137
N20970G1X11.844Y2.459
N20980G1X11.930Y2.796
N20990G1X11.983Y3.143
N21000G1X12.000Y3.475
N21010G1Y22.525
N21020G1X11.983Y22.857
N21030G1X11.930Y23.204
N21040G1X11.844Y23.541
N21050G1X11.726Y23.863
N21060G1X11.578Y24.169
N21070G1X11.403Y24.458
N21080G1X11.201Y24.727
N21090G1X10.976Y24.976
N21100G1X10.727Y25.201
N21110G1X10.458Y25.403
N21120G1X10.169Y25.578
N21130G1X9.863Y25.726
N21140G1X9.541Y25.844
N21150G1X9.204Y25.930
N21160G1X8.857Y25.983
N21170G1X8.525Y26.000
N21180G1X-8.525
N21190G1X-8.857Y25.983
N21200G1X-9.204Y25.930
N21210G1X-9.541Y25.844
N21220G1X-9.863Y25.726
N21230G1X-10.169Y25.578
N21240G1X-10.458Y25.403
N21250G1X-10.727Y25.201
N21260G1X-10.976Y24.976
N21270G1X-11.201Y24.727
N21280G1X-11.403Y24.458
N21290G1X-11.578Y24.169
N21300G1X-11.726Y23.863
N21310G1X-11.844Y23.541
N21320G1X-11.930Y23.204
N21330G1X-11.983Y22.857
N21340G1X-12.000Y22.525
N21350G1Y3.475
N21360G1X-11.983Y3.143
N21370G1X-11.930Y2.796
N21380G1X-11.844Y2.459
N21390G1X-11.726Y2.137
N21400G1X-11.578Y1.831
N21410G1X-11.403Y1.542
N21420G1X-11.201Y1.273
N21430G1X-10.976Y1.024
N21440G1X-10.727Y0.799
N21450G1X-10.458Y0.597
N21460G1X-10.169Y0.422
N21470G1X-9.863Y0.274
N21480G1X-9.541Y0.156
N21490G1X-9.204Y0.070
N21500G1X-8.857Y0.017
N21510G1X-8.525Y0.000
N21520G1Z-1.500F1200.0
N21530G1X8.525F3600.0
N21540G1X8.857Y0.017
N21550G1X9.204Y0.070
N21560G1X9.541Y0.156
N21570G1X9.863Y0.274
N21580G1X10.169Y0.422
N21590G1X10.458Y0.597
N21600G1X10.727Y0.799
N21610G1X10.976Y1.024
N21620G1X11.201Y1.273
N21630G1X11.403Y1.542
N21640G1X11.578Y1.831
N21650G1X11.726Y2.137
N21660G1X11.844Y2.459
N21670G1X11.930Y2.796
N21680G1X11.983Y3.143
N21690G1X12.000Y3.475
N21700G1Y22.525
N21710G1X11.983Y22.857
N21720G1X11.930Y23.204
N21730G1X11.844Y23.541
N21740G1X11.726Y23.863
N21750G1X11.578Y24.169
N21760G1X11.403Y24.458
N21770G1X11.201Y24.727
N21780G1X10.976Y24.976
N21790G1X10.727Y25.201
N21800G1X10.458Y25.403
N21810G1X10.169Y25.578
N21820G1X9.863Y25.726
N21830G1X9.541Y25.844
N21840G1X9.204Y25.930
N21850G1X8.857Y25.983
N21860G1X8.525Y26.000
N21870G1X-8.525
N21880G1X-8.857Y25.983
N21890G1X-9.204Y25.930
N21900G1X-9.541Y25.844
N21910G1X-9.863Y25.726
N21920G1X-10.169Y25.578
N21930G1X-10.458Y25.403
N21940G1X-10.727Y25.201
N21950G1X-10.976Y24.976
N21960G1X-11.201Y24.727
N21970G1X-11.403Y24.458
N21980G1X-11.578Y24.169
N21990G1X-11.726Y23.863
N22000G1X-11.844Y23.541
N22010G1X-11.930Y23.204
N22020G1X-11.983Y22.857
N22030G1X-12.000Y22.525
N22040G1Y3.475
N22050G1X-11.983Y3.143
N22060G1X-11.930Y2.796
N22070G1X-11.844Y2.459
N22080G1X-11.726Y2.137
N22090G1X-11.578Y1.831
N22100G1X-11.403Y1.542
N22110G1X-11.201Y1.273
N22120G1X-10.976Y1.024
N22130G1X-10.727Y0.799
N22140G1X-10.458Y0.597
N22150G1X-10.169Y0.422
N22160G1X-9.863Y0.274
N22170G1X-9.541Y0.156
N22180G1X-9.204Y0.070
N22190G1X-8.857Y0.017
N22200G1X-8.525Y0.000
N22210G1Z-2.000F1200.0
N22220G1X8.525F3600.0
N22230G1X8.857Y0.017
N22240G1X9.204Y0.070
N22250G1X9.541Y0.156
N22260G1X9.863Y0.274
N22270G1X10.169Y0.422
N22280G1X10.458Y0.597
N22290G1X10.727Y0.799
N22300G1X10.976Y1.024
N22310G1X11.201Y1.273
N22320G1X11.403Y1.542
N22330G1X11.578Y1.831
N22340G1X11.726Y2.137
N22350G1X11.844Y2.459
N22360G1X11.930Y2.796
N22370G1X11.983Y3.143
N22380G1X12.000Y3.475
N22390G1Y22.525
N22400G1X11.983Y22.857
N22410G1X11.930Y23.204
N22420G1X11.844Y23.541
N22430G1X11.726Y23.863
N22440G1X11.578Y24.169
N22450G1X11.403Y24.458
N22460G1X11.201Y24.727
N22470G1X10.976Y24.976
N22480G1X10.727Y25.201
N22490G1X10.458Y25.403
N22500G1X10.169Y25.578
N22510G1X9.863Y25.726
N22520G1X9.541Y25.844
N22530G1X9.204Y25.930
N22540G1X8.857Y25.983
N22550G1X8.525Y26.000
N22560G1X-8.525
N22570G1X-8.857Y25.983
N22580G1X-9.204Y25.930
N22590G1X-9.541Y25.844
N22600G1X-9.863Y25.726
N22610G1X-10.169Y25.578
N22620G1X-10.458Y25.403
N22630G1X-10.727Y25.201
N22640G1X-10.976Y24.976
N22650G1X-11.201Y24.727
N22660G1X-11.403Y24.458
N22670G1X-11.578Y24.169
N22680G1X-11.726Y23.863
N22690G1X-11.844Y23.541
N22700G1X-11.930Y23.204
N22710G1X-11.983Y22.857
N22720G1X-12.000Y22.525
N22730G1Y3.475
N22740G1X-11.983Y3.143
N22750G1X-11.930Y2.796
N22760G1X-11.844Y2.459
N22770G1X-11.726Y2.137
N22780G1X-11.578Y1.831
N22790G1X-11.403Y1.542
N22800G1X-11.201Y1.273
N22810G1X-10.976Y1.024
N22820G1X-10.727Y0.799
N22830G1X-10.458Y0.597
N22840G1X-10.169Y0.422
N22850G1X-9.863Y0.274
N22860G1X-9.541Y0.156
N22870G1X-9.204Y0.070
N22880G1X-8.857Y0.017
N22890G1X-8.525Y0.000
N22900G00Z6.000
N22910S12000M03
(Profile 4)
()
N22940G00X12.070Y2.796Z6.000
N22950G1Z-0.500F1200.0
N22960G1X12.156Y2.459F3600.0
N22970G1X12.274Y2.137
N22980G1X12.422Y1.831
N22990G1X12.597Y1.542
N23000G1X12.799Y1.273
N23010G1X13.024Y1.024
N23020G1X13.273Y0.799
N23030G1X13.542Y0.597
N23040G1X13.831Y0.422
N23050G1X14.137Y0.274
N23060G1X14.459Y0.156
N23070G1X14.796Y0.070
N23080G1X15.143Y0.017
N23090G1X15.475Y0.000
N23100G1X32.525
N23110G1X32.857Y0.017
N23120G1X33.204Y0.070
N23130G1X33.541Y0.156
N23140G1X33.863Y0.274
N23150G1X34.169Y0.422
N23160G1X34.458Y0.597
N23170G1X34.727Y0.799
N23180G1X34.976Y1.024
N23190G1X35.201Y1.273
N23200G1X35.403Y1.542
N23210G1X35.578Y1.831
N23220G1X35.726Y2.137
N23230G1X35.844Y2.459
N23240G1X35.930Y2.796
N23250G1X35.983Y3.143
N23260G1X36.000Y3.475
N23270G1Y22.525
N23280G1X35.983Y22.857
N23290G1X35.930Y23.204
N23300G1X35.844Y23.541
N23310G1X35.726Y23.863
N23320G1X35.578Y24.169
N23330G1X35.403Y24.458
N23340G1X35.201Y24.727
N23350G1X34.976Y24.976
N23360G1X34.727Y25.201
N23370G1X34.458Y25.403
N23380G1X34.169Y25.578
N23390G1X33.863Y25.726
N23400G1X33.541Y25.844
N23410G1X33.204Y25.930
N23420G1X32.857Y25.983
N23430G1X32.525Y26.000
N23440G1X15.475
N23450G1X15.143Y25.983
N23460G1X14.796Y25.930
N23470G1X14.459Y25.844
N23480G1X14.137Y25.726
N23490G1X13.831Y25.578
N23500G1X13.542Y25.403
N23510G1X13.273Y25.201
N23520G1X13.024Y24.976
N23530G1X12.799Y24.727
N23540G1X12.597Y24.458
N23550G1X12.422Y24.169
N23560G1X12.274Y23.863
N23570G1X12.156Y23.541
N23580G1X12.070Y23.204
N23590G1X12.017Y22.857
N23600G1X12.000Y22.525
N23610G1Y3.475
N23620G1X12.017Y3.143
N23630G1X12.070Y2.796
N23640G1Z-1.000F1200.0
N23650G1X12.156Y2.459F3600.0
N23660G1X12.274Y2.137
N23670G1X12.422Y1.831
N23680G1X12.597Y1.542
N23690G1X12.799Y1.273
N23700G1X13.024Y1.024
N23710G1X13.273Y0.799
N23720G1X13.542Y0.597
N23730G1X13.831Y0.422
N23740G1X14.137Y0.274
N23750G1X14.459Y0.156
N23760G1X14.796Y0.070
N23770G1X15.143Y0.017
N23780G1X15.475Y0.000
N23790G1X32.525
N23800G1X32.857Y0.017
N23810G1X33.204Y0.070
N23820G1X33.541Y0.156
N23830G1X33.863Y0.274
N23840G1X34.169Y0.422
N23850G1X34.458Y0.597
N23860G1X34.727Y0.799
N23870G1X34.976Y1.024
N23880G1X35.201Y1.273
N23890G1X35.403Y1.542
N23900G1X35.578Y1.831
N23910G1X35.726Y2.137
N23920G1X35.844Y2.459
N23930G1X35.930Y2.796
N23940G1X35.983Y3.143
N23950G1X36.000Y3.475
N23960G1Y22.525
N23970G1X35.983Y22.857
N23980G1X35.930Y23.204
N23990G1X35.844Y23.541
N24000G1X35.726Y23.863
N24010G1X35.578Y24.169
N24020G1X35.403Y24.458
N24030G1X35.201Y24.727
N24040G1X34.976Y24.976
N24050G1X34.727Y25.201
N24060G1X34.458Y25.403
N24070G1X34.169Y25.578
N24080G1X33.863Y25.726
N24090G1X33.541Y25.844
N24100G1X33.204Y25.930
N24110G1X32.857Y25.983
N24120G1X32.525Y26.000
N24130G1X15.475
N24140G1X15.143Y25.983
N24150G1X14.796Y25.930
N24160G1X14.459Y25.844
N24170G1X14.137Y25.726
N24180G1X13.831Y25.578
N24190G1X13.542Y25.403
N24200G1X13.273Y25.201
N24210G1X13.024Y24.976
N24220G1X12.799Y24.727
N24230G1X12.597Y24.458
N24240G1X12.422Y24.169
N24250G1X12.274Y23.863
N24260G1X12.156Y23.541
N24270G1X12.070Y23.204
N24280G1X12.017Y22.857
N24290G1X12.000Y22.525
N24300G1Y3.475
N24310G1X12.017Y3.143
N24320G1X12.070Y2.796
N24330G1Z-1.500F1200.0
N24340G1X12.156Y2.459F3600.0
N24350G1X12.274Y2.137
N24360G1X12.422Y1.831
N24370G1X12.597Y1.542
N24380G1X12.799Y1.273
N24390G1X13.024Y1.024
N24400G1X13.273Y0.799
N24410G1X13.542Y0.597
N24420G1X13.831Y0.422
N24430G1X14.137Y0.274
N24440G1X14.459Y0.156
N24450G1X14.796Y0.070
N24460G1X15.143Y0.017
N24470G1X15.475Y0.000
N24480G1X32.525
N24490G1X32.857Y0.017
N24500G1X33.204Y0.070
N24510G1X33.541Y0.156
N24520G1X33.863Y0.274
N24530G1X34.169Y0.422
N24540G1X34.458Y0.597
N24550G1X34.727Y0.799
N24560G1X34.976Y1.024
N24570G1X35.201Y1.273
N24580G1X35.403Y1.542
N24590G1X35.578Y1.831
N24600G1X35.726Y2.137
N24610G1X35.844Y2.459
N24620G1X35.930Y2.796
N24630G1X35.983Y3.143
N24640G1X36.000Y3.475
N24650G1Y22.525
N24660G1X35.983Y22.857
N24670G1X35.930Y23.204
N24680G1X35.844Y23.541
N24690G1X35.726Y23.863
N24700G1X35.578Y24.169
N24710G1X35.403Y24.458
N24720G1X35.201Y24.727
N24730G1X34.976Y24.976
N24740G1X34.727Y25.201
N24750G1X34.458Y25.403
N24760G1X34.169Y25.578
N24770G1X33.863Y25.726
N24780G1X33.541Y25.844
N24790G1X33.204Y25.930
N24800G1X32.857Y25.983
N24810G1X32.525Y26.000
N24820G1X15.475
N24830G1X15.143Y25.983
N24840G1X14.796Y25.930
N24850G1X14.459Y25.844
N24860G1X14.137Y25.726
N24870G1X13.831Y25.578
N24880G1X13.542Y25.403
N24890G1X13.273Y25.201
N24900G1X13.024Y24.976
N24910G1X12.799Y24.727
N24920G1X12.597Y24.458
N24930G1X12.422Y24.169
N24940G1X12.274Y23.863
N24950G1X12.156Y23.541
N24960G1X12.070Y23.204
N24970G1X12.017Y22.857
N24980G1X12.000Y22.525
N24990G1Y3.475
N25000G1X12.017Y3.143
N25010G1X12.070Y2.796
N25020G1Z-2.000F1200.0
N25030G1X12.156Y2.459F3600.0
N25040G1X12.274Y2.137
N25050G1X12.422Y1.831
N25060G1X12.597Y1.542
N25070G1X12.799Y1.273
N25080G1X13.024Y1.024
N25090G1X13.273Y0.799
N25100G1X13.542Y0.597
N25110G1X13.831Y0.422
N25120G1X14.137Y0.274
N25130G1X14.459Y0.156
N25140G1X14.796Y0.070
N25150G1X15.143Y0.017
N25160G1X15.475Y0.000
N25170G1X32.525
N25180G1X32.857Y0.017
N25190G1X33.204Y0.070
N25200G1X33.541Y0.156
N25210G1X33.863Y0.274
N25220G1X34.169Y0.422
N25230G1X34.458Y0.597
N25240G1X34.727Y0.799
N25250G1X34.976Y1.024
N25260G1X35.201Y1.273
N25270G1X35.403Y1.542
N25280G1X35.578Y1.831
N25290G1X35.726Y2.137
N25300G1X35.844Y2.459
N25310G1X35.930Y2.796
N25320G1X35.983Y3.143
N25330G1X36.000Y3.475
N25340G1Y22.525
N25350G1X35.983Y22.857
N25360G1X35.930Y23.204
N25370G1X35.844Y23.541
N25380G1X35.726Y23.863
N25390G1X35.578Y24.169
N25400G1X35.403Y24.458
N25410G1X35.201Y24.727
N25420G1X34.976Y24.976
N25430G1X34.727Y25.201
N25440G1X34.458Y25.403
N25450G1X34.169Y25.578
N25460G1X33.863Y25.726
N25470G1X33.541Y25.844
N25480G1X33.204Y25.930
N25490G1X32.857Y25.983
N25500G1X32.525Y26.000
N25510G1X15.475
N25520G1X15.143Y25.983
N25530G1X14.796Y25.930
N25540G1X14.459Y25.844
N25550G1X14.137Y25.726
N25560G1X13.831Y25.578
N25570G1X13.542Y25.403
N25580G1X13.273Y25.201
N25590G1X13.024Y24.976
N25600G1X12.799Y24.727
N25610G1X12.597Y24.458
N25620G1X12.422Y24.169
N25630G1X12.274Y23.863
N25640G1X12.156Y23.541
N25650G1X12.070Y23.204
N25660G1X12.017Y22.857
N25670G1X12.000Y22.525
N25680G1Y3.475
N25690G1X12.017Y3.143
N25700G1X12.070Y2.796
N25710G00Z6.000
N25720S12000M03
(Profile 5)
()
N25750G00X-12.070Y-2.796Z6.000
N25760G1Z-0.500F1200.0
N25770G1X-12.156Y-2.459F3600.0
N25780G1X-12.274Y-2.137
N25790G1X-12.422Y-1.831
N25800G1X-12.597Y-1.542
N25810G1X-12.799Y-1.273
N25820G1X-13.024Y-1.024
N25830G1X-13.273Y-0.799
N25840G1X-13.542Y-0.597
N25850G1X-13.831Y-0.422
N25860G1X-14.137Y-0.274
N25870G1X-14.459Y-0.156
N25880G1X-14.796Y-0.070
N25890G1X-15.143Y-0.017
N25900G1X-15.475Y0.000
N25910G1X-32.525
N25920G1X-32.857Y-0.017
N25930G1X-33.204Y-0.070
N25940G1X-33.541Y-0.156
N25950G1X-33.863Y-0.274
N25960G1X-34.169Y-0.422
N25970G1X-34.458Y-0.597
N25980G1X-34.727Y-0.799
N25990G1X-34.976Y-1.024
N26000G1X-35.201Y-1.273
N26010G1X-35.403Y-1.542
N26020G1X-35.578Y-1.831
N26030G1X-35.726Y-2.137
N26040G1X-35.844Y-2.459
N26050G1X-35.930Y-2.796
N26060G1X-35.983Y-3.143
N26070G1X-36.000Y-3.475
N26080G1Y-22.525
N26090G1X-35.983Y-22.857
N26100G1X-35.930Y-23.204
N26110G1X-35.844Y-23.541
N26120G1X-35.726Y-23.863
N26130G1X-35.578Y-24.169
N26140G1X-35.403Y-24.458
N26150G1X-35.201Y-24.727
N26160G1X-34.976Y-24.976
N26170G1X-34.727Y-25.201
N26180G1X-34.458Y-25.403
N26190G1X-34.169Y-25.578
N26200G1X-33.863Y-25.726
N26210G1X-33.541Y-25.844
N26220G1X-33.204Y-25.930
N26230G1X-32.857Y-25.983
N26240G1X-32.525Y-26.000
N26250G1X-15.475
N26260G1X-15.143Y-25.983
N26270G1X-14.796Y-25.930
N26280G1X-14.459Y-25.844
N26290G1X-14.137Y-25.726
N26300G1X-13.831Y-25.578
N26310G1X-13.542Y-25.403
N26320G1X-13.273Y-25.201
N26330G1X-13.024Y-24.976
N26340G1X-12.799Y-24.727
N26350G1X-12.597Y-24.458
N26360G1X-12.422Y-24.169
N26370G1X-12.274Y-23.863
N26380G1X-12.156Y-23.541
N26390G1X-12.070Y-23.204
N26400G1X-12.017Y-22.857
N26410G1X-12.000Y-22.525
N26420G1Y-3.475
N26430G1X-12.017Y-3.143
N26440G1X-12.070Y-2.796
N26450G1Z-1.000F1200.0
N26460G1X-12.156Y-2.459F3600.0
N26470G1X-12.274Y-2.137
N26480G1X-12.422Y-1.831
N26490G1X-12.597Y-1.542
N26500G1X-12.799Y-1.273
N26510G1X-13.024Y-1.024
N26520G1X-13.273Y-0.799
N26530G1X-13.542Y-0.597
N26540G1X-13.831Y-0.422
N26550G1X-14.137Y-0.274
N26560G1X-14.459Y-0.156
N26570G1X-14.796Y-0.070
N26580G1X-15.143Y-0.017
N26590G1X-15.475Y0.000
N26600G1X-32.525
N26610G1X-32.857Y-0.017
N26620G1X-33.204Y-0.070
N26630G1X-33.541Y-0.156
N26640G1X-33.863Y-0.274
N26650G1X-34.169Y-0.422
N26660G1X-34.458Y-0.597
N26670G1X-34.727Y-0.799
N26680G1X-34.976Y-1.024
N26690G1X-35.201Y-1.273
N26700G1X-35.403Y-1.542
N26710G1X-35.578Y-1.831
N26720G1X-35.726Y-2.137
N26730G1X-35.844Y-2.459
N26740G1X-35.930Y-2.796
N26750G1X-35.983Y-3.143
N26760G1X-36.000Y-3.475
N26770G1Y-22.525
N26780G1X-35.983Y-22.857
N26790G1X-35.930Y-23.204
N26800G1X-35.844Y-23.541
N26810G1X-35.726Y-23.863
N26820G1X-35.578Y-24.169
N26830G1X-35.403Y-24.458
N26840G1X-35.201Y-24.727
N26850G1X-34.976Y-24.976
N26860G1X-34.727Y-25.201
N26870G1X-34.458Y-25.403
N26880G1X-34.169Y-25.578
N26890G1X-33.863Y-25.726
N26900G1X-33.541Y-25.844
N26910G1X-33.204Y-25.930
N26920G1X-32.857Y-25.983
N26930G1X-32.525Y-26.000
N26940G1X-15.475
N26950G1X-15.143Y-25.983
N26960G1X-14.796Y-25.930
N26970G1X-14.459Y-25.844
N26980G1X-14.137Y-25.726
N26990G1X-13.831Y-25.578
N27000G1X-13.542Y-25.403
N27010G1X-13.273Y-25.201
N27020G1X-13.024Y-24.976
N27030G1X-12.799Y-24.727
N27040G1X-12.597Y-24.458
N27050G1X-12.422Y-24.169
N27060G1X-12.274Y-23.863
N27070G1X-12.156Y-23.541
N27080G1X-12.070Y-23.204
N27090G1X-12.017Y-22.857
N27100G1X-12.000Y-22.525
N27110G1Y-3.475
N27120G1X-12.017Y-3.143
N27130G1X-12.070Y-2.796
N27140G1Z-1.500F1200.0
N27150G1X-12.156Y-2.459F3600.0
N27160G1X-12.274Y-2.137
N27170G1X-12.422Y-1.831
N27180G1X-12.597Y-1.542
N27190G1X-12.799Y-1.273
N27200G1X-13.024Y-1.024
N27210G1X-13.273Y-0.799
N27220G1X-13.542Y-0.597
N27230G1X-13.831Y-0.422
N27240G1X-14.137Y-0.274
N27250G1X-14.459Y-0.156
N27260G1X-14.796Y-0.070
N27270G1X-15.143Y-0.017
N27280G1X-15.475Y0.000
N27290G1X-32.525
N27300G1X-32.857Y-0.017
N27310G1X-33.204Y-0.070
N27320G1X-33.541Y-0.156
N27330G1X-33.863Y-0.274
N27340G1X-34.169Y-0.422
N27350G1X-34.458Y-0.597
N27360G1X-34.727Y-0.799
N27370G1X-34.976Y-1.024
N27380G1X-35.201Y-1.273
N27390G1X-35.403Y-1.542
N27400G1X-35.578Y-1.831
N27410G1X-35.726Y-2.137
N27420G1X-35.844Y-2.459
N27430G1X-35.930Y-2.796
N27440G1X-35.983Y-3.143
N27450G1X-36.000Y-3.475
N27460G1Y-22.525
N27470G1X-35.983Y-22.857
N27480G1X-35.930Y-23.204
N27490G1X-35.844Y-23.541
N27500G1X-35.726Y-23.863
N27510G1X-35.578Y-24.169
N27520G1X-35.403Y-24.458
N27530G1X-35.201Y-24.727
N27540G1X-34.976Y-24.976
N27550G1X-34.727Y-25.201
N27560G1X-34.458Y-25.403
N27570G1X-34.169Y-25.578
N27580G1X-33.863Y-25.726
N27590G1X-33.541Y-25.844
N27600G1X-33.204Y-25.930
N27610G1X-32.857Y-25.983
N27620G1X-32.525Y-26.000
N27630G1X-15.475
N27640G1X-15.143Y-25.983
N27650G1X-14.796Y-25.930
N27660G1X-14.459Y-25.844
N27670G1X-14.137Y-25.726
N27680G1X-13.831Y-25.578
N27690G1X-13.542Y-25.403
N27700G1X-13.273Y-25.201
N27710G1X-13.024Y-24.976
N27720G1X-12.799Y-24.727
N27730G1X-12.597Y-24.458
N27740G1X-12.422Y-24.169
N27750G1X-12.274Y-23.863
N27760G1X-12.156Y-23.541
N27770G1X-12.070Y-23.204
N27780G1X-12.017Y-22.857
N27790G1X-12.000Y-22.525
N27800G1Y-3.475
N27810G1X-12.017Y-3.143
N27820G1X-12.070Y-2.796
N27830G1Z-2.000F1200.0
N27840G1X-12.156Y-2.459F3600.0
N27850G1X-12.274Y-2.137
N27860G1X-12.422Y-1.831
N27870G1X-12.597Y-1.542
N27880G1X-12.799Y-1.273
N27890G1X-13.024Y-1.024
N27900G1X-13.273Y-0.799
N27910G1X-13.542Y-0.597
N27920G1X-13.831Y-0.422
N27930G1X-14.137Y-0.274
N27940G1X-14.459Y-0.156
N27950G1X-14.796Y-0.070
N27960G1X-15.143Y-0.017
N27970G1X-15.475Y0.000
N27980G1X-32.525
N27990G1X-32.857Y-0.017
N28000G1X-33.204Y-0.070
N28010G1X-33.541Y-0.156
N28020G1X-33.863Y-0.274
N28030G1X-34.169Y-0.422
N28040G1X-34.458Y-0.597
N28050G1X-34.727Y-0.799
N28060G1X-34.976Y-1.024
N28070G1X-35.201Y-1.273
N28080G1X-35.403Y-1.542
N28090G1X-35.578Y-1.831
N28100G1X-35.726Y-2.137
N28110G1X-35.844Y-2.459
N28120G1X-35.930Y-2.796
N28130G1X-35.983Y-3.143
N28140G1X-36.000Y-3.475
N28150G1Y-22.525
N28160G1X-35.983Y-22.857
N28170G1X-35.930Y-23.204
N28180G1X-35.844Y-23.541
N28190G1X-35.726Y-23.863
N28200G1X-35.578Y-24.169
N28210G1X-35.403Y-24.458
N28220G1X-35.201Y-24.727
N28230G1X-34.976Y-24.976
N28240G1X-34.727Y-25.201
N28250G1X-34.458Y-25.403
N28260G1X-34.169Y-25.578
N28270G1X-33.863Y-25.726
N28280G1X-33.541Y-25.844
N28290G1X-33.204Y-25.930
N28300G1X-32.857Y-25.983
N28310G1X-32.525Y-26.000
N28320G1X-15.475
N28330G1X-15.143Y-25.983
N28340G1X-14.796Y-25.930
N28350G1X-14.459Y-25.844
N28360G1X-14.137Y-25.726
N28370G1X-13.831Y-25.578
N28380G1X-13.542Y-25.403
N28390G1X-13.273Y-25.201
N28400G1X-13.024Y-24.976
N28410G1X-12.799Y-24.727
N28420G1X-12.597Y-24.458
N28430G1X-12.422Y-24.169
N28440G1X-12.274Y-23.863
N28450G1X-12.156Y-23.541
N28460G1X-12.070Y-23.204
N28470G1X-12.017Y-22.857
N28480G1X-12.000Y-22.525
N28490G1Y-3.475
N28500G1X-12.017Y-3.143
N28510G1X-12.070Y-2.796
N28520G00Z6.000
N28530S12000M03
(Profile 6)
()
N28560G00X8.525Y0.000Z6.000
N28570G1Z-0.500F1200.0
N28580G1X-8.525F3600.0
N28590G1X-8.857Y-0.017
N28600G1X-9.204Y-0.070
N28610G1X-9.541Y-0.156
N28620G1X-9.863Y-0.274
N28630G1X-10.169Y-0.422
N28640G1X-10.458Y-0.597
N28650G1X-10.727Y-0.799
N28660G1X-10.976Y-1.024
N28670G1X-11.201Y-1.273
N28680G1X-11.403Y-1.542
N28690G1X-11.578Y-1.831
N28700G1X-11.726Y-2.137
N28710G1X-11.844Y-2.459
N28720G1X-11.930Y-2.796
N28730G1X-11.983Y-3.143
N28740G1X-12.000Y-3.475
N28750G1Y-22.525
N28760G1X-11.983Y-22.857
N28770G1X-11.930Y-23.204
N28780G1X-11.844Y-23.541
N28790G1X-11.726Y-23.863
N28800G1X-11.578Y-24.169
N28810G1X-11.403Y-24.458
N28820G1X-11.201Y-24.727
N28830G1X-10.976Y-24.976
N28840G1X-10.727Y-25.201
N28850G1X-10.458Y-25.403
N28860G1X-10.169Y-25.578
N28870G1X-9.863Y-25.726
N28880G1X-9.541Y-25.844
N28890G1X-9.204Y-25.930
N28900G1X-8.857Y-25.983
N28910G1X-8.525Y-26.000
N28920G1X8.525
N28930G1X8.857Y-25.983
N28940G1X9.204Y-25.930
N28950G1X9.541Y-25.844
N28960G1X9.863Y-25.726
N28970G1X10.169Y-25.578
N28980G1X10.458Y-25.403
N28990G1X10.727Y-25.201
N29000G1X10.976Y-24.976
N29010G1X11.201Y-24.727
N29020G1X11.403Y-24.458
N29030G1X11.578Y-24.169
N29040G1X11.726Y-23.863
N29050G1X11.844Y-23.541
N29060G1X11.930Y-23.204
N29070G1X11.983Y-22.857
N29080G1X12.000Y-22.525
N29090G1Y-3.475
N29100G1X11.983Y-3.143
N29110G1X11.930Y-2.796
N29120G1X11.844Y-2.459
N29130G1X11.726Y-2.137
N29140G1X11.578Y-1.831
N29150G1X11.403Y-1.542
N29160G1X11.201Y-1.273
N29170G1X10.976Y-1.024
N29180G1X10.727Y-0.799
N29190G1X10.458Y-0.597
N29200G1X10.169Y-0.422
N29210G1X9.863Y-0.274
N29220G1X9.541Y-0.156
N29230G1X9.204Y-0.070
N29240G1X8.857Y-0.017
N29250G1X8.525Y0.000
N29260G1Z-1.000F1200.0
N29270G1X-8.525F3600.0
N29280G1X-8.857Y-0.017
N29290G1X-9.204Y-0.070
N29300G1X-9.541Y-0.156
N29310G1X-9.863Y-0.274
N29320G1X-10.169Y-0.422
N29330G1X-10.458Y-0.597
N29340G1X-10.727Y-0.799
N29350G1X-10.976Y-1.024
N29360G1X-11.201Y-1.273
N29370G1X-11.403Y-1.542
N29380G1X-11.578Y-1.831
N29390G1X-11.726Y-2.137
N29400G1X-11.844Y-2.459
N29410G1X-11.930Y-2.796
N29420G1X-11.983Y-3.143
N29430G1X-12.000Y-3.475
N29440G1Y-22.525
N29450G1X-11.983Y-22.857
N29460G1X-11.930Y-23.204
N29470G1X-11.844Y-23.541
N29480G1X-11.726Y-23.863
N29490G1X-11.578Y-24.169
N29500G1X-11.403Y-24.458
N29510G1X-11.201Y-24.727
N29520G1X-10.976Y-24.976
N29530G1X-10.727Y-25.201
N29540G1X-10.458Y-25.403
N29550G1X-10.169Y-25.578
N29560G1X-9.863Y-25.726
N29570G1X-9.541Y-25.844
N29580G1X-9.204Y-25.930
N29590G1X-8.857Y-25.983
N29600G1X-8.525Y-26.000
N29610G1X8.525
N29620G1X8.857Y-25.983
N29630G1X9.204Y-25.930
N29640G1X9.541Y-25.844
N29650G1X9.863Y-25.726
N29660G1X10.169Y-25.578
N29670G1X10.458Y-25.403
N29680G1X10.727Y-25.201
N29690G1X10.976Y-24.976
N29700G1X11.201Y-24.727
N29710G1X11.403Y-24.458
N29720G1X11.578Y-24.169
N29730G1X11.726Y-23.863
N29740G1X11.844Y-23.541
N29750G1X11.930Y-23.204
N29760G1X11.983Y-22.857
N29770G1X12.000Y-22.525
N29780G1Y-3.475
N29790G1X11.983Y-3.143
N29800G1X11.930Y-2.796
N29810G1X11.844Y-2.459
N29820G1X11.726Y-2.137
N29830G1X11.578Y-1.831
N29840G1X11.403Y-1.542
N29850G1X11.201Y-1.273
N29860G1X10.976Y-1.024
N29870G1X10.727Y-0.799
N29880G1X10.458Y-0.597
N29890G1X10.169Y-0.422
N29900G1X9.863Y-0.274
N29910G1X9.541Y-0.156
N29920G1X9.204Y-0.070
N29930G1X8.857Y-0.017
N29940G1X8.525Y0.000
N29950G1Z-1.500F1200.0
N29960G1X-8.525F3600.0
N29970G1X-8.857Y-0.017
N29980G1X-9.204Y-0.070
N29990G1X-9.541Y-0.156
N30000G1X-9.863Y-0.274
N30010G1X-10.169Y-0.422
N30020G1X-10.458Y-0.597
N30030G1X-10.727Y-0.799
N30040G1X-10.976Y-1.024
N30050G1X-11.201Y-1.273
N30060G1X-11.403Y-1.542
N30070G1X-11.578Y-1.831
N30080G1X-11.726Y-2.137
N30090G1X-11.844Y-2.459
N30100G1X-11.930Y-2.796
N30110G1X-11.983Y-3.143
N30120G1X-12.000Y-3.475
N30130G1Y-22.525
N30140G1X-11.983Y-22.857
N30150G1X-11.930Y-23.204
N30160G1X-11.844Y-23.541
N30170G1X-11.726Y-23.863
N30180G1X-11.578Y-24.169
N30190G1X-11.403Y-24.458
N30200G1X-11.201Y-24.727
N30210G1X-10.976Y-24.976
N30220G1X-10.727Y-25.201
N30230G1X-10.458Y-25.403
N30240G1X-10.169Y-25.578
N30250G1X-9.863Y-25.726
N30260G1X-9.541Y-25.844
N30270G1X-9.204Y-25.930
N30280G1X-8.857Y-25.983
N30290G1X-8.525Y-26.000
N30300G1X8.525
N30310G1X8.857Y-25.983
N30320G1X9.204Y-25.930
N30330G1X9.541Y-25.844
N30340G1X9.863Y-25.726
N30350G1X10.169Y-25.578
N30360G1X10.458Y-25.403
N30370G1X10.727Y-25.201
N30380G1X10.976Y-24.976
N30390G1X11.201Y-24.727
N30400G1X11.403Y-24.458
N30410G1X11.578Y-24.169
N30420G1X11.726Y-23.863
N30430G1X11.844Y-23.541
N30440G1X11.930Y-23.204
N30450G1X11.983Y-22.857
N30460G1X12.000Y-22.525
N30470G1Y-3.475
N30480G1X11.983Y-3.143
N30490G1X11.930Y-2.796
N30500G1X11.844Y-2.459
N30510G1X11.726Y-2.137
N30520G1X11.578Y-1.831
N30530G1X11.403Y-1.542
N30540G1X11.201Y-1.273
N30550G1X10.976Y-1.024
N30560G1X10.727Y-0.799
N30570G1X10.458Y-0.597
N30580G1X10.169Y-0.422
N30590G1X9.863Y-0.274
N30600G1X9.541Y-0.156
N30610G1X9.204Y-0.070
N30620G1X8.857Y-0.017
N30630G1X8.525Y0.000
N30640G1Z-2.000F1200.0
N30650G1X-8.525F3600.0
N30660G1X-8.857Y-0.017
N30670G1X-9.204Y-0.070
N30680G1X-9.541Y-0.156
N30690G1X-9.863Y-0.274
N30700G1X-10.169Y-0.422
N30710G1X-10.458Y-0.597
N30720G1X-10.727Y-0.799
N30730G1X-10.976Y-1.024
N30740G1X-11.201Y-1.273
N30750G1X-11.403Y-1.542
N30760G1X-11.578Y-1.831
N30770G1X-11.726Y-2.137
N30780G1X-11.844Y-2.459
N30790G1X-11.930Y-2.796
N30800G1X-11.983Y-3.143
N30810G1X-12.000Y-3.475
N30820G1Y-22.525
N30830G1X-11.983Y-22.857
N30840G1X-11.930Y-23.204
N30850G1X-11.844Y-23.541
N30860G1X-11.726Y-23.863
N30870G1X-11.578Y-24.169
N30880G1X-11.403Y-24.458
N30890G1X-11.201Y-24.727
N30900G1X-10.976Y-24.976
N30910G1X-10.727Y-25.201
N30920G1X-10.458Y-25.403
N30930G1X-10.169Y-25.578
N30940G1X-9.863Y-25.726
N30950G1X-9.541Y-25.844
N30960G1X-9.204Y-25.930
N30970G1X-8.857Y-25.983
N30980G1X-8.525Y-26.000
N30990G1X8.525
N31000G1X8.857Y-25.983
N31010G1X9.204Y-25.930
N31020G1X9.541Y-25.844
N31030G1X9.863Y-25.726
N31040G1X10.169Y-25.578
N31050G1X10.458Y-25.403
N31060G1X10.727Y-25.201
N31070G1X10.976Y-24.976
N31080G1X11.201Y-24.727
N31090G1X11.403Y-24.458
N31100G1X11.578Y-24.169
N31110G1X11.726Y-23.863
N31120G1X11.844Y-23.541
N31130G1X11.930Y-23.204
N31140G1X11.983Y-22.857
N31150G1X12.000Y-22.525
N31160G1Y-3.475
N31170G1X11.983Y-3.143
N31180G1X11.930Y-2.796
N31190G1X11.844Y-2.459
N31200G1X11.726Y-2.137
N31210G1X11.578Y-1.831
N31220G1X11.403Y-1.542
N31230G1X11.201Y-1.273
N31240G1X10.976Y-1.024
N31250G1X10.727Y-0.799
N31260G1X10.458Y-0.597
N31270G1X10.169Y-0.422
N31280G1X9.863Y-0.274
N31290G1X9.541Y-0.156
N31300G1X9.204Y-0.070
N31310G1X8.857Y-0.017
N31320G1X8.525Y0.000
N31330G00Z6.000
N31340S12000M03
(Profile 7)
()
N31370G00X12.070Y-2.796Z6.000
N31380G1Z-0.500F1200.0
N31390G1X12.017Y-3.143F3600.0
N31400G1X12.000Y-3.475
N31410G1Y-22.525
N31420G1X12.017Y-22.857
N31430G1X12.070Y-23.204
N31440G1X12.156Y-23.541
N31450G1X12.274Y-23.863
N31460G1X12.422Y-24.169
N31470G1X12.597Y-24.458
N31480G1X12.799Y-24.727
N31490G1X13.024Y-24.976
N31500G1X13.273Y-25.201
N31510G1X13.542Y-25.403
N31520G1X13.831Y-25.578
N31530G1X14.137Y-25.726
N31540G1X14.459Y-25.844
N31550G1X14.796Y-25.930
N31560G1X15.143Y-25.983
N31570G1X15.475Y-26.000
N31580G1X32.525
N31590G1X32.857Y-25.983
N31600G1X33.204Y-25.930
N31610G1X33.541Y-25.844
N31620G1X33.863Y-25.726
N31630G1X34.169Y-25.578
N31640G1X34.458Y-25.403
N31650G1X34.727Y-25.201
N31660G1X34.976Y-24.976
N31670G1X35.201Y-24.727
N31680G1X35.403Y-24.458
N31690G1X35.578Y-24.169
N31700G1X35.726Y-23.863
N31710G1X35.844Y-23.541
N31720G1X35.930Y-23.204
N31730G1X35.983Y-22.857
N31740G1X36.000Y-22.525
N31750G1Y-3.475
N31760G1X35.983Y-3.143
N31770G1X35.930Y-2.796
N31780G1X35.844Y-2.459
N31790G1X35.726Y-2.137
N31800G1X35.578Y-1.831
N31810G1X35.403Y-1.542
N31820G1X35.201Y-1.273
N31830G1X34.976Y-1.024
N31840G1X34.727Y-0.799
N31850G1X34.458Y-0.597
N31860G1X34.169Y-0.422
N31870G1X33.863Y-0.274
N31880G1X33.541Y-0.156
N31890G1X33.204Y-0.070
N31900G1X32.857Y-0.017
N31910G1X32.525Y0.000
N31920G1X15.475
N31930G1X15.143Y-0.017
N31940G1X14.796Y-0.070
N31950G1X14.459Y-0.156
N31960G1X14.137Y-0.274
N31970G1X13.831Y-0.422
N31980G1X13.542Y-0.597
N31990G1X13.273Y-0.799
N32000G1X13.024Y-1.024
N32010G1X12.799Y-1.273
N32020G1X12.597Y-1.542
N32030G1X12.422Y-1.831
N32040G1X12.274Y-2.137
N32050G1X12.156Y-2.459
N32060G1X12.070Y-2.796
N32070G1Z-1.000F1200.0
N32080G1X12.017Y-3.143F3600.0
N32090G1X12.000Y-3.475
N32100G1Y-22.525
N32110G1X12.017Y-22.857
N32120G1X12.070Y-23.204
N32130G1X12.156Y-23.541
N32140G1X12.274Y-23.863
N32150G1X12.422Y-24.169
N32160G1X12.597Y-24.458
N32170G1X12.799Y-24.727
N32180G1X13.024Y-24.976
N32190G1X13.273Y-25.201
N32200G1X13.542Y-25.403
N32210G1X13.831Y-25.578
N32220G1X14.137Y-25.726
N32230G1X14.459Y-25.844
N32240G1X14.796Y-25.930
N32250G1X15.143Y-25.983
N32260G1X15.475Y-26.000
N32270G1X32.525
N32280G1X32.857Y-25.983
N32290G1X33.204Y-25.930
N32300G1X33.541Y-25.844
N32310G1X33.863Y-25.726
N32320G1X34.169Y-25.578
N32330G1X34.458Y-25.403
N32340G1X34.727Y-25.201
N32350G1X34.976Y-24.976
N32360G1X35.201Y-24.727
N32370G1X35.403Y-24.458
N32380G1X35.578Y-24.169
N32390G1X35.726Y-23.863
N32400G1X35.844Y-23.541
N32410G1X35.930Y-23.204
N32420G1X35.983Y-22.857
N32430G1X36.000Y-22.525
N32440G1Y-3.475
N32450G1X35.983Y-3.143
N32460G1X35.930Y-2.796
N32470G1X35.844Y-2.459
N32480G1X35.726Y-2.137
N32490G1X35.578Y-1.831
N32500G1X35.403Y-1.542
N32510G1X35.201Y-1.273
N32520G1X34.976Y-1.024
N32530G1X34.727Y-0.799
N32540G1X34.458Y-0.597
N32550G1X34.169Y-0.422
N32560G1X33.863Y-0.274
N32570G1X33.541Y-0.156
N32580G1X33.204Y-0.070
N32590G1X32.857Y-0.017
N32600G1X32.525Y0.000
N32610G1X15.475
N32620G1X15.143Y-0.017
N32630G1X14.796Y-0.070
N32640G1X14.459Y-0.156
N32650G1X14.137Y-0.274
N32660G1X13.831Y-0.422
N32670G1X13.542Y-0.597
N32680G1X13.273Y-0.799
N32690G1X13.024Y-1.024
N32700G1X12.799Y-1.273
N32710G1X12.597Y-1.542
N32720G1X12.422Y-1.831
N32730G1X12.274Y-2.137
N32740G1X12.156Y-2.459
N32750G1X12.070Y-2.796
N32760G1Z-1.500F1200.0
N32770G1X12.017Y-3.143F3600.0
N32780G1X12.000Y-3.475
N32790G1Y-22.525
N32800G1X12.017Y-22.857
N32810G1X12.070Y-23.204
N32820G1X12.156Y-23.541
N32830G1X12.274Y-23.863
N32840G1X12.422Y-24.169
N32850G1X12.597Y-24.458
N32860G1X12.799Y-24.727
N32870G1X13.024Y-24.976
N32880G1X13.273Y-25.201
N32890G1X13.542Y-25.403
N32900G1X13.831Y-25.578
N32910G1X14.137Y-25.726
N32920G1X14.459Y-25.844
N32930G1X14.796Y-25.930
N32940G1X15.143Y-25.983
N32950G1X15.475Y-26.000
N32960G1X32.525
N32970G1X32.857Y-25.983
N32980G1X33.204Y-25.930
N32990G1X33.541Y-25.844
N33000G1X33.863Y-25.726
N33010G1X34.169Y-25.578
N33020G1X34.458Y-25.403
N33030G1X34.727Y-25.201
N33040G1X34.976Y-24.976
N33050G1X35.201Y-24.727
N33060G1X35.403Y-24.458
N33070G1X35.578Y-24.169
N33080G1X35.726Y-23.863
N33090G1X35.844Y-23.541
N33100G1X35.930Y-23.204
N33110G1X35.983Y-22.857
N33120G1X36.000Y-22.525
N33130G1Y-3.475
N33140G1X35.983Y-3.143
N33150G1X35.930Y-2.796
N33160G1X35.844Y-2.459
N33170G1X35.726Y-2.137
N33180G1X35.578Y-1.831
N33190G1X35.403Y-1.542
N33200G1X35.201Y-1.273
N33210G1X34.976Y-1.024
N33220G1X34.727Y-0.799
N33230G1X34.458Y-0.597
N33240G1X34.169Y-0.422
N33250G1X33.863Y-0.274
N33260G1X33.541Y-0.156
N33270G1X33.204Y-0.070
N33280G1X32.857Y-0.017
N33290G1X32.525Y0.000
N33300G1X15.475
N33310G1X15.143Y-0.017
N33320G1X14.796Y-0.070
N33330G1X14.459Y-0.156
N33340G1X14.137Y-0.274
N33350G1X13.831Y-0.422
N33360G1X13.542Y-0.597
N33370G1X13.273Y-0.799
N33380G1X13.024Y-1.024
N33390G1X12.799Y-1.273
N33400G1X12.597Y-1.542
N33410G1X12.422Y-1.831
N33420G1X12.274Y-2.137
N33430G1X12.156Y-2.459
N33440G1X12.070Y-2.796
N33450G1Z-2.000F1200.0
N33460G1X12.017Y-3.143F3600.0
N33470G1X12.000Y-3.475
N33480G1Y-22.525
N33490G1X12.017Y-22.857
N33500G1X12.070Y-23.204
N33510G1X12.156Y-23.541
N33520G1X12.274Y-23.863
N33530G1X12.422Y-24.169
N33540G1X12.597Y-24.458
N33550G1X12.799Y-24.727
N33560G1X13.024Y-24.976
N33570G1X13.273Y-25.201
N33580G1X13.542Y-25.403
N33590G1X13.831Y-25.578
N33600G1X14.137Y-25.726
N33610G1X14.459Y-25.844
N33620G1X14.796Y-25.930
N33630G1X15.143Y-25.983
N33640G1X15.475Y-26.000
N33650G1X32.525
N33660G1X32.857Y-25.983
N33670G1X33.204Y-25.930
N33680G1X33.541Y-25.844
N33690G1X33.863Y-25.726
N33700G1X34.169Y-25.578
N33710G1X34.458Y-25.403
N33720G1X34.727Y-25.201
N33730G1X34.976Y-24.976
N33740G1X35.201Y-24.727
N33750G1X35.403Y-24.458
N33760G1X35.578Y-24.169
N33770G1X35.726Y-23.863
N33780G1X35.844Y-23.541
N33790G1X35.930Y-23.204
N33800G1X35.983Y-22.857
N33810G1X36.000Y-22.525
N33820G1Y-3.475
N33830G1X35.983Y-3.143
N33840G1X35.930Y-2.796
N33850G1X35.844Y-2.459
N33860G1X35.726Y-2.137
N33870G1X35.578Y-1.831
N33880G1X35.403Y-1.542
N33890G1X35.201Y-1.273
N33900G1X34.976Y-1.024
N33910G1X34.727Y-0.799
N33920G1X34.458Y-0.597
N33930G1X34.169Y-0.422
N33940G1X33.863Y-0.274
N33950G1X33.541Y-0.156
N33960G1X33.204Y-0.070
N33970G1X32.857Y-0.017
N33980G1X32.525Y0.000
N33990G1X15.475
N34000G1X15.143Y-0.017
N34010G1X14.796Y-0.070
N34020G1X14.459Y-0.156
N34030G1X14.137Y-0.274
N34040G1X13.831Y-0.422
N34050G1X13.542Y-0.597
N34060G1X13.273Y-0.799
N34070G1X13.024Y-1.024
N34080G1X12.799Y-1.273
N34090G1X12.597Y-1.542
N34100G1X12.422Y-1.831
N34110G1X12.274Y-2.137
N34120G1X12.156Y-2.459
N34130G1X12.070Y-2.796
N34140G00Z6.000
N34150G00Z20.000
N34160G00X0.000Y0.000
N34170M09
N34180M30
%
