( ENCODERS_PANEL_ENGRAVE )
( File created: Friday December 13 2019 - 05:59 PM)
( USBCNC Postprocessor )
( Material Size)
( X= 250.000, Y= 250.000, Z= 2.000)
()
(Toolpaths used in this file:)
(Quick Engrave 1)
(Tools used in this file: )
(1 = Engraving Tool)
N100G00G21G17G90G40G49
N110G80
N120 (Engraving Tool)
N130G00G43Z20.000H1
N140S12000M03
N150(Toolpath:- Quick Engrave 1)
N160()
N170G94
N180X0.000Y0.000F1200.0
N190G00X-0.891Y3.538Z6.000
N200G1Z-0.500F480.0
N210G1X-0.648F1200.0
N220G1X-0.630Y3.549
N230G1X-0.588Y3.613
N240G1X-0.586Y3.618
N250G1X-0.953
N260G1X-0.974Y3.698
N270G1X-0.564
N280G1X-0.563Y3.703
N290G1Y3.778
N300G1X-0.976
N310G1Y3.858
N320G1X-0.563
N330G1Y3.938
N340G1X-0.976
N350G1Y4.018
N360G1X-0.563
N370G1Y4.098
N380G1X-0.976
N390G1Y4.178
N400G1X-0.563
N410G1Y4.258
N420G1X-0.976
N430G1Y4.338
N440G1X-0.563
N450G1Y4.418
N460G1X-0.976
N470G1Y4.498
N480G1X-0.563
N490G1Y4.578
N500G1X-0.976
N510G1Y4.658
N520G1X-0.563
N530G1Y4.738
N540G1X-0.976
N550G1Y4.818
N560G1X-0.563
N570G1Y4.898
N580G1X-0.976
N590G1Y4.978
N600G1X-0.563
N610G1Y5.058
N620G1X-0.976
N630G1Y5.138
N640G1X-0.563
N650G1Y5.218
N660G1X-0.976
N670G1Y5.298
N680G1X-0.563
N690G1Y5.378
N700G1X-0.976
N710G1Y5.458
N720G1X-0.563
N730G1Y5.538
N740G1X-0.976
N750G1Y5.618
N760G1X-0.109
N770G1X-0.159Y5.698
N780G1X-0.976
N790G1Y5.778
N800G1X-0.209
N810G1X-0.259Y5.858
N820G1X-0.976
N830G1Y5.938
N840G1X-0.309
N850G1X-0.358Y6.018
N860G1X-0.976
N870G1Y6.098
N880G1X-0.408
N890G1X-0.458Y6.178
N900G1X-0.976
N910G1Y6.258
N920G1X-0.508
N930G1X-0.558Y6.338
N940G1X-0.963
N950G1X-0.958Y6.360
N960G1X-0.926Y6.417
N970G1X-0.924Y6.418
N980G1X-0.611
N990G1X-0.644Y6.458
N1000G1X-0.697Y6.492
N1010G1X-0.727Y6.498
N1020G1X-0.783
N1030G00Z6.000
N1040G00X0.718Y3.538
N1050G1Z-0.500F480.0
N1060G1X0.967F1200.0
N1070G1X1.010Y3.577
N1080G1X1.031Y3.618
N1090G1X0.653
N1100G1X0.604Y3.698
N1110G1X1.047
N1120G1X1.047Y3.703
N1130G1Y3.778
N1140G1X0.554
N1150G1X0.504Y3.858
N1160G1X1.047
N1170G1Y3.938
N1180G1X0.454
N1190G1X0.404Y4.018
N1200G1X1.047
N1210G1Y4.098
N1220G1X0.354
N1230G1X0.304Y4.178
N1240G1X1.047
N1250G1Y4.258
N1260G1X0.254
N1270G1X0.204Y4.338
N1280G1X1.047
N1290G1Y4.418
N1300G1X0.155
N1310G1X0.105Y4.498
N1320G1X0.588
N1330G1X0.538Y4.578
N1340G1X0.055
N1350G1X0.005Y4.658
N1360G1X0.488
N1370G1X0.439Y4.738
N1380G1X-0.045
N1390G1X-0.095Y4.818
N1400G1X0.389
N1410G1X0.339Y4.898
N1420G1X-0.145
N1430G1X-0.195Y4.978
N1440G1X0.289
N1450G1X0.239Y5.058
N1460G1X-0.245
N1470G1X-0.294Y5.138
N1480G1X0.190
N1490G1X0.140Y5.218
N1500G1X-0.344
N1510G1X-0.394Y5.298
N1520G1X0.090
N1530G1X0.040Y5.378
N1540G1X-0.444
N1550G1X-0.494Y5.458
N1560G1X-0.010
N1570G1X-0.059Y5.538
N1580G1X-0.544
N1590G00Z6.000
N1600G00X0.634Y4.498
N1610G1Z-0.500F480.0
N1620G1X1.047F1200.0
N1630G1Y4.578
N1640G1X0.634
N1650G1Y4.658
N1660G1X1.047
N1670G1Y4.738
N1680G1X0.634
N1690G1Y4.818
N1700G1X1.047
N1710G1Y4.898
N1720G1X0.634
N1730G1Y4.978
N1740G1X1.047
N1750G1Y5.058
N1760G1X0.634
N1770G1Y5.138
N1780G1X1.047
N1790G1Y5.218
N1800G1X0.634
N1810G1Y5.298
N1820G1X1.047
N1830G1Y5.378
N1840G1X0.634
N1850G1Y5.458
N1860G1X1.047
N1870G1Y5.538
N1880G1X0.634
N1890G1Y5.618
N1900G1X1.047
N1910G1Y5.698
N1920G1X0.634
N1930G1Y5.778
N1940G1X1.047
N1950G1Y5.858
N1960G1X0.634
N1970G1Y5.938
N1980G1X1.047
N1990G1Y6.018
N2000G1X0.634
N2010G1Y6.098
N2020G1X1.047
N2030G1Y6.178
N2040G1X0.634
N2050G1Y6.258
N2060G1X1.047
N2070G1Y6.290
N2080G1X1.038Y6.338
N2090G1X0.647
N2100G1X0.658Y6.382
N2110G1X0.682Y6.418
N2120G1X1.006
N2130G00Z6.000
N2140G00X-0.976Y3.703
N2150G1Z-0.500F480.0
N2160G1X-0.951Y3.613F1200.0
N2170G1X-0.909Y3.549
N2180G1X-0.848Y3.511
N2190G1X-0.770Y3.498
N2200G1X-0.691Y3.511
N2210G1X-0.630Y3.549
N2220G1X-0.588Y3.613
N2230G1X-0.563Y3.703
N2240G1Y5.568
N2250G1X0.668Y3.595
N2260G1X0.713Y3.541
N2270G1X0.767Y3.509
N2280G1X0.829Y3.497
N2290G1X0.899Y3.508
N2300G1X0.964Y3.535
N2310G1X1.010Y3.577
N2320G1X1.038Y3.633
N2330G1X1.047Y3.703
N2340G1Y6.290
N2350G1X1.029Y6.380
N2360G1X0.990Y6.445
N2370G1X0.929Y6.484
N2380G1X0.847Y6.498
N2390G1X0.765Y6.485
N2400G1X0.702Y6.447
N2410G1X0.658Y6.382
N2420G1X0.634Y6.290
N2430G1Y4.424
N2440G1X-0.596Y6.400
N2450G1X-0.644Y6.458
N2460G1X-0.697Y6.492
N2470G1X-0.755Y6.503
N2480G1X-0.820Y6.491
N2490G1X-0.880Y6.460
N2500G1X-0.926Y6.417
N2510G1X-0.958Y6.360
N2520G1X-0.976Y6.290
N2530G1Y3.703
N2540G00Z6.000
N2550G00X-1.535Y3.515
N2560G1Z-0.500F480.0
N2570G1X-3.061F1200.0
N2580G1X-3.089Y3.523
N2590G1X-3.151Y3.565
N2600G1X-3.172Y3.595
N2610G1X-1.416
N2620G1X-1.396Y3.627
N2630G1X-1.388Y3.675
N2640G1X-3.206
N2650G1X-3.216Y3.709
N2660G1Y3.755
N2670G1X-1.391
N2680G1X-1.396Y3.785
N2690G1X-1.428Y3.835
N2700G1X-3.216
N2710G1Y3.915
N2720G1X-2.804
N2730G1Y3.995
N2740G1X-3.216
N2750G1Y4.075
N2760G1X-2.804
N2770G1Y4.155
N2780G1X-3.216
N2790G1Y4.235
N2800G1X-2.804
N2810G1Y4.315
N2820G1X-3.216
N2830G1Y4.395
N2840G1X-2.804
N2850G1Y4.475
N2860G1X-3.216
N2870G1Y4.555
N2880G1X-2.804
N2890G1Y4.635
N2900G1X-3.216
N2910G1Y4.715
N2920G1X-2.804
N2930G1Y4.795
N2940G1X-3.216
N2950G1Y4.875
N2960G1X-1.877
N2970G1X-1.788Y4.899
N2980G1X-1.723Y4.942
N2990G1X-1.714Y4.955
N3000G1X-3.216
N3010G1Y5.035
N3020G1X-1.679
N3030G1X-1.671Y5.082
N3040G1X-1.676Y5.115
N3050G1X-3.216
N3060G1Y5.195
N3070G1X-1.704
N3080G1X-1.722Y5.224
N3090G1X-1.787Y5.267
N3100G1X-1.820Y5.275
N3110G1X-3.216
N3120G1Y5.355
N3130G1X-2.804
N3140G1Y5.435
N3150G1X-3.216
N3160G1Y5.515
N3170G1X-2.804
N3180G1Y5.595
N3190G1X-3.216
N3200G1Y5.675
N3210G1X-2.804
N3220G1Y5.755
N3230G1X-3.216
N3240G1Y5.835
N3250G1X-2.804
N3260G1Y5.915
N3270G1X-3.216
N3280G1Y5.995
N3290G1X-2.804
N3300G1Y6.075
N3310G1X-3.216
N3320G1Y6.155
N3330G1X-1.432
N3340G1X-1.397Y6.212
N3350G1X-1.393Y6.235
N3360G1X-3.216
N3370G1Y6.296
N3380G1X-3.210Y6.315
N3390G1X-1.387
N3400G1X-1.396Y6.379
N3410G1X-1.406Y6.395
N3420G1X-3.183
N3430G1X-3.150Y6.444
N3440G1X-3.101Y6.475
N3450G1X-1.488
N3460G00Z6.000
N3470G00X-1.396Y6.379
N3480G1Z-0.500F480.0
N3490G1X-1.435Y6.442F1200.0
N3500G1X-1.499Y6.482
N3510G1X-1.589Y6.501
N3520G1X-3.008
N3530G1X-3.088Y6.484
N3540G1X-3.150Y6.444
N3550G1X-3.192Y6.381
N3560G1X-3.216Y6.296
N3570G1Y3.709
N3580G1X-3.193Y3.627
N3590G1X-3.151Y3.565
N3600G1X-3.089Y3.523
N3610G1X-3.008Y3.501
N3620G1X-1.589
N3630G1X-1.499Y3.525
N3640G1X-1.435Y3.567
N3650G1X-1.396Y3.627
N3660G1X-1.383Y3.706
N3670G1X-1.396Y3.785
N3680G1X-1.435Y3.846
N3690G1X-1.499Y3.888
N3700G1X-1.589Y3.913
N3710G1X-2.804
N3720G1Y4.875
N3730G1X-1.878
N3740G1X-1.788Y4.899
N3750G1X-1.723Y4.942
N3760G1X-1.684Y5.003
N3770G1X-1.671Y5.082
N3780G1X-1.683Y5.162
N3790G1X-1.722Y5.224
N3800G1X-1.787Y5.267
N3810G1X-1.878Y5.291
N3820G1X-2.804
N3830G1Y6.092
N3840G1X-1.589
N3850G1X-1.500Y6.110
N3860G1X-1.435Y6.150
N3870G1X-1.397Y6.212
N3880G1X-1.384Y6.295
N3890G1X-1.396Y6.379
N3900G00Z6.000
N3910G00X3.140Y3.540
N3920G1Z-0.500F480.0
N3930G1X1.563F1200.0
N3940G1X1.529Y3.563
N3950G1X1.490Y3.620
N3960G1X3.201
N3970G1X3.215Y3.700
N3980G1X1.470
N3990G1X1.468Y3.710
N4000G1X1.479Y3.780
N4010G1X3.207
N4020G1X3.205Y3.792
N4030G1X3.169Y3.857
N4040G1X3.166Y3.860
N4050G1X1.493
N4060G1X1.502Y3.907
N4070G1X1.510Y3.940
N4080G1X1.939
N4090G1X1.951Y3.977
N4100G1X1.966Y4.020
N4110G1X1.531
N4120G1X1.548Y4.084
N4130G1X1.554Y4.100
N4140G1X1.999
N4150G1X2.034Y4.180
N4160G1X1.583
N4170G1X1.612Y4.257
N4180G1X1.613Y4.260
N4190G1X2.079
N4200G1X2.121Y4.330
N4210G1X2.128Y4.340
N4220G1X1.652
N4230G1X1.690Y4.420
N4240G1X2.189
N4250G1X2.251Y4.500
N4260G1X1.738
N4270G1X1.786Y4.580
N4280G1X2.313
N4290G1X2.319Y4.588
N4300G1X2.394Y4.660
N4310G1X1.844
N4320G1X1.903Y4.740
N4330G1X2.495
N4340G1X2.528Y4.764
N4350G1X2.604Y4.820
N4360G1X1.974
N4370G1X2.031Y4.884
N4380G1X2.048Y4.900
N4390G1X2.713
N4400G1X2.750Y4.926
N4410G1X2.808Y4.980
N4420G1X2.135
N4430G1X2.167Y5.009
N4440G1X2.234Y5.060
N4450G1X2.892
N4460G1X2.969Y5.140
N4470G1X2.340
N4480G1X2.443Y5.220
N4490G1X3.033
N4500G1X3.092Y5.300
N4510G1X2.539
N4520G1X2.619Y5.380
N4530G1X3.135
N4540G1X3.168Y5.460
N4550G1X2.698
N4560G1X2.744Y5.522
N4570G1X2.752Y5.540
N4580G1X3.192
N4590G1X3.202Y5.620
N4600G1X2.783
N4610G1X2.795Y5.675
N4620G1X2.795Y5.700
N4630G1X3.212
N4640G1X3.203Y5.780
N4650G1X2.792
N4660G1X2.779Y5.840
N4670G1X2.770Y5.860
N4680G1X3.195
N4690G1X3.191Y5.896
N4700G1X3.176Y5.940
N4710G1X2.723
N4720G1X2.694Y5.975
N4730G1X2.638Y6.020
N4740G1X3.148
N4750G1X3.125Y6.088
N4760G1X3.117Y6.100
N4770G1X1.741
N4780G1X1.777Y6.167
N4790G1X1.789Y6.180
N4800G1X3.064
N4810G1X3.020Y6.245
N4820G1X3.003Y6.260
N4830G1X1.859
N4840G1X1.887Y6.291
N4850G1X1.954Y6.340
N4860G1X2.908
N4870G1X2.874Y6.368
N4880G1X2.767Y6.420
N4890G1X2.085
N4900G1X2.187Y6.466
N4910G1X2.345Y6.500
N4920G1X2.410
N4930G00Z6.000
N4940G00X1.865Y5.460
N4950G1Z-0.500F480.0
N4960G1X1.809F1200.0
N4970G1X1.737Y5.485
N4980G1X1.679Y5.540
N4990G1X2.013
N5000G1X2.020Y5.548
N5010G1X2.049Y5.613
N5020G1X2.049Y5.620
N5030G1X1.646
N5040G1X1.642Y5.631
N5050G1X1.642Y5.700
N5060G1X2.051
N5070G1X2.057Y5.780
N5080G1X1.644
N5090G1X1.650Y5.851
N5100G1X1.652Y5.860
N5110G1X2.080
N5120G1X2.093Y5.895
N5130G1X2.128Y5.940
N5140G1X1.675
N5150G1X1.698Y6.020
N5160G1X2.217
N5170G00Z6.000
N5180G00X1.529Y3.563
N5190G1Z-0.500F480.0
N5200G1X1.596Y3.517F1200.0
N5210G1X1.676Y3.502
N5220G1X3.012
N5230G1X3.099Y3.515
N5240G1X3.162Y3.553
N5250G1X3.201Y3.615
N5260G1X3.216Y3.703
N5270G1X3.205Y3.792
N5280G1X3.169Y3.857
N5290G1X3.107Y3.899
N5300G1X3.019Y3.917
N5310G1X1.932
N5320G1X1.951Y3.977
N5330G1X1.973Y4.042
N5340G1X2.037Y4.188
N5350G1X2.121Y4.330
N5360G1X2.319Y4.588
N5370G1X2.417Y4.682
N5380G1X2.528Y4.764
N5390G1X2.750Y4.926
N5400G1X2.876Y5.043
N5410G1X2.994Y5.167
N5420G1X3.114Y5.329
N5430G1X3.187Y5.505
N5440G1X3.212Y5.694
N5450G1X3.191Y5.896
N5460G1X3.125Y6.088
N5470G1X3.020Y6.245
N5480G1X2.874Y6.368
N5490G1X2.688Y6.457
N5500G1X2.517Y6.498
N5510G1X2.350Y6.501
N5520G1X2.187Y6.466
N5530G1X2.028Y6.394
N5540G1X1.887Y6.291
N5550G1X1.777Y6.167
N5560G1X1.698Y6.020
N5570G1X1.650Y5.851
N5580G1X1.641Y5.739
N5590G1X1.642Y5.631
N5600G1X1.672Y5.546
N5610G1X1.737Y5.485
N5620G1X1.823Y5.455
N5630G1X1.916Y5.465
N5640G1X1.974Y5.496
N5650G1X2.020Y5.548
N5660G1X2.049Y5.613
N5670G1X2.052Y5.679
N5680G1X2.052Y5.689
N5690G1X2.051Y5.698
N5700G1X2.059Y5.804
N5710G1X2.093Y5.895
N5720G1X2.153Y5.972
N5730G1X2.238Y6.035
N5740G1X2.336Y6.077
N5750G1X2.433Y6.090
N5760G1X2.530Y6.074
N5770G1X2.625Y6.029
N5780G1X2.694Y5.975
N5790G1X2.745Y5.912
N5800G1X2.779Y5.840
N5810G1X2.796Y5.758
N5820G1X2.795Y5.675
N5830G1X2.778Y5.596
N5840G1X2.744Y5.522
N5850G1X2.693Y5.452
N5860G1X2.512Y5.273
N5870G1X2.315Y5.120
N5880G1X2.167Y5.009
N5890G1X2.031Y4.884
N5900G1X1.906Y4.744
N5910G1X1.792Y4.589
N5920G1X1.693Y4.425
N5930G1X1.612Y4.257
N5940G1X1.548Y4.084
N5950G1X1.502Y3.907
N5960G1X1.483Y3.804
N5970G1X1.468Y3.710
N5980G1X1.483Y3.630
N5990G1X1.529Y3.563
N6000G00Z6.000
N6010G00X7.683Y12.317
N6020G1Z-0.500F480.0
N6030G1X7.617F1200.0
N6040G1X7.577Y12.397
N6050G1X7.723
N6060G1X7.763Y12.477
N6070G1X7.537
N6080G1X7.497Y12.557
N6090G1X7.803
N6100G1X7.843Y12.637
N6110G1X7.457
N6120G1X7.417Y12.717
N6130G1X7.883
N6140G1X7.923Y12.797
N6150G1X7.377
N6160G1X7.337Y12.877
N6170G1X7.963
N6180G1X8.003Y12.957
N6190G1X7.297
N6200G1X7.257Y13.037
N6210G1X8.043
N6220G1X8.083Y13.117
N6230G1X7.217
N6240G1X7.177Y13.197
N6250G1X8.123
N6260G1X8.163Y13.277
N6270G1X7.137
N6280G1X7.097Y13.357
N6290G1X8.203
N6300G1X8.243Y13.437
N6310G1X7.057
N6320G1X7.017Y13.517
N6330G1X8.283
N6340G1X8.323Y13.597
N6350G1X6.977
N6360G1X6.937Y13.677
N6370G1X8.363
N6380G1X8.403Y13.757
N6390G1X6.897
N6400G1X6.857Y13.837
N6410G1X8.443
N6420G1X8.483Y13.917
N6430G1X6.817
N6440G1X6.777Y13.997
N6450G1X8.523
N6460G1X8.563Y14.077
N6470G1X6.737
N6480G1X6.697Y14.157
N6490G1X8.603
N6500G1X8.643Y14.237
N6510G1X6.657
N6520G1X6.650Y14.250
N6530G1X7.396Y14.251
N6540G1X7.382Y14.317
N6550G1X7.888
N6560G1X7.872Y14.397
N6570G1X7.365
N6580G1X7.349Y14.477
N6590G1X7.856
N6600G1X7.841Y14.557
N6610G1X7.332
N6620G1X7.315Y14.637
N6630G1X7.825
N6640G1X7.809Y14.717
N6650G1X7.298
N6660G1X7.281Y14.797
N6670G1X7.793
N6680G1X7.777Y14.877
N6690G1X7.262
N6700G1X7.238Y14.957
N6710G1X7.756
N6720G1X7.733Y15.037
N6730G1X7.214
N6740G1X7.191Y15.117
N6750G1X7.710
N6760G1X7.687Y15.197
N6770G1X7.167
N6780G1X7.143Y15.277
N6790G1X7.664
N6800G1X7.641Y15.357
N6810G1X7.120
N6820G1X7.100Y15.424
N6830G1X7.095Y15.437
N6840G1X7.618
N6850G1X7.595Y15.517
N6860G1X7.064
N6870G1X7.033Y15.597
N6880G1X7.565
N6890G1X7.535Y15.677
N6900G1X7.002
N6910G1X6.971Y15.757
N6920G1X7.505
N6930G1X7.475Y15.837
N6940G1X6.940
N6950G1X6.909Y15.917
N6960G1X7.444
N6970G1X7.414Y15.997
N6980G1X6.877
N6990G1X6.838Y16.077
N7000G1X7.384
N7010G1X7.364Y16.130
N7020G1X7.351Y16.157
N7030G1X6.799
N7040G1X6.761Y16.237
N7050G1X7.313
N7060G1X7.275Y16.317
N7070G1X6.722
N7080G1X6.684Y16.397
N7090G1X7.237
N7100G1X7.200Y16.477
N7110G1X6.645
N7120G1X6.627Y16.516
N7130G1X6.603Y16.557
N7140G1X7.162
N7150G1X7.124Y16.637
N7160G1X6.556
N7170G1X6.509Y16.717
N7180G1X7.085
N7190G1X7.039Y16.797
N7200G1X6.463
N7210G1X6.416Y16.877
N7220G1X6.993
N7230G1X6.947Y16.957
N7240G1X6.369
N7250G1X6.329Y17.026
N7260G1X6.321Y17.037
N7270G1X6.901
N7280G1X6.855Y17.117
N7290G1X6.266
N7300G1X6.210Y17.197
N7310G1X6.809
N7320G1X6.770Y17.264
N7330G1X6.761Y17.277
N7340G1X6.155
N7350G1X6.099Y17.357
N7360G1X6.706
N7370G1X6.651Y17.437
N7380G1X6.044
N7390G1X5.994Y17.509
N7400G1X5.988Y17.517
N7410G1X6.596
N7420G1X6.541Y17.597
N7430G1X5.922
N7440G1X5.857Y17.677
N7450G1X6.486
N7460G1X6.431Y17.757
N7470G1X5.792
N7480G1X5.726Y17.837
N7490G1X6.370
N7500G1X6.305Y17.917
N7510G1X5.661
N7520G1X5.622Y17.964
N7530G1X5.591Y17.997
N7540G1X6.240
N7550G1X6.175Y18.077
N7560G1X5.515
N7570G1X5.438Y18.157
N7580G1X6.110
N7590G1X6.045Y18.237
N7600G1X5.362
N7610G1X5.285Y18.317
N7620G1X5.975
N7630G1X5.899Y18.397
N7640G1X5.208
N7650G1X5.118Y18.477
N7660G1X5.823
N7670G1X5.747Y18.557
N7680G1X5.029
N7690G1X4.940Y18.637
N7700G1X5.671
N7710G1X5.594Y18.717
N7720G1X4.850
N7730G1X4.780Y18.780
N7740G1X4.758Y18.797
N7750G1X5.509
N7760G1X5.420Y18.877
N7770G1X4.653
N7780G1X4.549Y18.957
N7790G1X5.331
N7800G1X5.242Y19.037
N7810G1X4.444
N7820G1X4.339Y19.117
N7830G1X5.152
N7840G1X5.098Y19.165
N7850G1X5.057Y19.197
N7860G1X4.220
N7870G1X4.097Y19.277
N7880G1X4.952
N7890G1X4.847Y19.357
N7900G1X3.973
N7910G1X3.849Y19.437
N7920G1X4.742
N7930G1X4.638Y19.517
N7940G1X3.707
N7950G1X3.559Y19.597
N7960G1X4.522
N7970G1X4.398Y19.677
N7980G1X3.411
N7990G1X3.298Y19.738
N8000G1X3.256Y19.757
N8010G1X4.274
N8020G1X4.149Y19.837
N8030G1X3.075
N8040G1X2.894Y19.917
N8050G1X4.019
N8060G1X3.870Y19.997
N8070G1X2.702
N8080G1X2.472Y20.077
N8090G1X3.721
N8100G1X3.572Y20.157
N8110G1X2.243
N8120G1X2.188Y20.176
N8130G1X1.955Y20.237
N8140G1X3.406
N8150G1X3.223Y20.317
N8160G1X1.648
N8170G1X1.603Y20.328
N8180G1X1.213Y20.397
N8190G1X3.040
N8200G1X2.903Y20.457
N8210G1X2.845Y20.477
N8220G1X1.000
N8230G1X1.000Y20.557
N8240G1X2.611
N8250G1X2.378Y20.637
N8260G1X1.000
N8270G1X1.000Y20.717
N8280G1X2.094
N8290G1X1.778Y20.797
N8300G1X1.000
N8310G1X1.000Y20.877
N8320G1X1.363
N8330G00Z6.000
N8340G00X7.396Y14.251
N8350G1Z-0.500F480.0
N8360G1X6.650Y14.250F1200.0
N8370G1X7.650Y12.250
N8380G1X8.650Y14.250
N8390G1X7.902Y14.251
N8400G1X7.773Y14.898
N8410G1X7.593Y15.525
N8420G1X7.364Y16.130
N8430G1X7.089Y16.710
N8440G1X6.770Y17.264
N8450G1X6.409Y17.788
N8460G1X6.008Y18.282
N8470G1X5.571Y18.741
N8480G1X5.098Y19.165
N8490G1X4.592Y19.551
N8500G1X4.057Y19.896
N8510G1X3.492Y20.199
N8520G1X2.903Y20.457
N8530G1X2.289Y20.667
N8540G1X1.654Y20.828
N8550G1X1.000Y20.937
N8560G1X1.000Y20.434
N8570G1X1.603Y20.328
N8580G1X2.188Y20.176
N8590G1X2.754Y19.978
N8600G1X3.298Y19.738
N8610G1X3.818Y19.457
N8620G1X4.313Y19.137
N8630G1X4.780Y18.780
N8640G1X5.217Y18.388
N8650G1X5.622Y17.964
N8660G1X5.994Y17.509
N8670G1X6.329Y17.026
N8680G1X6.627Y16.516
N8690G1X6.884Y15.981
N8700G1X7.100Y15.424
N8710G1X7.271Y14.846
N8720G1X7.396Y14.251
N8730G00Z6.000
N8740G00X16.383Y12.316
N8750G1Z-0.500F480.0
N8760G1X16.317F1200.0
N8770G1X16.277Y12.396
N8780G1X16.423
N8790G1X16.463Y12.476
N8800G1X16.237
N8810G1X16.197Y12.556
N8820G1X16.503
N8830G1X16.543Y12.636
N8840G1X16.157
N8850G1X16.117Y12.716
N8860G1X16.583
N8870G1X16.623Y12.796
N8880G1X16.077
N8890G1X16.037Y12.876
N8900G1X16.663
N8910G1X16.703Y12.956
N8920G1X15.997
N8930G1X15.957Y13.036
N8940G1X16.743
N8950G1X16.783Y13.116
N8960G1X15.917
N8970G1X15.877Y13.196
N8980G1X16.823
N8990G1X16.863Y13.276
N9000G1X15.837
N9010G1X15.797Y13.356
N9020G1X16.903
N9030G1X16.943Y13.436
N9040G1X15.757
N9050G1X15.717Y13.516
N9060G1X16.983
N9070G1X17.023Y13.596
N9080G1X15.677
N9090G1X15.637Y13.676
N9100G1X17.063
N9110G1X17.103Y13.756
N9120G1X15.597
N9130G1X15.557Y13.836
N9140G1X17.143
N9150G1X17.183Y13.916
N9160G1X15.517
N9170G1X15.477Y13.996
N9180G1X17.223
N9190G1X17.263Y14.076
N9200G1X15.437
N9210G1X15.397Y14.156
N9220G1X17.303
N9230G1X17.343Y14.236
N9240G1X15.357
N9250G1X15.350Y14.250
N9260G1X16.098Y14.251
N9270G1X16.111Y14.316
N9280G1X16.618
N9290G1X16.635Y14.396
N9300G1X16.127
N9310G1X16.143Y14.476
N9320G1X16.651
N9330G1X16.668Y14.556
N9340G1X16.159
N9350G1X16.175Y14.636
N9360G1X16.685
N9370G1X16.702Y14.716
N9380G1X16.191
N9390G1X16.207Y14.796
N9400G1X16.719
N9410G1X16.729Y14.846
N9420G1X16.738Y14.876
N9430G1X16.223
N9440G1X16.227Y14.898
N9450G1X16.244Y14.956
N9460G1X16.762
N9470G1X16.786Y15.036
N9480G1X16.267
N9490G1X16.290Y15.116
N9500G1X16.809
N9510G1X16.833Y15.196
N9520G1X16.313
N9530G1X16.336Y15.276
N9540G1X16.857
N9550G1X16.880Y15.356
N9560G1X16.359
N9570G1X16.382Y15.436
N9580G1X16.905
N9590G1X16.936Y15.516
N9600G1X16.405
N9610G1X16.407Y15.525
N9620G1X16.434Y15.596
N9630G1X16.967
N9640G1X16.998Y15.676
N9650G1X16.465
N9660G1X16.495Y15.756
N9670G1X17.029
N9680G1X17.060Y15.836
N9690G1X16.525
N9700G1X16.555Y15.916
N9710G1X17.091
N9720G1X17.116Y15.981
N9730G1X17.123Y15.996
N9740G1X16.586
N9750G1X16.616Y16.076
N9760G1X17.162
N9770G1X17.201Y16.156
N9780G1X16.649
N9790G1X16.687Y16.236
N9800G1X17.239
N9810G1X17.278Y16.316
N9820G1X16.725
N9830G1X16.762Y16.396
N9840G1X17.316
N9850G1X17.355Y16.476
N9860G1X16.800
N9870G1X16.838Y16.556
N9880G1X17.397
N9890G1X17.444Y16.636
N9900G1X16.876
N9910G1X16.911Y16.710
N9920G1X16.915Y16.716
N9930G1X17.491
N9940G1X17.537Y16.796
N9950G1X16.961
N9960G1X17.007Y16.876
N9970G1X17.584
N9980G1X17.631Y16.956
N9990G1X17.053
N10000G1X17.099Y17.036
N10010G1X17.679
N10020G1X17.734Y17.116
N10030G1X17.145
N10040G1X17.191Y17.196
N10050G1X17.790
N10060G1X17.845Y17.276
N10070G1X17.239
N10080G1X17.294Y17.356
N10090G1X17.901
N10100G1X17.956Y17.436
N10110G1X17.349
N10120G1X17.404Y17.516
N10130G1X18.012
N10140G1X18.078Y17.596
N10150G1X17.459
N10160G1X17.514Y17.676
N10170G1X18.143
N10180G1X18.208Y17.756
N10190G1X17.569
N10200G1X17.591Y17.788
N10210G1X17.630Y17.836
N10220G1X18.274
N10230G1X18.339Y17.916
N10240G1X17.695
N10250G1X17.760Y17.996
N10260G1X18.409
N10270G1X18.485Y18.076
N10280G1X17.825
N10290G1X17.890Y18.156
N10300G1X18.562
N10310G1X18.638Y18.236
N10320G1X17.955
N10330G1X17.992Y18.282
N10340G1X18.025Y18.316
N10350G1X18.715
N10360G1X18.783Y18.388
N10370G1X18.792Y18.396
N10380G1X18.101
N10390G1X18.177Y18.476
N10400G1X18.882
N10410G1X18.971Y18.556
N10420G1X18.253
N10430G1X18.330Y18.636
N10440G1X19.060
N10450G1X19.150Y18.716
N10460G1X18.406
N10470G1X18.429Y18.741
N10480G1X18.491Y18.796
N10490G1X19.242
N10500G1X19.347Y18.876
N10510G1X18.580
N10520G1X18.669Y18.956
N10530G1X19.451
N10540G1X19.556Y19.036
N10550G1X18.759
N10560G1X18.848Y19.116
N10570G1X19.661
N10580G1X19.687Y19.137
N10590G1X19.780Y19.196
N10600G1X18.943
N10610G1X19.048Y19.276
N10620G1X19.903
N10630G1X20.027Y19.356
N10640G1X19.153
N10650G1X19.258Y19.436
N10660G1X20.151
N10670G1X20.182Y19.457
N10680G1X20.293Y19.516
N10690G1X19.362
N10700G1X19.408Y19.551
N10710G1X19.478Y19.596
N10720G1X20.441
N10730G1X20.589Y19.676
N10740G1X19.602
N10750G1X19.727Y19.756
N10760G1X20.744
N10770G1X20.925Y19.836
N10780G1X19.851
N10790G1X19.943Y19.896
N10800G1X19.981Y19.916
N10810G1X21.106
N10820G1X21.246Y19.978
N10830G1X21.298Y19.996
N10840G1X20.130
N10850G1X20.280Y20.076
N10860G1X21.528
N10870G1X21.757Y20.156
N10880G1X20.429
N10890G1X20.507Y20.199
N10900G1X20.594Y20.236
N10910G1X22.045
N10920G1X22.352Y20.316
N10930G1X20.777
N10940G1X20.960Y20.396
N10950G1X22.786
N10960G1X23.000Y20.434
N10970G1X23.000Y20.476
N10980G1X21.156
N10990G1X21.389Y20.556
N11000G1X23.000
N11010G1X23.000Y20.636
N11020G1X21.623
N11030G1X21.711Y20.667
N11040G1X21.907Y20.716
N11050G1X23.000
N11060G1X23.000Y20.796
N11070G1X22.223
N11080G1X22.346Y20.828
N11090G1X22.638Y20.876
N11100G1X23.000
N11110G00Z6.000
N11120G00X17.230Y17.264
N11130G1Z-0.500F480.0
N11140G1X16.911Y16.710F1200.0
N11150G1X16.636Y16.130
N11160G1X16.407Y15.525
N11170G1X16.227Y14.898
N11180G1X16.098Y14.251
N11190G1X15.350Y14.250
N11200G1X16.350Y12.250
N11210G1X17.350Y14.250
N11220G1X16.604Y14.251
N11230G1X16.729Y14.846
N11240G1X16.901Y15.424
N11250G1X17.116Y15.981
N11260G1X17.373Y16.516
N11270G1X17.671Y17.026
N11280G1X18.006Y17.509
N11290G1X18.378Y17.964
N11300G1X18.783Y18.388
N11310G1X19.220Y18.780
N11320G1X19.687Y19.137
N11330G1X20.182Y19.457
N11340G1X20.702Y19.738
N11350G1X21.246Y19.978
N11360G1X21.812Y20.176
N11370G1X22.397Y20.328
N11380G1X23.000Y20.434
N11390G1X23.000Y20.937
N11400G1X22.346Y20.828
N11410G1X21.711Y20.667
N11420G1X21.097Y20.456
N11430G1X20.507Y20.199
N11440G1X19.943Y19.896
N11450G1X19.408Y19.551
N11460G1X18.902Y19.165
N11470G1X18.429Y18.741
N11480G1X17.992Y18.282
N11490G1X17.591Y17.788
N11500G1X17.230Y17.264
N11510G00Z6.000
N11520G00X22.341Y3.515
N11530G1Z-0.500F480.0
N11540G1X20.814F1200.0
N11550G1X20.786Y3.523
N11560G1X20.724Y3.565
N11570G1X20.704Y3.595
N11580G1X22.459
N11590G1X22.480Y3.627
N11600G1X22.488Y3.675
N11610G1X20.669
N11620G1X20.660Y3.709
N11630G1Y3.755
N11640G1X22.485
N11650G1X22.480Y3.785
N11660G1X22.448Y3.835
N11670G1X20.660
N11680G1Y3.915
N11690G1X21.072
N11700G1Y3.995
N11710G1X20.660
N11720G1Y4.075
N11730G1X21.072
N11740G1Y4.155
N11750G1X20.660
N11760G1Y4.235
N11770G1X21.072
N11780G1Y4.315
N11790G1X20.660
N11800G1Y4.395
N11810G1X21.072
N11820G1Y4.475
N11830G1X20.660
N11840G1Y4.555
N11850G1X21.072
N11860G1Y4.635
N11870G1X20.660
N11880G1Y4.715
N11890G1X21.072
N11900G1Y4.795
N11910G1X20.660
N11920G1Y4.875
N11930G1X21.998
N11940G1X22.088Y4.899
N11950G1X22.153Y4.942
N11960G1X22.161Y4.955
N11970G1X20.660
N11980G1Y5.035
N11990G1X22.197
N12000G1X22.205Y5.082
N12010G1X22.200Y5.115
N12020G1X20.660
N12030G1Y5.195
N12040G1X22.171
N12050G1X22.153Y5.224
N12060G1X22.088Y5.267
N12070G1X22.056Y5.275
N12080G1X20.660
N12090G1Y5.355
N12100G1X21.072
N12110G1Y5.435
N12120G1X20.660
N12130G1Y5.515
N12140G1X21.072
N12150G1Y5.595
N12160G1X20.660
N12170G1Y5.675
N12180G1X21.072
N12190G1Y5.755
N12200G1X20.660
N12210G1Y5.835
N12220G1X21.072
N12230G1Y5.915
N12240G1X20.660
N12250G1Y5.995
N12260G1X21.072
N12270G1Y6.075
N12280G1X20.660
N12290G1Y6.155
N12300G1X22.444
N12310G1X22.479Y6.212
N12320G1X22.483Y6.235
N12330G1X20.660
N12340G1Y6.296
N12350G1X20.665Y6.315
N12360G1X22.489
N12370G1X22.479Y6.379
N12380G1X22.469Y6.395
N12390G1X20.693
N12400G1X20.726Y6.444
N12410G1X20.774Y6.475
N12420G1X22.387
N12430G00Z6.000
N12440G00X22.479Y6.379
N12450G1Z-0.500F480.0
N12460G1X22.441Y6.442F1200.0
N12470G1X22.376Y6.482
N12480G1X22.286Y6.501
N12490G1X20.868
N12500G1X20.787Y6.484
N12510G1X20.726Y6.444
N12520G1X20.683Y6.381
N12530G1X20.660Y6.296
N12540G1Y3.709
N12550G1X20.682Y3.627
N12560G1X20.724Y3.565
N12570G1X20.786Y3.523
N12580G1X20.868Y3.501
N12590G1X22.286
N12600G1X22.376Y3.525
N12610G1X22.441Y3.567
N12620G1X22.480Y3.627
N12630G1X22.493Y3.706
N12640G1X22.480Y3.785
N12650G1X22.441Y3.846
N12660G1X22.376Y3.888
N12670G1X22.286Y3.913
N12680G1X21.072
N12690G1Y4.875
N12700G1X21.997
N12710G1X22.088Y4.899
N12720G1X22.153Y4.942
N12730G1X22.192Y5.003
N12740G1X22.205Y5.082
N12750G1X22.192Y5.162
N12760G1X22.153Y5.224
N12770G1X22.088Y5.267
N12780G1X21.997Y5.291
N12790G1X21.072
N12800G1Y6.092
N12810G1X22.286
N12820G1X22.376Y6.110
N12830G1X22.440Y6.150
N12840G1X22.479Y6.212
N12850G1X22.492Y6.295
N12860G1X22.479Y6.379
N12870G00Z6.000
N12880G00X22.984Y3.538
N12890G1Z-0.500F480.0
N12900G1X23.227F1200.0
N12910G1X23.245Y3.549
N12920G1X23.288Y3.613
N12930G1X23.289Y3.618
N12940G1X22.923
N12950G1X22.901Y3.698
N12960G1X23.312
N12970G1X23.313Y3.703
N12980G1Y3.778
N12990G1X22.900
N13000G1Y3.858
N13010G1X23.313
N13020G1Y3.938
N13030G1X22.900
N13040G1Y4.018
N13050G1X23.313
N13060G1Y4.098
N13070G1X22.900
N13080G1Y4.178
N13090G1X23.313
N13100G1Y4.258
N13110G1X22.900
N13120G1Y4.338
N13130G1X23.313
N13140G1Y4.418
N13150G1X22.900
N13160G1Y4.498
N13170G1X23.313
N13180G1Y4.578
N13190G1X22.900
N13200G1Y4.658
N13210G1X23.313
N13220G1Y4.738
N13230G1X22.900
N13240G1Y4.818
N13250G1X23.313
N13260G1Y4.898
N13270G1X22.900
N13280G1Y4.978
N13290G1X23.313
N13300G1Y5.058
N13310G1X22.900
N13320G1Y5.138
N13330G1X23.313
N13340G1Y5.218
N13350G1X22.900
N13360G1Y5.298
N13370G1X23.313
N13380G1Y5.378
N13390G1X22.900
N13400G1Y5.458
N13410G1X23.313
N13420G1Y5.538
N13430G1X22.900
N13440G1Y5.618
N13450G1X23.766
N13460G1X23.716Y5.698
N13470G1X22.900
N13480G1Y5.778
N13490G1X23.667
N13500G1X23.617Y5.858
N13510G1X22.900
N13520G1Y5.938
N13530G1X23.567
N13540G1X23.517Y6.018
N13550G1X22.900
N13560G1Y6.098
N13570G1X23.467
N13580G1X23.418Y6.178
N13590G1X22.900
N13600G1Y6.258
N13610G1X23.368
N13620G1X23.318Y6.338
N13630G1X22.912
N13640G1X22.918Y6.360
N13650G1X22.950Y6.417
N13660G1X22.951Y6.418
N13670G1X23.265
N13680G1X23.232Y6.458
N13690G1X23.179Y6.492
N13700G1X23.148Y6.498
N13710G1X23.093
N13720G00Z6.000
N13730G00X24.593Y3.538
N13740G1Z-0.500F480.0
N13750G1X24.842F1200.0
N13760G1X24.886Y3.577
N13770G1X24.906Y3.618
N13780G1X24.529
N13790G1X24.479Y3.698
N13800G1X24.922
N13810G1X24.923Y3.703
N13820G1Y3.778
N13830G1X24.429
N13840G1X24.379Y3.858
N13850G1X24.923
N13860G1Y3.938
N13870G1X24.329
N13880G1X24.280Y4.018
N13890G1X24.923
N13900G1Y4.098
N13910G1X24.230
N13920G1X24.180Y4.178
N13930G1X24.923
N13940G1Y4.258
N13950G1X24.130
N13960G1X24.080Y4.338
N13970G1X24.923
N13980G1Y4.418
N13990G1X24.030
N14000G1X23.980Y4.498
N14010G1X24.464
N14020G1X24.414Y4.578
N14030G1X23.930
N14040G1X23.880Y4.658
N14050G1X24.364
N14060G1X24.314Y4.738
N14070G1X23.831
N14080G1X23.781Y4.818
N14090G1X24.264
N14100G1X24.215Y4.898
N14110G1X23.731
N14120G1X23.681Y4.978
N14130G1X24.165
N14140G1X24.115Y5.058
N14150G1X23.631
N14160G1X23.581Y5.138
N14170G1X24.065
N14180G1X24.015Y5.218
N14190G1X23.531
N14200G1X23.481Y5.298
N14210G1X23.966
N14220G1X23.916Y5.378
N14230G1X23.431
N14240G1X23.382Y5.458
N14250G1X23.866
N14260G1X23.816Y5.538
N14270G1X23.332
N14280G00Z6.000
N14290G00X24.510Y4.498
N14300G1Z-0.500F480.0
N14310G1X24.923F1200.0
N14320G1Y4.578
N14330G1X24.510
N14340G1Y4.658
N14350G1X24.923
N14360G1Y4.738
N14370G1X24.510
N14380G1Y4.818
N14390G1X24.923
N14400G1Y4.898
N14410G1X24.510
N14420G1Y4.978
N14430G1X24.923
N14440G1Y5.058
N14450G1X24.510
N14460G1Y5.138
N14470G1X24.923
N14480G1Y5.218
N14490G1X24.510
N14500G1Y5.298
N14510G1X24.923
N14520G1Y5.378
N14530G1X24.510
N14540G1Y5.458
N14550G1X24.923
N14560G1Y5.538
N14570G1X24.510
N14580G1Y5.618
N14590G1X24.923
N14600G1Y5.698
N14610G1X24.510
N14620G1Y5.778
N14630G1X24.923
N14640G1Y5.858
N14650G1X24.510
N14660G1Y5.938
N14670G1X24.923
N14680G1Y6.018
N14690G1X24.510
N14700G1Y6.098
N14710G1X24.923
N14720G1Y6.178
N14730G1X24.510
N14740G1Y6.258
N14750G1X24.923
N14760G1Y6.290
N14770G1X24.913Y6.338
N14780G1X24.522
N14790G1X24.534Y6.382
N14800G1X24.558Y6.418
N14810G1X24.882
N14820G00Z6.000
N14830G00X22.900Y3.703
N14840G1Z-0.500F480.0
N14850G1X22.924Y3.613F1200.0
N14860G1X22.967Y3.549
N14870G1X23.027Y3.511
N14880G1X23.106Y3.498
N14890G1X23.184Y3.511
N14900G1X23.245Y3.549
N14910G1X23.288Y3.613
N14920G1X23.313Y3.703
N14930G1Y5.568
N14940G1X24.544Y3.595
N14950G1X24.589Y3.541
N14960G1X24.642Y3.509
N14970G1X24.704Y3.497
N14980G1X24.774Y3.508
N14990G1X24.839Y3.535
N15000G1X24.886Y3.577
N15010G1X24.914Y3.633
N15020G1X24.923Y3.703
N15030G1Y6.290
N15040G1X24.905Y6.380
N15050G1X24.866Y6.445
N15060G1X24.805Y6.484
N15070G1X24.723Y6.498
N15080G1X24.640Y6.485
N15090G1X24.577Y6.447
N15100G1X24.534Y6.382
N15110G1X24.510Y6.290
N15120G1Y4.424
N15130G1X23.279Y6.400
N15140G1X23.232Y6.458
N15150G1X23.179Y6.492
N15160G1X23.120Y6.503
N15170G1X23.056Y6.491
N15180G1X22.996Y6.460
N15190G1X22.950Y6.417
N15200G1X22.918Y6.360
N15210G1X22.900Y6.290
N15220G1Y3.703
N15230G00Z6.000
N15240G00X26.027Y3.550
N15250G1Z-0.500F480.0
N15260G1X26.646F1200.0
N15270G1X26.690Y3.563
N15280G1X26.828Y3.630
N15290G1X25.839
N15300G1X25.838Y3.630
N15310G1X25.724Y3.710
N15320G1X26.943
N15330G1X26.993Y3.747
N15340G1X27.032Y3.790
N15350G1X25.634
N15360G1X25.569Y3.854
N15370G1X25.558Y3.870
N15380G1X27.105
N15390G1X27.148Y3.917
N15400G1X27.166Y3.950
N15410G1X26.531
N15420G1X26.623Y3.989
N15430G1X26.677Y4.030
N15440G1X27.211
N15450G1X27.256Y4.110
N15460G1X26.768
N15470G1X26.834Y4.187
N15480G1X26.835Y4.190
N15490G1X27.283
N15500G1X27.306Y4.270
N15510G1X26.873
N15520G1X26.889Y4.304
N15530G1X26.903Y4.349
N15540G1X26.903Y4.350
N15550G1X27.329
N15560G1X27.332Y4.430
N15570G1X26.916
N15580G1X26.918Y4.510
N15590G1X27.334
N15600G1X27.336Y4.581
N15610G1X27.334Y4.590
N15620G1X26.916
N15630G1X26.913Y4.632
N15640G1X26.901Y4.670
N15650G1X27.321
N15660G1X27.311Y4.732
N15670G1X27.305Y4.750
N15680G1X26.869
N15690G1X26.832Y4.821
N15700G1X26.824Y4.830
N15710G1X27.280
N15720G1X27.267Y4.874
N15730G1X27.249Y4.910
N15740G1X26.762
N15750G1X26.684Y4.980
N15760G1X26.668Y4.990
N15770G1X27.211
N15780G1X27.203Y5.006
N15790G1X27.160Y5.070
N15800G1X26.507
N15810G1X26.489Y5.077
N15820G1X26.383Y5.096
N15830G1X26.272Y5.094
N15840G1X26.158Y5.071
N15850G1X26.155Y5.070
N15860G1X26.011
N15870G00Z6.000
N15880G00X26.119Y3.950
N15890G1Z-0.500F480.0
N15900G1X25.501F1200.0
N15910G1X25.469Y3.994
N15920G1X25.452Y4.030
N15930G1X25.982
N15940G1X25.963Y4.044
N15950G1X25.905Y4.110
N15960G1X25.414
N15970G1X25.395Y4.151
N15980G1X25.384Y4.190
N15990G1X25.835
N16000G1X25.830Y4.197
N16010G1X25.795Y4.270
N16020G1X25.362
N16030G1X25.346Y4.324
N16040G1X25.344Y4.350
N16050G1X25.766
N16060G1X25.754Y4.399
N16070G1X25.741Y4.430
N16080G1X25.357
N16090G1X25.370Y4.469
N16100G1X25.404Y4.510
N16110G1X25.687
N16120G00Z6.000
N16130G00X25.913Y5.150
N16140G1Z-0.500F480.0
N16150G1X27.101F1200.0
N16160G1X27.029Y5.230
N16170G1X25.878
N16180G1X25.877Y5.237
N16190G1X25.879Y5.310
N16200G1X26.934
N16210G1X26.909Y5.331
N16220G1X26.808Y5.390
N16230G1X25.919
N16240G1X25.921Y5.394
N16250G1X25.983Y5.470
N16260G1X26.621
N16270G1X26.578Y5.481
N16280G1X26.533Y5.492
N16290G1X26.580Y5.550
N16300G1X26.047
N16310G1X26.112Y5.630
N16320G1X26.645
N16330G1X26.710Y5.710
N16340G1X26.177
N16350G1X26.242Y5.790
N16360G1X26.775
N16370G1X26.840Y5.870
N16380G1X26.307
N16390G1X26.371Y5.950
N16400G1X26.905
N16410G1X26.969Y6.030
N16420G1X26.436
N16430G1X26.482Y6.087
N16440G1X25.789
N16450G1X25.701Y6.105
N16460G1X25.693Y6.110
N16470G1X27.034
N16480G1X27.078Y6.164
N16490G1X27.093Y6.190
N16500G1X25.612
N16510G1X25.586Y6.238
N16520G1X25.585Y6.270
N16530G1X27.120
N16540G1X27.122Y6.322
N16550G1X27.113Y6.350
N16560G1X25.590
N16570G1X25.607Y6.404
N16580G1X25.627Y6.430
N16590G1X27.075
N16600G00Z6.000
N16610G00X25.475Y4.556
N16620G1Z-0.500F480.0
N16630G1X25.414Y4.524F1200.0
N16640G1X25.370Y4.469
N16650G1X25.343Y4.392
N16660G1X25.344Y4.355
N16670G1X25.346Y4.324
N16680G1X25.395Y4.151
N16690G1X25.469Y3.994
N16700G1X25.569Y3.854
N16710G1X25.694Y3.731
N16720G1X25.838Y3.630
N16730G1X25.995Y3.558
N16740G1X26.163Y3.515
N16750G1X26.344Y3.501
N16760G1X26.522Y3.516
N16770G1X26.690Y3.563
N16780G1X26.847Y3.639
N16790G1X26.993Y3.747
N16800G1X27.148Y3.917
N16810G1X27.263Y4.123
N16820G1X27.329Y4.349
N16830G1X27.336Y4.581
N16840G1X27.311Y4.732
N16850G1X27.267Y4.874
N16860G1X27.203Y5.006
N16870G1X27.121Y5.129
N16880G1X27.022Y5.238
N16890G1X26.909Y5.331
N16900G1X26.781Y5.407
N16910G1X26.638Y5.465
N16920G1X26.622Y5.470
N16930G1X26.578Y5.481
N16940G1X26.533Y5.492
N16950G1X27.078Y6.164
N16960G1X27.118Y6.234
N16970G1X27.122Y6.322
N16980G1X27.098Y6.401
N16990G1X27.055Y6.457
N17000G1X26.995Y6.490
N17010G1X26.917Y6.501
N17020G1X25.787
N17030G1X25.709Y6.490
N17040G1X25.649Y6.458
N17050G1X25.607Y6.404
N17060G1X25.584Y6.328
N17070G1X25.586Y6.238
N17080G1X25.629Y6.159
N17090G1X25.701Y6.105
N17100G1X25.789Y6.087
N17110G1X26.482
N17120G1X25.921Y5.394
N17130G1X25.879Y5.324
N17140G1X25.877Y5.237
N17150G1X25.887Y5.194
N17160G1X25.929Y5.123
N17170G1X25.989Y5.077
N17180G1X26.053Y5.057
N17190G1X26.121Y5.060
N17200G1X26.149Y5.068
N17210G1X26.158Y5.071
N17220G1X26.272Y5.094
N17230G1X26.383Y5.096
N17240G1X26.489Y5.077
N17250G1X26.591Y5.038
N17260G1X26.684Y4.980
N17270G1X26.765Y4.908
N17280G1X26.832Y4.821
N17290G1X26.886Y4.718
N17300G1X26.913Y4.632
N17310G1X26.919Y4.554
N17320G1X26.915Y4.390
N17330G1X26.903Y4.349
N17340G1X26.889Y4.304
N17350G1X26.834Y4.187
N17360G1X26.739Y4.077
N17370G1X26.623Y3.989
N17380G1X26.504Y3.939
N17390G1X26.300Y3.915
N17400G1X26.207Y3.925
N17410G1X26.120Y3.950
N17420G1X26.039Y3.990
N17430G1X25.963Y4.044
N17440G1X25.830Y4.197
N17450G1X25.775Y4.314
N17460G1X25.754Y4.399
N17470G1X25.722Y4.474
N17480G1X25.664Y4.534
N17490G1X25.553Y4.567
N17500G1X25.475Y4.556
N17510G00Z6.000
N17520G00X31.683Y12.317
N17530G1Z-0.500F480.0
N17540G1X31.617F1200.0
N17550G1X31.577Y12.397
N17560G1X31.723
N17570G1X31.763Y12.477
N17580G1X31.537
N17590G1X31.497Y12.557
N17600G1X31.803
N17610G1X31.843Y12.637
N17620G1X31.457
N17630G1X31.417Y12.717
N17640G1X31.883
N17650G1X31.923Y12.797
N17660G1X31.377
N17670G1X31.337Y12.877
N17680G1X31.963
N17690G1X32.003Y12.957
N17700G1X31.297
N17710G1X31.257Y13.037
N17720G1X32.043
N17730G1X32.083Y13.117
N17740G1X31.217
N17750G1X31.177Y13.197
N17760G1X32.123
N17770G1X32.163Y13.277
N17780G1X31.137
N17790G1X31.097Y13.357
N17800G1X32.203
N17810G1X32.243Y13.437
N17820G1X31.057
N17830G1X31.017Y13.517
N17840G1X32.283
N17850G1X32.323Y13.597
N17860G1X30.977
N17870G1X30.937Y13.677
N17880G1X32.363
N17890G1X32.403Y13.757
N17900G1X30.897
N17910G1X30.857Y13.837
N17920G1X32.443
N17930G1X32.483Y13.917
N17940G1X30.817
N17950G1X30.777Y13.997
N17960G1X32.523
N17970G1X32.563Y14.077
N17980G1X30.737
N17990G1X30.697Y14.157
N18000G1X32.603
N18010G1X32.643Y14.237
N18020G1X30.657
N18030G1X30.650Y14.250
N18040G1X31.396Y14.251
N18050G1X31.382Y14.317
N18060G1X31.888
N18070G1X31.872Y14.397
N18080G1X31.365
N18090G1X31.349Y14.477
N18100G1X31.856
N18110G1X31.841Y14.557
N18120G1X31.332
N18130G1X31.315Y14.637
N18140G1X31.825
N18150G1X31.809Y14.717
N18160G1X31.298
N18170G1X31.281Y14.797
N18180G1X31.793
N18190G1X31.777Y14.877
N18200G1X31.262
N18210G1X31.238Y14.957
N18220G1X31.756
N18230G1X31.733Y15.037
N18240G1X31.214
N18250G1X31.191Y15.117
N18260G1X31.710
N18270G1X31.687Y15.197
N18280G1X31.167
N18290G1X31.143Y15.277
N18300G1X31.664
N18310G1X31.641Y15.357
N18320G1X31.120
N18330G1X31.100Y15.424
N18340G1X31.095Y15.437
N18350G1X31.618
N18360G1X31.595Y15.517
N18370G1X31.064
N18380G1X31.033Y15.597
N18390G1X31.565
N18400G1X31.535Y15.677
N18410G1X31.002
N18420G1X30.971Y15.757
N18430G1X31.505
N18440G1X31.475Y15.837
N18450G1X30.940
N18460G1X30.909Y15.917
N18470G1X31.444
N18480G1X31.414Y15.997
N18490G1X30.877
N18500G1X30.838Y16.077
N18510G1X31.384
N18520G1X31.364Y16.130
N18530G1X31.351Y16.157
N18540G1X30.799
N18550G1X30.761Y16.237
N18560G1X31.313
N18570G1X31.275Y16.317
N18580G1X30.722
N18590G1X30.684Y16.397
N18600G1X31.237
N18610G1X31.200Y16.477
N18620G1X30.645
N18630G1X30.627Y16.516
N18640G1X30.603Y16.557
N18650G1X31.162
N18660G1X31.124Y16.637
N18670G1X30.556
N18680G1X30.509Y16.717
N18690G1X31.085
N18700G1X31.039Y16.797
N18710G1X30.463
N18720G1X30.416Y16.877
N18730G1X30.993
N18740G1X30.947Y16.957
N18750G1X30.369
N18760G1X30.329Y17.026
N18770G1X30.321Y17.037
N18780G1X30.901
N18790G1X30.855Y17.117
N18800G1X30.266
N18810G1X30.210Y17.197
N18820G1X30.809
N18830G1X30.770Y17.264
N18840G1X30.761Y17.277
N18850G1X30.155
N18860G1X30.099Y17.357
N18870G1X30.706
N18880G1X30.651Y17.437
N18890G1X30.044
N18900G1X29.994Y17.509
N18910G1X29.988Y17.517
N18920G1X30.596
N18930G1X30.541Y17.597
N18940G1X29.922
N18950G1X29.857Y17.677
N18960G1X30.486
N18970G1X30.431Y17.757
N18980G1X29.792
N18990G1X29.726Y17.837
N19000G1X30.370
N19010G1X30.305Y17.917
N19020G1X29.661
N19030G1X29.622Y17.964
N19040G1X29.591Y17.997
N19050G1X30.240
N19060G1X30.175Y18.077
N19070G1X29.515
N19080G1X29.438Y18.157
N19090G1X30.110
N19100G1X30.045Y18.237
N19110G1X29.362
N19120G1X29.285Y18.317
N19130G1X29.975
N19140G1X29.899Y18.397
N19150G1X29.208
N19160G1X29.118Y18.477
N19170G1X29.823
N19180G1X29.747Y18.557
N19190G1X29.029
N19200G1X28.940Y18.637
N19210G1X29.671
N19220G1X29.594Y18.717
N19230G1X28.850
N19240G1X28.780Y18.780
N19250G1X28.758Y18.797
N19260G1X29.509
N19270G1X29.420Y18.877
N19280G1X28.653
N19290G1X28.549Y18.957
N19300G1X29.331
N19310G1X29.242Y19.037
N19320G1X28.444
N19330G1X28.339Y19.117
N19340G1X29.152
N19350G1X29.098Y19.165
N19360G1X29.057Y19.197
N19370G1X28.220
N19380G1X28.097Y19.277
N19390G1X28.952
N19400G1X28.847Y19.357
N19410G1X27.973
N19420G1X27.849Y19.437
N19430G1X28.742
N19440G1X28.638Y19.517
N19450G1X27.707
N19460G1X27.559Y19.597
N19470G1X28.522
N19480G1X28.398Y19.677
N19490G1X27.411
N19500G1X27.298Y19.738
N19510G1X27.256Y19.757
N19520G1X28.274
N19530G1X28.149Y19.837
N19540G1X27.075
N19550G1X26.894Y19.917
N19560G1X28.019
N19570G1X27.870Y19.997
N19580G1X26.702
N19590G1X26.472Y20.077
N19600G1X27.721
N19610G1X27.572Y20.157
N19620G1X26.243
N19630G1X26.188Y20.176
N19640G1X25.955Y20.237
N19650G1X27.406
N19660G1X27.223Y20.317
N19670G1X25.648
N19680G1X25.603Y20.328
N19690G1X25.213Y20.397
N19700G1X27.040
N19710G1X26.903Y20.457
N19720G1X26.845Y20.477
N19730G1X25.000
N19740G1X25.000Y20.557
N19750G1X26.611
N19760G1X26.378Y20.637
N19770G1X25.000
N19780G1X25.000Y20.717
N19790G1X26.094
N19800G1X25.778Y20.797
N19810G1X25.000
N19820G1X25.000Y20.877
N19830G1X25.363
N19840G00Z6.000
N19850G00X31.396Y14.251
N19860G1Z-0.500F480.0
N19870G1X30.650Y14.250F1200.0
N19880G1X31.650Y12.250
N19890G1X32.650Y14.250
N19900G1X31.902Y14.251
N19910G1X31.773Y14.898
N19920G1X31.593Y15.525
N19930G1X31.364Y16.130
N19940G1X31.089Y16.710
N19950G1X30.770Y17.264
N19960G1X30.409Y17.788
N19970G1X30.008Y18.282
N19980G1X29.571Y18.741
N19990G1X29.098Y19.165
N20000G1X28.592Y19.551
N20010G1X28.057Y19.896
N20020G1X27.492Y20.199
N20030G1X26.903Y20.457
N20040G1X26.289Y20.667
N20050G1X25.654Y20.828
N20060G1X25.000Y20.937
N20070G1X25.000Y20.434
N20080G1X25.603Y20.328
N20090G1X26.188Y20.176
N20100G1X26.754Y19.978
N20110G1X27.298Y19.738
N20120G1X27.818Y19.457
N20130G1X28.313Y19.137
N20140G1X28.780Y18.780
N20150G1X29.217Y18.388
N20160G1X29.622Y17.964
N20170G1X29.994Y17.509
N20180G1X30.329Y17.026
N20190G1X30.627Y16.516
N20200G1X30.884Y15.981
N20210G1X31.100Y15.424
N20220G1X31.271Y14.846
N20230G1X31.396Y14.251
N20240G00Z6.000
N20250G00X31.683Y-13.683
N20260G1Z-0.500F480.0
N20270G1X31.617F1200.0
N20280G1X31.577Y-13.603
N20290G1X31.723
N20300G1X31.763Y-13.523
N20310G1X31.537
N20320G1X31.497Y-13.443
N20330G1X31.803
N20340G1X31.843Y-13.363
N20350G1X31.457
N20360G1X31.417Y-13.283
N20370G1X31.883
N20380G1X31.923Y-13.203
N20390G1X31.377
N20400G1X31.337Y-13.123
N20410G1X31.963
N20420G1X32.003Y-13.043
N20430G1X31.297
N20440G1X31.257Y-12.963
N20450G1X32.043
N20460G1X32.083Y-12.883
N20470G1X31.217
N20480G1X31.177Y-12.803
N20490G1X32.123
N20500G1X32.163Y-12.723
N20510G1X31.137
N20520G1X31.097Y-12.643
N20530G1X32.203
N20540G1X32.243Y-12.563
N20550G1X31.057
N20560G1X31.017Y-12.483
N20570G1X32.283
N20580G1X32.323Y-12.403
N20590G1X30.977
N20600G1X30.937Y-12.323
N20610G1X32.363
N20620G1X32.403Y-12.243
N20630G1X30.897
N20640G1X30.857Y-12.163
N20650G1X32.443
N20660G1X32.483Y-12.083
N20670G1X30.817
N20680G1X30.777Y-12.003
N20690G1X32.523
N20700G1X32.563Y-11.923
N20710G1X30.737
N20720G1X30.697Y-11.843
N20730G1X32.603
N20740G1X32.643Y-11.763
N20750G1X30.657
N20760G1X30.650Y-11.750
N20770G1X31.396Y-11.749
N20780G1X31.382Y-11.683
N20790G1X31.888
N20800G1X31.872Y-11.603
N20810G1X31.365
N20820G1X31.349Y-11.523
N20830G1X31.856
N20840G1X31.841Y-11.443
N20850G1X31.332
N20860G1X31.315Y-11.363
N20870G1X31.825
N20880G1X31.809Y-11.283
N20890G1X31.298
N20900G1X31.281Y-11.203
N20910G1X31.793
N20920G1X31.777Y-11.123
N20930G1X31.262
N20940G1X31.238Y-11.043
N20950G1X31.756
N20960G1X31.733Y-10.963
N20970G1X31.214
N20980G1X31.191Y-10.883
N20990G1X31.710
N21000G1X31.687Y-10.803
N21010G1X31.167
N21020G1X31.143Y-10.723
N21030G1X31.664
N21040G1X31.641Y-10.643
N21050G1X31.120
N21060G1X31.100Y-10.576
N21070G1X31.095Y-10.563
N21080G1X31.618
N21090G1X31.595Y-10.483
N21100G1X31.064
N21110G1X31.033Y-10.403
N21120G1X31.565
N21130G1X31.535Y-10.323
N21140G1X31.002
N21150G1X30.971Y-10.243
N21160G1X31.505
N21170G1X31.475Y-10.163
N21180G1X30.940
N21190G1X30.909Y-10.083
N21200G1X31.444
N21210G1X31.414Y-10.003
N21220G1X30.877
N21230G1X30.838Y-9.923
N21240G1X31.384
N21250G1X31.364Y-9.870
N21260G1X31.351Y-9.843
N21270G1X30.799
N21280G1X30.761Y-9.763
N21290G1X31.313
N21300G1X31.275Y-9.683
N21310G1X30.722
N21320G1X30.684Y-9.603
N21330G1X31.237
N21340G1X31.200Y-9.523
N21350G1X30.645
N21360G1X30.627Y-9.484
N21370G1X30.603Y-9.443
N21380G1X31.162
N21390G1X31.124Y-9.363
N21400G1X30.556
N21410G1X30.509Y-9.283
N21420G1X31.085
N21430G1X31.039Y-9.203
N21440G1X30.463
N21450G1X30.416Y-9.123
N21460G1X30.993
N21470G1X30.947Y-9.043
N21480G1X30.369
N21490G1X30.329Y-8.974
N21500G1X30.321Y-8.963
N21510G1X30.901
N21520G1X30.855Y-8.883
N21530G1X30.266
N21540G1X30.210Y-8.803
N21550G1X30.809
N21560G1X30.770Y-8.736
N21570G1X30.761Y-8.723
N21580G1X30.155
N21590G1X30.099Y-8.643
N21600G1X30.706
N21610G1X30.651Y-8.563
N21620G1X30.044
N21630G1X29.994Y-8.491
N21640G1X29.988Y-8.483
N21650G1X30.596
N21660G1X30.541Y-8.403
N21670G1X29.922
N21680G1X29.857Y-8.323
N21690G1X30.486
N21700G1X30.431Y-8.243
N21710G1X29.792
N21720G1X29.726Y-8.163
N21730G1X30.370
N21740G1X30.305Y-8.083
N21750G1X29.661
N21760G1X29.622Y-8.036
N21770G1X29.591Y-8.003
N21780G1X30.240
N21790G1X30.175Y-7.923
N21800G1X29.515
N21810G1X29.438Y-7.843
N21820G1X30.110
N21830G1X30.045Y-7.763
N21840G1X29.362
N21850G1X29.285Y-7.683
N21860G1X29.975
N21870G1X29.899Y-7.603
N21880G1X29.208
N21890G1X29.118Y-7.523
N21900G1X29.823
N21910G1X29.747Y-7.443
N21920G1X29.029
N21930G1X28.940Y-7.363
N21940G1X29.671
N21950G1X29.594Y-7.283
N21960G1X28.850
N21970G1X28.780Y-7.220
N21980G1X28.758Y-7.203
N21990G1X29.509
N22000G1X29.420Y-7.123
N22010G1X28.653
N22020G1X28.549Y-7.043
N22030G1X29.331
N22040G1X29.242Y-6.963
N22050G1X28.444
N22060G1X28.339Y-6.883
N22070G1X29.152
N22080G1X29.098Y-6.835
N22090G1X29.057Y-6.803
N22100G1X28.220
N22110G1X28.097Y-6.723
N22120G1X28.952
N22130G1X28.847Y-6.643
N22140G1X27.973
N22150G1X27.849Y-6.563
N22160G1X28.742
N22170G1X28.638Y-6.483
N22180G1X27.707
N22190G1X27.559Y-6.403
N22200G1X28.522
N22210G1X28.398Y-6.323
N22220G1X27.411
N22230G1X27.298Y-6.262
N22240G1X27.256Y-6.243
N22250G1X28.274
N22260G1X28.149Y-6.163
N22270G1X27.075
N22280G1X26.894Y-6.083
N22290G1X28.019
N22300G1X27.870Y-6.003
N22310G1X26.702
N22320G1X26.472Y-5.923
N22330G1X27.721
N22340G1X27.572Y-5.843
N22350G1X26.243
N22360G1X26.188Y-5.824
N22370G1X25.955Y-5.763
N22380G1X27.406
N22390G1X27.223Y-5.683
N22400G1X25.648
N22410G1X25.603Y-5.672
N22420G1X25.213Y-5.603
N22430G1X27.040
N22440G1X26.903Y-5.543
N22450G1X26.845Y-5.523
N22460G1X25.000
N22470G1X25.000Y-5.443
N22480G1X26.611
N22490G1X26.378Y-5.363
N22500G1X25.000
N22510G1X25.000Y-5.283
N22520G1X26.094
N22530G1X25.778Y-5.203
N22540G1X25.000
N22550G1X25.000Y-5.123
N22560G1X25.363
N22570G00Z6.000
N22580G00X31.396Y-11.749
N22590G1Z-0.500F480.0
N22600G1X30.650Y-11.750F1200.0
N22610G1X31.650Y-13.750
N22620G1X32.650Y-11.750
N22630G1X31.902Y-11.749
N22640G1X31.773Y-11.102
N22650G1X31.593Y-10.475
N22660G1X31.364Y-9.870
N22670G1X31.089Y-9.290
N22680G1X30.770Y-8.736
N22690G1X30.409Y-8.212
N22700G1X30.008Y-7.718
N22710G1X29.571Y-7.259
N22720G1X29.098Y-6.835
N22730G1X28.592Y-6.449
N22740G1X28.057Y-6.104
N22750G1X27.492Y-5.801
N22760G1X26.903Y-5.543
N22770G1X26.289Y-5.333
N22780G1X25.654Y-5.172
N22790G1X25.000Y-5.063
N22800G1X25.000Y-5.566
N22810G1X25.603Y-5.672
N22820G1X26.188Y-5.824
N22830G1X26.754Y-6.022
N22840G1X27.298Y-6.262
N22850G1X27.818Y-6.543
N22860G1X28.313Y-6.863
N22870G1X28.780Y-7.220
N22880G1X29.217Y-7.612
N22890G1X29.622Y-8.036
N22900G1X29.994Y-8.491
N22910G1X30.329Y-8.974
N22920G1X30.627Y-9.484
N22930G1X30.884Y-10.019
N22940G1X31.100Y-10.576
N22950G1X31.271Y-11.154
N22960G1X31.396Y-11.749
N22970G00Z6.000
N22980G00X25.990Y-22.438
N22990G1Z-0.500F480.0
N23000G1X26.678F1200.0
N23010G1X26.782Y-22.393
N23020G1X26.840Y-22.358
N23030G1X25.818
N23040G1X25.791Y-22.344
N23050G1X25.711Y-22.278
N23060G1X26.954
N23070G1X26.995Y-22.245
N23080G1X27.043Y-22.198
N23090G1X25.626
N23100G1X25.563Y-22.118
N23110G1X27.115
N23120G1X27.175Y-22.038
N23130G1X26.564
N23140G1X26.645Y-21.997
N23150G1X26.693Y-21.958
N23160G1X27.216
N23170G1X27.243Y-21.900
N23180G1X27.249Y-21.878
N23190G1X26.779
N23200G1X26.838Y-21.798
N23210G1X27.270
N23220G1X27.291Y-21.718
N23230G1X26.870
N23240G1X26.890Y-21.665
N23250G1X26.893Y-21.638
N23260G1X27.312
N23270G1X27.317Y-21.619
N23280G1X27.322Y-21.576
N23290G1X27.322Y-21.558
N23300G1X26.902
N23310G1X26.907Y-21.516
N23320G1X26.902Y-21.478
N23330G1X27.322
N23340G1X27.322Y-21.436
N23350G1X27.316Y-21.398
N23360G1X26.894
N23370G1X26.890Y-21.367
N23380G1X26.872Y-21.318
N23390G1X27.303
N23400G1X27.300Y-21.298
N23410G1X27.280Y-21.238
N23420G1X26.842
N23430G1X26.782Y-21.158
N23440G1X27.254
N23450G1X27.215Y-21.078
N23460G1X26.698
N23470G1X26.645Y-21.036
N23480G1X26.566Y-20.998
N23490G1X27.171
N23500G1X27.118Y-20.918
N23510G1X25.479
N23520G1X25.510Y-20.838
N23530G1X27.050
N23540G1X27.009Y-20.792
N23550G1X26.966Y-20.758
N23560G1X25.541
N23570G1X25.572Y-20.678
N23580G1X26.851
N23590G1X26.775Y-20.636
N23600G1X26.673Y-20.598
N23610G1X25.613
N23620G1X25.655Y-20.518
N23630G1X26.125
N23640G1X26.150Y-20.480
N23650G1X26.181Y-20.438
N23660G1X25.697
N23670G1X25.740Y-20.358
N23680G1X26.240
N23690G1X26.276Y-20.308
N23700G1X26.304Y-20.278
N23710G1X25.792
N23720G1X25.850Y-20.198
N23730G1X26.378
N23740G1X26.420Y-20.152
N23750G1X26.460Y-20.118
N23760G1X25.908
N23770G1X25.964Y-20.040
N23780G1X25.966Y-20.038
N23790G1X26.554
N23800G1X26.648Y-19.958
N23810G1X26.043
N23820G1X26.119Y-19.878
N23830G1X26.742
N23840G1X26.745Y-19.875
N23850G1X26.787Y-19.837
N23860G1X26.810Y-19.798
N23870G1X26.196
N23880G1X26.208Y-19.785
N23890G1X26.288Y-19.718
N23900G1X26.836
N23910G1X26.840Y-19.700
N23920G1X26.824Y-19.638
N23930G1X26.384
N23940G1X26.480Y-19.558
N23950G1X26.765
N23960G00Z6.000
N23970G00X26.116Y-22.038
N23980G1Z-0.500F480.0
N23990G1X25.510F1200.0
N24000G1X25.468Y-21.958
N24010G1X25.986
N24020G1X25.899Y-21.879
N24030G1X25.898Y-21.878
N24040G1X25.430
N24050G1X25.405Y-21.798
N24060G1X25.850
N24070G1X25.833Y-21.771
N24080G1X25.813Y-21.718
N24090G1X25.380
N24100G1X25.371Y-21.638
N24110G1X25.787
N24120G1X25.773Y-21.558
N24130G1X25.361
N24140G1X25.359Y-21.538
N24150G1X25.363Y-21.478
N24160G1X25.775
N24170G1X25.777Y-21.436
N24180G1X25.787Y-21.398
N24190G1X25.369
N24200G1X25.372Y-21.352
N24210G1X25.375Y-21.334
N24220G1X25.378Y-21.318
N24230G1X25.809
N24240G1X25.846Y-21.238
N24250G1X25.395
N24260G1X25.411Y-21.158
N24270G1X25.901
N24280G1X25.924Y-21.126
N24290G1X25.981Y-21.078
N24300G1X25.432
N24310G1X25.454Y-20.998
N24320G1X26.107
N24330G00Z6.000
N24340G00X26.842Y-21.238
N24350G1Z-0.500F480.0
N24360G1X26.890Y-21.367F1200.0
N24370G1X26.907Y-21.516
N24380G1X26.890Y-21.665
N24390G1X26.841Y-21.794
N24400G1X26.759Y-21.905
N24410G1X26.645Y-21.997
N24420G1X26.557Y-22.041
N24430G1X26.462Y-22.070
N24440G1X26.361Y-22.082
N24450G1X26.254Y-22.079
N24460G1X26.131Y-22.046
N24470G1X26.006Y-21.975
N24480G1X25.899Y-21.879
N24490G1X25.833Y-21.771
N24500G1X25.791Y-21.661
N24510G1X25.772Y-21.549
N24520G1X25.777Y-21.436
N24530G1X25.806Y-21.323
N24540G1X25.857Y-21.216
N24550G1X25.924Y-21.126
N24560G1X26.010Y-21.052
N24570G1X26.113Y-20.994
N24580G1X26.249Y-20.953
N24590G1X26.382Y-20.945
N24600G1X26.515Y-20.973
N24610G1X26.645Y-21.036
N24620G1X26.760Y-21.127
N24630G1X26.842Y-21.238
N24640G00Z6.000
N24650G00X27.189Y-21.025
N24660G1Z-0.500F480.0
N24670G1X27.105Y-20.899F1200.0
N24680G1X27.009Y-20.792
N24690G1X26.899Y-20.704
N24700G1X26.775Y-20.636
N24710G1X26.604Y-20.572
N24720G1X26.451Y-20.544
N24730G1X26.295Y-20.542
N24740G1X26.118Y-20.559
N24750G1X26.107Y-20.561
N24760G1X26.097Y-20.564
N24770G1X26.106Y-20.549
N24780G1X26.113Y-20.536
N24790G1X26.150Y-20.480
N24800G1X26.276Y-20.308
N24810G1X26.420Y-20.152
N24820G1X26.745Y-19.875
N24830G1X26.787Y-19.837
N24840G1X26.828Y-19.768
N24850G1X26.840Y-19.700
N24860G1X26.823Y-19.633
N24870G1X26.777Y-19.568
N24880G1X26.715Y-19.517
N24890G1X26.649Y-19.495
N24900G1X26.580Y-19.501
N24910G1X26.507Y-19.537
N24920G1X26.493Y-19.547
N24930G1X26.208Y-19.785
N24940G1X25.964Y-20.040
N24950G1X25.755Y-20.328
N24960G1X25.579Y-20.662
N24970G1X25.470Y-20.942
N24980G1X25.415Y-21.137
N24990G1X25.375Y-21.334
N25000G1X25.372Y-21.352
N25010G1X25.359Y-21.538
N25020G1X25.381Y-21.720
N25030G1X25.436Y-21.897
N25040G1X25.527Y-22.071
N25050G1X25.646Y-22.224
N25060G1X25.791Y-22.344
N25070G1X25.960Y-22.430
N25080G1X26.154Y-22.481
N25090G1X26.291Y-22.496
N25100G1X26.422Y-22.494
N25110G1X26.547Y-22.476
N25120G1X26.667Y-22.443
N25130G1X26.782Y-22.393
N25140G1X26.891Y-22.327
N25150G1X26.995Y-22.245
N25160G1X27.093Y-22.147
N25170G1X27.181Y-22.029
N25180G1X27.243Y-21.900
N25190G1X27.317Y-21.619
N25200G1X27.322Y-21.576
N25210G1X27.322Y-21.436
N25220G1X27.300Y-21.298
N25230G1X27.256Y-21.160
N25240G1X27.189Y-21.025
N25250G00Z6.000
N25260G00X23.000Y-22.462
N25270G1Z-0.500F480.0
N25280G1X23.243F1200.0
N25290G1X23.260Y-22.451
N25300G1X23.303Y-22.387
N25310G1X23.305Y-22.382
N25320G1X22.938
N25330G1X22.917Y-22.302
N25340G1X23.327
N25350G1X23.328Y-22.297
N25360G1Y-22.222
N25370G1X22.915
N25380G1Y-22.142
N25390G1X23.328
N25400G1Y-22.062
N25410G1X22.915
N25420G1Y-21.982
N25430G1X23.328
N25440G1Y-21.902
N25450G1X22.915
N25460G1Y-21.822
N25470G1X23.328
N25480G1Y-21.742
N25490G1X22.915
N25500G1Y-21.662
N25510G1X23.328
N25520G1Y-21.582
N25530G1X22.915
N25540G1Y-21.502
N25550G1X23.328
N25560G1Y-21.422
N25570G1X22.915
N25580G1Y-21.342
N25590G1X23.328
N25600G1Y-21.262
N25610G1X22.915
N25620G1Y-21.182
N25630G1X23.328
N25640G1Y-21.102
N25650G1X22.915
N25660G1Y-21.022
N25670G1X23.328
N25680G1Y-20.942
N25690G1X22.915
N25700G1Y-20.862
N25710G1X23.328
N25720G1Y-20.782
N25730G1X22.915
N25740G1Y-20.702
N25750G1X23.328
N25760G1Y-20.622
N25770G1X22.915
N25780G1Y-20.542
N25790G1X23.328
N25800G1Y-20.462
N25810G1X22.915
N25820G1Y-20.382
N25830G1X23.782
N25840G1X23.732Y-20.302
N25850G1X22.915
N25860G1Y-20.222
N25870G1X23.682
N25880G1X23.632Y-20.142
N25890G1X22.915
N25900G1Y-20.062
N25910G1X23.582
N25920G1X23.533Y-19.982
N25930G1X22.915
N25940G1Y-19.902
N25950G1X23.483
N25960G1X23.433Y-19.822
N25970G1X22.915
N25980G1Y-19.742
N25990G1X23.383
N26000G1X23.333Y-19.662
N26010G1X22.928
N26020G1X22.933Y-19.640
N26030G1X22.965Y-19.583
N26040G1X22.967Y-19.582
N26050G1X23.280
N26060G1X23.247Y-19.542
N26070G1X23.194Y-19.508
N26080G1X23.164Y-19.502
N26090G1X23.108
N26100G00Z6.000
N26110G00X24.609Y-22.462
N26120G1Z-0.500F480.0
N26130G1X24.858F1200.0
N26140G1X24.901Y-22.423
N26150G1X24.922Y-22.382
N26160G1X24.544
N26170G1X24.495Y-22.302
N26180G1X24.938
N26190G1X24.938Y-22.297
N26200G1Y-22.222
N26210G1X24.445
N26220G1X24.395Y-22.142
N26230G1X24.938
N26240G1Y-22.062
N26250G1X24.345
N26260G1X24.295Y-21.982
N26270G1X24.938
N26280G1Y-21.902
N26290G1X24.245
N26300G1X24.195Y-21.822
N26310G1X24.938
N26320G1Y-21.742
N26330G1X24.145
N26340G1X24.095Y-21.662
N26350G1X24.938
N26360G1Y-21.582
N26370G1X24.046
N26380G1X23.996Y-21.502
N26390G1X24.479
N26400G1X24.429Y-21.422
N26410G1X23.946
N26420G1X23.896Y-21.342
N26430G1X24.379
N26440G1X24.330Y-21.262
N26450G1X23.846
N26460G1X23.796Y-21.182
N26470G1X24.280
N26480G1X24.230Y-21.102
N26490G1X23.746
N26500G1X23.696Y-21.022
N26510G1X24.180
N26520G1X24.130Y-20.942
N26530G1X23.646
N26540G1X23.597Y-20.862
N26550G1X24.081
N26560G1X24.031Y-20.782
N26570G1X23.547
N26580G1X23.497Y-20.702
N26590G1X23.981
N26600G1X23.931Y-20.622
N26610G1X23.447
N26620G1X23.397Y-20.542
N26630G1X23.881
N26640G1X23.831Y-20.462
N26650G1X23.347
N26660G00Z6.000
N26670G00X24.525Y-21.502
N26680G1Z-0.500F480.0
N26690G1X24.938F1200.0
N26700G1Y-21.422
N26710G1X24.525
N26720G1Y-21.342
N26730G1X24.938
N26740G1Y-21.262
N26750G1X24.525
N26760G1Y-21.182
N26770G1X24.938
N26780G1Y-21.102
N26790G1X24.525
N26800G1Y-21.022
N26810G1X24.938
N26820G1Y-20.942
N26830G1X24.525
N26840G1Y-20.862
N26850G1X24.938
N26860G1Y-20.782
N26870G1X24.525
N26880G1Y-20.702
N26890G1X24.938
N26900G1Y-20.622
N26910G1X24.525
N26920G1Y-20.542
N26930G1X24.938
N26940G1Y-20.462
N26950G1X24.525
N26960G1Y-20.382
N26970G1X24.938
N26980G1Y-20.302
N26990G1X24.525
N27000G1Y-20.222
N27010G1X24.938
N27020G1Y-20.142
N27030G1X24.525
N27040G1Y-20.062
N27050G1X24.938
N27060G1Y-19.982
N27070G1X24.525
N27080G1Y-19.902
N27090G1X24.938
N27100G1Y-19.822
N27110G1X24.525
N27120G1Y-19.742
N27130G1X24.938
N27140G1Y-19.710
N27150G1X24.929Y-19.662
N27160G1X24.538
N27170G1X24.549Y-19.618
N27180G1X24.573Y-19.582
N27190G1X24.897
N27200G00Z6.000
N27210G00X22.915Y-22.297
N27220G1Z-0.500F480.0
N27230G1X22.940Y-22.387F1200.0
N27240G1X22.982Y-22.451
N27250G1X23.043Y-22.489
N27260G1X23.121Y-22.502
N27270G1X23.200Y-22.489
N27280G1X23.260Y-22.451
N27290G1X23.303Y-22.387
N27300G1X23.328Y-22.297
N27310G1Y-20.432
N27320G1X24.559Y-22.405
N27330G1X24.604Y-22.459
N27340G1X24.658Y-22.491
N27350G1X24.720Y-22.503
N27360G1X24.790Y-22.492
N27370G1X24.855Y-22.465
N27380G1X24.901Y-22.423
N27390G1X24.929Y-22.367
N27400G1X24.938Y-22.297
N27410G1Y-19.710
N27420G1X24.920Y-19.620
N27430G1X24.881Y-19.555
N27440G1X24.820Y-19.516
N27450G1X24.738Y-19.502
N27460G1X24.656Y-19.515
N27470G1X24.592Y-19.553
N27480G1X24.549Y-19.618
N27490G1X24.525Y-19.710
N27500G1Y-21.576
N27510G1X23.295Y-19.600
N27520G1X23.247Y-19.542
N27530G1X23.194Y-19.508
N27540G1X23.136Y-19.497
N27550G1X23.071Y-19.509
N27560G1X23.011Y-19.540
N27570G1X22.965Y-19.583
N27580G1X22.933Y-19.640
N27590G1X22.915Y-19.710
N27600G1Y-22.297
N27610G00Z6.000
N27620G00X22.356Y-22.485
N27630G1Z-0.500F480.0
N27640G1X20.830F1200.0
N27650G1X20.802Y-22.477
N27660G1X20.740Y-22.435
N27670G1X20.719Y-22.405
N27680G1X22.475
N27690G1X22.495Y-22.373
N27700G1X22.503Y-22.325
N27710G1X20.685
N27720G1X20.675Y-22.291
N27730G1Y-22.245
N27740G1X22.500
N27750G1X22.495Y-22.215
N27760G1X22.463Y-22.165
N27770G1X20.675
N27780G1Y-22.085
N27790G1X21.087
N27800G1Y-22.005
N27810G1X20.675
N27820G1Y-21.925
N27830G1X21.087
N27840G1Y-21.845
N27850G1X20.675
N27860G1Y-21.765
N27870G1X21.087
N27880G1Y-21.685
N27890G1X20.675
N27900G1Y-21.605
N27910G1X21.087
N27920G1Y-21.525
N27930G1X20.675
N27940G1Y-21.445
N27950G1X21.087
N27960G1Y-21.365
N27970G1X20.675
N27980G1Y-21.285
N27990G1X21.087
N28000G1Y-21.205
N28010G1X20.675
N28020G1Y-21.125
N28030G1X22.014
N28040G1X22.103Y-21.101
N28050G1X22.168Y-21.058
N28060G1X22.177Y-21.045
N28070G1X20.675
N28080G1Y-20.965
N28090G1X22.212
N28100G1X22.220Y-20.918
N28110G1X22.215Y-20.885
N28120G1X20.675
N28130G1Y-20.805
N28140G1X22.187
N28150G1X22.169Y-20.776
N28160G1X22.104Y-20.733
N28170G1X22.071Y-20.725
N28180G1X20.675
N28190G1Y-20.645
N28200G1X21.087
N28210G1Y-20.565
N28220G1X20.675
N28230G1Y-20.485
N28240G1X21.087
N28250G1Y-20.405
N28260G1X20.675
N28270G1Y-20.325
N28280G1X21.087
N28290G1Y-20.245
N28300G1X20.675
N28310G1Y-20.165
N28320G1X21.087
N28330G1Y-20.085
N28340G1X20.675
N28350G1Y-20.005
N28360G1X21.087
N28370G1Y-19.925
N28380G1X20.675
N28390G1Y-19.845
N28400G1X22.459
N28410G1X22.494Y-19.788
N28420G1X22.498Y-19.765
N28430G1X20.675
N28440G1Y-19.704
N28450G1X20.681Y-19.685
N28460G1X22.504
N28470G1X22.495Y-19.621
N28480G1X22.485Y-19.605
N28490G1X20.708
N28500G1X20.741Y-19.556
N28510G1X20.790Y-19.525
N28520G1X22.403
N28530G00Z6.000
N28540G00X22.495Y-19.621
N28550G1Z-0.500F480.0
N28560G1X22.456Y-19.558F1200.0
N28570G1X22.392Y-19.518
N28580G1X22.301Y-19.499
N28590G1X20.883
N28600G1X20.803Y-19.516
N28610G1X20.741Y-19.556
N28620G1X20.699Y-19.619
N28630G1X20.675Y-19.704
N28640G1Y-22.291
N28650G1X20.698Y-22.373
N28660G1X20.740Y-22.435
N28670G1X20.802Y-22.477
N28680G1X20.883Y-22.499
N28690G1X22.301
N28700G1X22.392Y-22.475
N28710G1X22.456Y-22.433
N28720G1X22.495Y-22.373
N28730G1X22.508Y-22.294
N28740G1X22.495Y-22.215
N28750G1X22.456Y-22.154
N28760G1X22.392Y-22.112
N28770G1X22.301Y-22.087
N28780G1X21.087
N28790G1Y-21.125
N28800G1X22.013
N28810G1X22.103Y-21.101
N28820G1X22.168Y-21.058
N28830G1X22.207Y-20.997
N28840G1X22.220Y-20.918
N28850G1X22.208Y-20.838
N28860G1X22.169Y-20.776
N28870G1X22.104Y-20.733
N28880G1X22.013Y-20.709
N28890G1X21.087
N28900G1Y-19.908
N28910G1X22.301
N28920G1X22.391Y-19.890
N28930G1X22.455Y-19.850
N28940G1X22.494Y-19.788
N28950G1X22.507Y-19.705
N28960G1X22.495Y-19.621
N28970G00Z6.000
N28980G00X16.383Y-13.684
N28990G1Z-0.500F480.0
N29000G1X16.317F1200.0
N29010G1X16.277Y-13.604
N29020G1X16.423
N29030G1X16.463Y-13.524
N29040G1X16.237
N29050G1X16.197Y-13.444
N29060G1X16.503
N29070G1X16.543Y-13.364
N29080G1X16.157
N29090G1X16.117Y-13.284
N29100G1X16.583
N29110G1X16.623Y-13.204
N29120G1X16.077
N29130G1X16.037Y-13.124
N29140G1X16.663
N29150G1X16.703Y-13.044
N29160G1X15.997
N29170G1X15.957Y-12.964
N29180G1X16.743
N29190G1X16.783Y-12.884
N29200G1X15.917
N29210G1X15.877Y-12.804
N29220G1X16.823
N29230G1X16.863Y-12.724
N29240G1X15.837
N29250G1X15.797Y-12.644
N29260G1X16.903
N29270G1X16.943Y-12.564
N29280G1X15.757
N29290G1X15.717Y-12.484
N29300G1X16.983
N29310G1X17.023Y-12.404
N29320G1X15.677
N29330G1X15.637Y-12.324
N29340G1X17.063
N29350G1X17.103Y-12.244
N29360G1X15.597
N29370G1X15.557Y-12.164
N29380G1X17.143
N29390G1X17.183Y-12.084
N29400G1X15.517
N29410G1X15.477Y-12.004
N29420G1X17.223
N29430G1X17.263Y-11.924
N29440G1X15.437
N29450G1X15.397Y-11.844
N29460G1X17.303
N29470G1X17.343Y-11.764
N29480G1X15.357
N29490G1X15.350Y-11.750
N29500G1X16.098Y-11.749
N29510G1X16.111Y-11.684
N29520G1X16.618
N29530G1X16.635Y-11.604
N29540G1X16.127
N29550G1X16.143Y-11.524
N29560G1X16.651
N29570G1X16.668Y-11.444
N29580G1X16.159
N29590G1X16.175Y-11.364
N29600G1X16.685
N29610G1X16.702Y-11.284
N29620G1X16.191
N29630G1X16.207Y-11.204
N29640G1X16.719
N29650G1X16.729Y-11.154
N29660G1X16.738Y-11.124
N29670G1X16.223
N29680G1X16.227Y-11.102
N29690G1X16.244Y-11.044
N29700G1X16.762
N29710G1X16.786Y-10.964
N29720G1X16.267
N29730G1X16.290Y-10.884
N29740G1X16.809
N29750G1X16.833Y-10.804
N29760G1X16.313
N29770G1X16.336Y-10.724
N29780G1X16.857
N29790G1X16.880Y-10.644
N29800G1X16.359
N29810G1X16.382Y-10.564
N29820G1X16.905
N29830G1X16.936Y-10.484
N29840G1X16.405
N29850G1X16.407Y-10.475
N29860G1X16.434Y-10.404
N29870G1X16.967
N29880G1X16.998Y-10.324
N29890G1X16.465
N29900G1X16.495Y-10.244
N29910G1X17.029
N29920G1X17.060Y-10.164
N29930G1X16.525
N29940G1X16.555Y-10.084
N29950G1X17.091
N29960G1X17.116Y-10.019
N29970G1X17.123Y-10.004
N29980G1X16.586
N29990G1X16.616Y-9.924
N30000G1X17.162
N30010G1X17.201Y-9.844
N30020G1X16.649
N30030G1X16.687Y-9.764
N30040G1X17.239
N30050G1X17.278Y-9.684
N30060G1X16.725
N30070G1X16.762Y-9.604
N30080G1X17.316
N30090G1X17.355Y-9.524
N30100G1X16.800
N30110G1X16.838Y-9.444
N30120G1X17.397
N30130G1X17.444Y-9.364
N30140G1X16.876
N30150G1X16.911Y-9.290
N30160G1X16.915Y-9.284
N30170G1X17.491
N30180G1X17.537Y-9.204
N30190G1X16.961
N30200G1X17.007Y-9.124
N30210G1X17.584
N30220G1X17.631Y-9.044
N30230G1X17.053
N30240G1X17.099Y-8.964
N30250G1X17.679
N30260G1X17.734Y-8.884
N30270G1X17.145
N30280G1X17.191Y-8.804
N30290G1X17.790
N30300G1X17.845Y-8.724
N30310G1X17.239
N30320G1X17.294Y-8.644
N30330G1X17.901
N30340G1X17.956Y-8.564
N30350G1X17.349
N30360G1X17.404Y-8.484
N30370G1X18.012
N30380G1X18.078Y-8.404
N30390G1X17.459
N30400G1X17.514Y-8.324
N30410G1X18.143
N30420G1X18.208Y-8.244
N30430G1X17.569
N30440G1X17.591Y-8.212
N30450G1X17.630Y-8.164
N30460G1X18.274
N30470G1X18.339Y-8.084
N30480G1X17.695
N30490G1X17.760Y-8.004
N30500G1X18.409
N30510G1X18.485Y-7.924
N30520G1X17.825
N30530G1X17.890Y-7.844
N30540G1X18.562
N30550G1X18.638Y-7.764
N30560G1X17.955
N30570G1X17.992Y-7.718
N30580G1X18.025Y-7.684
N30590G1X18.715
N30600G1X18.783Y-7.612
N30610G1X18.792Y-7.604
N30620G1X18.101
N30630G1X18.177Y-7.524
N30640G1X18.882
N30650G1X18.971Y-7.444
N30660G1X18.253
N30670G1X18.330Y-7.364
N30680G1X19.060
N30690G1X19.150Y-7.284
N30700G1X18.406
N30710G1X18.429Y-7.259
N30720G1X18.491Y-7.204
N30730G1X19.242
N30740G1X19.347Y-7.124
N30750G1X18.580
N30760G1X18.669Y-7.044
N30770G1X19.451
N30780G1X19.556Y-6.964
N30790G1X18.759
N30800G1X18.848Y-6.884
N30810G1X19.661
N30820G1X19.687Y-6.863
N30830G1X19.780Y-6.804
N30840G1X18.943
N30850G1X19.048Y-6.724
N30860G1X19.903
N30870G1X20.027Y-6.644
N30880G1X19.153
N30890G1X19.258Y-6.564
N30900G1X20.151
N30910G1X20.182Y-6.543
N30920G1X20.293Y-6.484
N30930G1X19.362
N30940G1X19.408Y-6.449
N30950G1X19.478Y-6.404
N30960G1X20.441
N30970G1X20.589Y-6.324
N30980G1X19.602
N30990G1X19.727Y-6.244
N31000G1X20.744
N31010G1X20.925Y-6.164
N31020G1X19.851
N31030G1X19.943Y-6.104
N31040G1X19.981Y-6.084
N31050G1X21.106
N31060G1X21.246Y-6.022
N31070G1X21.298Y-6.004
N31080G1X20.130
N31090G1X20.280Y-5.924
N31100G1X21.528
N31110G1X21.757Y-5.844
N31120G1X20.429
N31130G1X20.507Y-5.801
N31140G1X20.594Y-5.764
N31150G1X22.045
N31160G1X22.352Y-5.684
N31170G1X20.777
N31180G1X20.960Y-5.604
N31190G1X22.786
N31200G1X23.000Y-5.566
N31210G1X23.000Y-5.524
N31220G1X21.156
N31230G1X21.389Y-5.444
N31240G1X23.000
N31250G1X23.000Y-5.364
N31260G1X21.623
N31270G1X21.711Y-5.333
N31280G1X21.907Y-5.284
N31290G1X23.000
N31300G1X23.000Y-5.204
N31310G1X22.223
N31320G1X22.346Y-5.172
N31330G1X22.638Y-5.124
N31340G1X23.000
N31350G00Z6.000
N31360G00X17.230Y-8.736
N31370G1Z-0.500F480.0
N31380G1X16.911Y-9.290F1200.0
N31390G1X16.636Y-9.870
N31400G1X16.407Y-10.475
N31410G1X16.227Y-11.102
N31420G1X16.098Y-11.749
N31430G1X15.350Y-11.750
N31440G1X16.350Y-13.750
N31450G1X17.350Y-11.750
N31460G1X16.604Y-11.749
N31470G1X16.729Y-11.154
N31480G1X16.901Y-10.576
N31490G1X17.116Y-10.019
N31500G1X17.373Y-9.484
N31510G1X17.671Y-8.974
N31520G1X18.006Y-8.491
N31530G1X18.378Y-8.036
N31540G1X18.783Y-7.612
N31550G1X19.220Y-7.220
N31560G1X19.687Y-6.863
N31570G1X20.182Y-6.543
N31580G1X20.702Y-6.262
N31590G1X21.246Y-6.022
N31600G1X21.812Y-5.824
N31610G1X22.397Y-5.672
N31620G1X23.000Y-5.566
N31630G1X23.000Y-5.063
N31640G1X22.346Y-5.172
N31650G1X21.711Y-5.333
N31660G1X21.097Y-5.544
N31670G1X20.507Y-5.801
N31680G1X19.943Y-6.104
N31690G1X19.408Y-6.449
N31700G1X18.902Y-6.835
N31710G1X18.429Y-7.259
N31720G1X17.992Y-7.718
N31730G1X17.591Y-8.212
N31740G1X17.230Y-8.736
N31750G00Z6.000
N31760G00X7.683Y-13.683
N31770G1Z-0.500F480.0
N31780G1X7.617F1200.0
N31790G1X7.577Y-13.603
N31800G1X7.723
N31810G1X7.763Y-13.523
N31820G1X7.537
N31830G1X7.497Y-13.443
N31840G1X7.803
N31850G1X7.843Y-13.363
N31860G1X7.457
N31870G1X7.417Y-13.283
N31880G1X7.883
N31890G1X7.923Y-13.203
N31900G1X7.377
N31910G1X7.337Y-13.123
N31920G1X7.963
N31930G1X8.003Y-13.043
N31940G1X7.297
N31950G1X7.257Y-12.963
N31960G1X8.043
N31970G1X8.083Y-12.883
N31980G1X7.217
N31990G1X7.177Y-12.803
N32000G1X8.123
N32010G1X8.163Y-12.723
N32020G1X7.137
N32030G1X7.097Y-12.643
N32040G1X8.203
N32050G1X8.243Y-12.563
N32060G1X7.057
N32070G1X7.017Y-12.483
N32080G1X8.283
N32090G1X8.323Y-12.403
N32100G1X6.977
N32110G1X6.937Y-12.323
N32120G1X8.363
N32130G1X8.403Y-12.243
N32140G1X6.897
N32150G1X6.857Y-12.163
N32160G1X8.443
N32170G1X8.483Y-12.083
N32180G1X6.817
N32190G1X6.777Y-12.003
N32200G1X8.523
N32210G1X8.563Y-11.923
N32220G1X6.737
N32230G1X6.697Y-11.843
N32240G1X8.603
N32250G1X8.643Y-11.763
N32260G1X6.657
N32270G1X6.650Y-11.750
N32280G1X7.396Y-11.749
N32290G1X7.382Y-11.683
N32300G1X7.888
N32310G1X7.872Y-11.603
N32320G1X7.365
N32330G1X7.349Y-11.523
N32340G1X7.856
N32350G1X7.841Y-11.443
N32360G1X7.332
N32370G1X7.315Y-11.363
N32380G1X7.825
N32390G1X7.809Y-11.283
N32400G1X7.298
N32410G1X7.281Y-11.203
N32420G1X7.793
N32430G1X7.777Y-11.123
N32440G1X7.262
N32450G1X7.238Y-11.043
N32460G1X7.756
N32470G1X7.733Y-10.963
N32480G1X7.214
N32490G1X7.191Y-10.883
N32500G1X7.710
N32510G1X7.687Y-10.803
N32520G1X7.167
N32530G1X7.143Y-10.723
N32540G1X7.664
N32550G1X7.641Y-10.643
N32560G1X7.120
N32570G1X7.100Y-10.576
N32580G1X7.095Y-10.563
N32590G1X7.618
N32600G1X7.595Y-10.483
N32610G1X7.064
N32620G1X7.033Y-10.403
N32630G1X7.565
N32640G1X7.535Y-10.323
N32650G1X7.002
N32660G1X6.971Y-10.243
N32670G1X7.505
N32680G1X7.475Y-10.163
N32690G1X6.940
N32700G1X6.909Y-10.083
N32710G1X7.444
N32720G1X7.414Y-10.003
N32730G1X6.877
N32740G1X6.838Y-9.923
N32750G1X7.384
N32760G1X7.364Y-9.870
N32770G1X7.351Y-9.843
N32780G1X6.799
N32790G1X6.761Y-9.763
N32800G1X7.313
N32810G1X7.275Y-9.683
N32820G1X6.722
N32830G1X6.684Y-9.603
N32840G1X7.237
N32850G1X7.200Y-9.523
N32860G1X6.645
N32870G1X6.627Y-9.484
N32880G1X6.603Y-9.443
N32890G1X7.162
N32900G1X7.124Y-9.363
N32910G1X6.556
N32920G1X6.509Y-9.283
N32930G1X7.085
N32940G1X7.039Y-9.203
N32950G1X6.463
N32960G1X6.416Y-9.123
N32970G1X6.993
N32980G1X6.947Y-9.043
N32990G1X6.369
N33000G1X6.329Y-8.974
N33010G1X6.321Y-8.963
N33020G1X6.901
N33030G1X6.855Y-8.883
N33040G1X6.266
N33050G1X6.210Y-8.803
N33060G1X6.809
N33070G1X6.770Y-8.736
N33080G1X6.761Y-8.723
N33090G1X6.155
N33100G1X6.099Y-8.643
N33110G1X6.706
N33120G1X6.651Y-8.563
N33130G1X6.044
N33140G1X5.994Y-8.491
N33150G1X5.988Y-8.483
N33160G1X6.596
N33170G1X6.541Y-8.403
N33180G1X5.922
N33190G1X5.857Y-8.323
N33200G1X6.486
N33210G1X6.431Y-8.243
N33220G1X5.792
N33230G1X5.726Y-8.163
N33240G1X6.370
N33250G1X6.305Y-8.083
N33260G1X5.661
N33270G1X5.622Y-8.036
N33280G1X5.591Y-8.003
N33290G1X6.240
N33300G1X6.175Y-7.923
N33310G1X5.515
N33320G1X5.438Y-7.843
N33330G1X6.110
N33340G1X6.045Y-7.763
N33350G1X5.362
N33360G1X5.285Y-7.683
N33370G1X5.975
N33380G1X5.899Y-7.603
N33390G1X5.208
N33400G1X5.118Y-7.523
N33410G1X5.823
N33420G1X5.747Y-7.443
N33430G1X5.029
N33440G1X4.940Y-7.363
N33450G1X5.671
N33460G1X5.594Y-7.283
N33470G1X4.850
N33480G1X4.780Y-7.220
N33490G1X4.758Y-7.203
N33500G1X5.509
N33510G1X5.420Y-7.123
N33520G1X4.653
N33530G1X4.549Y-7.043
N33540G1X5.331
N33550G1X5.242Y-6.963
N33560G1X4.444
N33570G1X4.339Y-6.883
N33580G1X5.152
N33590G1X5.098Y-6.835
N33600G1X5.057Y-6.803
N33610G1X4.220
N33620G1X4.097Y-6.723
N33630G1X4.952
N33640G1X4.847Y-6.643
N33650G1X3.973
N33660G1X3.849Y-6.563
N33670G1X4.742
N33680G1X4.638Y-6.483
N33690G1X3.707
N33700G1X3.559Y-6.403
N33710G1X4.522
N33720G1X4.398Y-6.323
N33730G1X3.411
N33740G1X3.298Y-6.262
N33750G1X3.256Y-6.243
N33760G1X4.274
N33770G1X4.149Y-6.163
N33780G1X3.075
N33790G1X2.894Y-6.083
N33800G1X4.019
N33810G1X3.870Y-6.003
N33820G1X2.702
N33830G1X2.472Y-5.923
N33840G1X3.721
N33850G1X3.572Y-5.843
N33860G1X2.243
N33870G1X2.188Y-5.824
N33880G1X1.955Y-5.763
N33890G1X3.406
N33900G1X3.223Y-5.683
N33910G1X1.648
N33920G1X1.603Y-5.672
N33930G1X1.213Y-5.603
N33940G1X3.040
N33950G1X2.903Y-5.543
N33960G1X2.845Y-5.523
N33970G1X1.000
N33980G1X1.000Y-5.443
N33990G1X2.611
N34000G1X2.378Y-5.363
N34010G1X1.000
N34020G1X1.000Y-5.283
N34030G1X2.094
N34040G1X1.778Y-5.203
N34050G1X1.000
N34060G1X1.000Y-5.123
N34070G1X1.363
N34080G00Z6.000
N34090G00X7.396Y-11.749
N34100G1Z-0.500F480.0
N34110G1X6.650Y-11.750F1200.0
N34120G1X7.650Y-13.750
N34130G1X8.650Y-11.750
N34140G1X7.902Y-11.749
N34150G1X7.773Y-11.102
N34160G1X7.593Y-10.475
N34170G1X7.364Y-9.870
N34180G1X7.089Y-9.290
N34190G1X6.770Y-8.736
N34200G1X6.409Y-8.212
N34210G1X6.008Y-7.718
N34220G1X5.571Y-7.259
N34230G1X5.098Y-6.835
N34240G1X4.592Y-6.449
N34250G1X4.057Y-6.104
N34260G1X3.492Y-5.801
N34270G1X2.903Y-5.543
N34280G1X2.289Y-5.333
N34290G1X1.654Y-5.172
N34300G1X1.000Y-5.063
N34310G1X1.000Y-5.566
N34320G1X1.603Y-5.672
N34330G1X2.188Y-5.824
N34340G1X2.754Y-6.022
N34350G1X3.298Y-6.262
N34360G1X3.818Y-6.543
N34370G1X4.313Y-6.863
N34380G1X4.780Y-7.220
N34390G1X5.217Y-7.612
N34400G1X5.622Y-8.036
N34410G1X5.994Y-8.491
N34420G1X6.329Y-8.974
N34430G1X6.627Y-9.484
N34440G1X6.884Y-10.019
N34450G1X7.100Y-10.576
N34460G1X7.271Y-11.154
N34470G1X7.396Y-11.749
N34480G00Z6.000
N34490G00X2.432Y-22.481
N34500G1Z-0.500F480.0
N34510G1X2.097F1200.0
N34520G1X2.041Y-22.473
N34530G1X1.887Y-22.423
N34540G1X1.844Y-22.401
N34550G1X2.701
N34560G1X2.834Y-22.324
N34570G1X2.837Y-22.321
N34580G1X1.706
N34590G1X1.600Y-22.241
N34600G1X2.931
N34610G1X2.960Y-22.216
N34620G1X3.005Y-22.161
N34630G1X1.516
N34640G1X1.510Y-22.155
N34650G1X1.462Y-22.083
N34660G1X1.460Y-22.081
N34670G1X2.157
N34680G1X2.043Y-22.053
N34690G1X1.956Y-22.001
N34700G1X1.431
N34710G1X1.426Y-21.945
N34720G1X1.434Y-21.921
N34730G1X1.860
N34740G1X1.791Y-21.849
N34750G1X1.783Y-21.841
N34760G1X1.472
N34770G00Z6.000
N34780G00X2.380Y-22.081
N34790G1Z-0.500F480.0
N34800G1X3.069F1200.0
N34810G1X3.101Y-22.041
N34820G1X3.120Y-22.001
N34830G1X2.589
N34840G1X2.659Y-21.956
N34850G1X2.688Y-21.921
N34860G1X3.159
N34870G1X3.198Y-21.841
N34880G1X2.754
N34890G1X2.759Y-21.836
N34900G1X2.791Y-21.761
N34910G1X3.219
N34920G1X3.238Y-21.681
N34930G1X2.825
N34940G1X2.827Y-21.677
N34950G1X2.837Y-21.601
N34960G1X3.256
N34970G1X3.253Y-21.521
N34980G1X2.848
N34990G1X2.851Y-21.502
N35000G1X2.840Y-21.441
N35010G1X3.251
N35020G1X3.249Y-21.378
N35030G1X3.245Y-21.361
N35040G1X2.826
N35050G1X2.819Y-21.318
N35060G1X2.804Y-21.281
N35070G1X3.226
N35080G1X3.207Y-21.201
N35090G1X2.766
N35100G1X2.735Y-21.152
N35110G1X2.707Y-21.121
N35120G1X3.173
N35130G1X3.138Y-21.041
N35140G1X2.616
N35150G1X2.603Y-21.031
N35160G1X2.456Y-20.961
N35170G1X3.089
N35180G1X3.033Y-20.881
N35190G1X1.551
N35200G1Y-20.801
N35210G1X2.955
N35220G1X2.885Y-20.734
N35230G1X2.864Y-20.721
N35240G1X1.551
N35250G1Y-20.641
N35260G1X2.739
N35270G1X2.720Y-20.629
N35280G1X2.553Y-20.561
N35290G1X1.985
N35300G00Z6.000
N35310G00X1.921Y-21.041
N35320G1Z-0.500F480.0
N35330G1X1.601F1200.0
N35340G1X1.569Y-20.999
N35350G1X1.561Y-20.961
N35360G1X2.076
N35370G00Z6.000
N35380G00X1.955Y-20.561
N35390G1Z-0.500F480.0
N35400G1X1.551F1200.0
N35410G1Y-20.481
N35420G1X1.955
N35430G1Y-20.401
N35440G1X1.551
N35450G1Y-20.321
N35460G1X1.955
N35470G1Y-20.241
N35480G1X1.551
N35490G1Y-20.161
N35500G1X1.955
N35510G1Y-20.081
N35520G1X1.551
N35530G1Y-20.001
N35540G1X1.955
N35550G1Y-19.921
N35560G1X1.551
N35570G1Y-19.841
N35580G1X2.855
N35590G1X2.862Y-19.835
N35600G1X2.894Y-19.780
N35610G1X2.899Y-19.761
N35620G1X1.551
N35630G1Y-19.701
N35640G1X1.553Y-19.681
N35650G1X2.911
N35660G1X2.910Y-19.663
N35670G1X2.891Y-19.610
N35680G1X2.884Y-19.601
N35690G1X1.579
N35700G1X1.590Y-19.576
N35710G1X1.632Y-19.533
N35720G1X1.658Y-19.521
N35730G1X2.796
N35740G00Z6.000
N35750G00X1.686Y-19.507
N35760G1Z-0.500F480.0
N35770G1X1.632Y-19.533F1200.0
N35780G1X1.590Y-19.576
N35790G1X1.561Y-19.636
N35800G1X1.555Y-19.664
N35810G1X1.551Y-19.701
N35820G1Y-20.912
N35830G1X1.569Y-20.999
N35840G1X1.623Y-21.068
N35850G1X1.700Y-21.110
N35860G1X1.788Y-21.113
N35870G1X1.882Y-21.069
N35880G1X1.957Y-21.015
N35890G1X2.107Y-20.947
N35900G1X2.270Y-20.924
N35910G1X2.435Y-20.951
N35920G1X2.603Y-21.031
N35930G1X2.675Y-21.086
N35940G1X2.735Y-21.152
N35950G1X2.783Y-21.229
N35960G1X2.819Y-21.318
N35970G1X2.851Y-21.502
N35980G1X2.827Y-21.677
N35990G1X2.759Y-21.836
N36000G1X2.659Y-21.956
N36010G1X2.528Y-22.040
N36020G1X2.365Y-22.085
N36030G1X2.195Y-22.090
N36040G1X2.043Y-22.053
N36050G1X1.908Y-21.972
N36060G1X1.791Y-21.849
N36070G1X1.736Y-21.795
N36080G1X1.659Y-21.767
N36090G1X1.579Y-21.768
N36100G1X1.509Y-21.800
N36110G1X1.454Y-21.860
N36120G1X1.426Y-21.945
N36130G1X1.434Y-22.033
N36140G1X1.446Y-22.059
N36150G1X1.462Y-22.083
N36160G1X1.510Y-22.155
N36170G1X1.585Y-22.229
N36180G1X1.740Y-22.347
N36190G1X1.887Y-22.423
N36200G1X2.041Y-22.473
N36210G1X2.203Y-22.496
N36220G1X2.373Y-22.492
N36230G1X2.540Y-22.461
N36240G1X2.693Y-22.405
N36250G1X2.834Y-22.324
N36260G1X2.960Y-22.216
N36270G1X3.101Y-22.041
N36280G1X3.203Y-21.832
N36290G1X3.256Y-21.605
N36300G1X3.249Y-21.378
N36310G1X3.206Y-21.197
N36320G1X3.128Y-21.018
N36330G1X3.021Y-20.864
N36340G1X2.885Y-20.734
N36350G1X2.720Y-20.629
N36360G1X2.539Y-20.555
N36370G1X2.355Y-20.520
N36380G1X2.168Y-20.522
N36390G1X1.977Y-20.562
N36400G1X1.955Y-20.570
N36410G1Y-19.905
N36420G1X2.708
N36430G1X2.769Y-19.897
N36440G1X2.821Y-19.873
N36450G1X2.862Y-19.835
N36460G1X2.894Y-19.780
N36470G1X2.911Y-19.720
N36480G1X2.910Y-19.663
N36490G1X2.891Y-19.610
N36500G1X2.853Y-19.560
N36510G1X2.786Y-19.514
N36520G1X2.708Y-19.499
N36530G1X1.753
N36540G1X1.686Y-19.507
N36550G00Z6.000
N36560G00X-0.935Y-22.462
N36570G1Z-0.500F480.0
N36580G1X-0.692F1200.0
N36590G1X-0.675Y-22.451
N36600G1X-0.632Y-22.387
N36610G1X-0.631Y-22.382
N36620G1X-0.997
N36630G1X-1.019Y-22.302
N36640G1X-0.608
N36650G1X-0.607Y-22.297
N36660G1Y-22.222
N36670G1X-1.020
N36680G1Y-22.142
N36690G1X-0.607
N36700G1Y-22.062
N36710G1X-1.020
N36720G1Y-21.982
N36730G1X-0.607
N36740G1Y-21.902
N36750G1X-1.020
N36760G1Y-21.822
N36770G1X-0.607
N36780G1Y-21.742
N36790G1X-1.020
N36800G1Y-21.662
N36810G1X-0.607
N36820G1Y-21.582
N36830G1X-1.020
N36840G1Y-21.502
N36850G1X-0.607
N36860G1Y-21.422
N36870G1X-1.020
N36880G1Y-21.342
N36890G1X-0.607
N36900G1Y-21.262
N36910G1X-1.020
N36920G1Y-21.182
N36930G1X-0.607
N36940G1Y-21.102
N36950G1X-1.020
N36960G1Y-21.022
N36970G1X-0.607
N36980G1Y-20.942
N36990G1X-1.020
N37000G1Y-20.862
N37010G1X-0.607
N37020G1Y-20.782
N37030G1X-1.020
N37040G1Y-20.702
N37050G1X-0.607
N37060G1Y-20.622
N37070G1X-1.020
N37080G1Y-20.542
N37090G1X-0.607
N37100G1Y-20.462
N37110G1X-1.020
N37120G1Y-20.382
N37130G1X-0.154
N37140G1X-0.203Y-20.302
N37150G1X-1.020
N37160G1Y-20.222
N37170G1X-0.253
N37180G1X-0.303Y-20.142
N37190G1X-1.020
N37200G1Y-20.062
N37210G1X-0.353
N37220G1X-0.403Y-19.982
N37230G1X-1.020
N37240G1Y-19.902
N37250G1X-0.452
N37260G1X-0.502Y-19.822
N37270G1X-1.020
N37280G1Y-19.742
N37290G1X-0.552
N37300G1X-0.602Y-19.662
N37310G1X-1.008
N37320G1X-1.002Y-19.640
N37330G1X-0.970Y-19.583
N37340G1X-0.968Y-19.582
N37350G1X-0.655
N37360G1X-0.688Y-19.542
N37370G1X-0.741Y-19.508
N37380G1X-0.771Y-19.502
N37390G1X-0.827
N37400G00Z6.000
N37410G00X0.674Y-22.462
N37420G1Z-0.500F480.0
N37430G1X0.922F1200.0
N37440G1X0.966Y-22.423
N37450G1X0.986Y-22.382
N37460G1X0.609
N37470G1X0.559Y-22.302
N37480G1X1.003
N37490G1X1.003Y-22.297
N37500G1Y-22.222
N37510G1X0.509
N37520G1X0.460Y-22.142
N37530G1X1.003
N37540G1Y-22.062
N37550G1X0.410
N37560G1X0.360Y-21.982
N37570G1X1.003
N37580G1Y-21.902
N37590G1X0.310
N37600G1X0.260Y-21.822
N37610G1X1.003
N37620G1Y-21.742
N37630G1X0.210
N37640G1X0.160Y-21.662
N37650G1X1.003
N37660G1Y-21.582
N37670G1X0.110
N37680G1X0.060Y-21.502
N37690G1X0.544
N37700G1X0.494Y-21.422
N37710G1X0.011
N37720G1X-0.039Y-21.342
N37730G1X0.444
N37740G1X0.394Y-21.262
N37750G1X-0.089
N37760G1X-0.139Y-21.182
N37770G1X0.345
N37780G1X0.295Y-21.102
N37790G1X-0.189
N37800G1X-0.239Y-21.022
N37810G1X0.245
N37820G1X0.195Y-20.942
N37830G1X-0.289
N37840G1X-0.339Y-20.862
N37850G1X0.145
N37860G1X0.096Y-20.782
N37870G1X-0.389
N37880G1X-0.438Y-20.702
N37890G1X0.046
N37900G1X-0.004Y-20.622
N37910G1X-0.488
N37920G1X-0.538Y-20.542
N37930G1X-0.054
N37940G1X-0.104Y-20.462
N37950G1X-0.588
N37960G00Z6.000
N37970G00X0.590Y-21.502
N37980G1Z-0.500F480.0
N37990G1X1.003F1200.0
N38000G1Y-21.422
N38010G1X0.590
N38020G1Y-21.342
N38030G1X1.003
N38040G1Y-21.262
N38050G1X0.590
N38060G1Y-21.182
N38070G1X1.003
N38080G1Y-21.102
N38090G1X0.590
N38100G1Y-21.022
N38110G1X1.003
N38120G1Y-20.942
N38130G1X0.590
N38140G1Y-20.862
N38150G1X1.003
N38160G1Y-20.782
N38170G1X0.590
N38180G1Y-20.702
N38190G1X1.003
N38200G1Y-20.622
N38210G1X0.590
N38220G1Y-20.542
N38230G1X1.003
N38240G1Y-20.462
N38250G1X0.590
N38260G1Y-20.382
N38270G1X1.003
N38280G1Y-20.302
N38290G1X0.590
N38300G1Y-20.222
N38310G1X1.003
N38320G1Y-20.142
N38330G1X0.590
N38340G1Y-20.062
N38350G1X1.003
N38360G1Y-19.982
N38370G1X0.590
N38380G1Y-19.902
N38390G1X1.003
N38400G1Y-19.822
N38410G1X0.590
N38420G1Y-19.742
N38430G1X1.003
N38440G1Y-19.710
N38450G1X0.994Y-19.662
N38460G1X0.602
N38470G1X0.614Y-19.618
N38480G1X0.638Y-19.582
N38490G1X0.962
N38500G00Z6.000
N38510G00X-1.020Y-22.297
N38520G1Z-0.500F480.0
N38530G1X-0.995Y-22.387F1200.0
N38540G1X-0.953Y-22.451
N38550G1X-0.893Y-22.489
N38560G1X-0.814Y-22.502
N38570G1X-0.735Y-22.489
N38580G1X-0.675Y-22.451
N38590G1X-0.632Y-22.387
N38600G1X-0.607Y-22.297
N38610G1Y-20.432
N38620G1X0.624Y-22.405
N38630G1X0.669Y-22.459
N38640G1X0.722Y-22.491
N38650G1X0.784Y-22.503
N38660G1X0.854Y-22.492
N38670G1X0.920Y-22.465
N38680G1X0.966Y-22.423
N38690G1X0.994Y-22.367
N38700G1X1.003Y-22.297
N38710G1Y-19.710
N38720G1X0.985Y-19.620
N38730G1X0.946Y-19.555
N38740G1X0.885Y-19.516
N38750G1X0.803Y-19.502
N38760G1X0.720Y-19.515
N38770G1X0.657Y-19.553
N38780G1X0.614Y-19.618
N38790G1X0.590Y-19.710
N38800G1Y-21.576
N38810G1X-0.640Y-19.600
N38820G1X-0.688Y-19.542
N38830G1X-0.741Y-19.508
N38840G1X-0.800Y-19.497
N38850G1X-0.864Y-19.509
N38860G1X-0.924Y-19.540
N38870G1X-0.970Y-19.583
N38880G1X-1.002Y-19.640
N38890G1X-1.020Y-19.710
N38900G1Y-22.297
N38910G00Z6.000
N38920G00X-1.579Y-22.485
N38930G1Z-0.500F480.0
N38940G1X-3.106F1200.0
N38950G1X-3.133Y-22.477
N38960G1X-3.195Y-22.435
N38970G1X-3.216Y-22.405
N38980G1X-1.461
N38990G1X-1.440Y-22.373
N39000G1X-1.432Y-22.325
N39010G1X-3.251
N39020G1X-3.260Y-22.291
N39030G1Y-22.245
N39040G1X-1.435
N39050G1X-1.440Y-22.215
N39060G1X-1.472Y-22.165
N39070G1X-3.260
N39080G1Y-22.085
N39090G1X-2.848
N39100G1Y-22.005
N39110G1X-3.260
N39120G1Y-21.925
N39130G1X-2.848
N39140G1Y-21.845
N39150G1X-3.260
N39160G1Y-21.765
N39170G1X-2.848
N39180G1Y-21.685
N39190G1X-3.260
N39200G1Y-21.605
N39210G1X-2.848
N39220G1Y-21.525
N39230G1X-3.260
N39240G1Y-21.445
N39250G1X-2.848
N39260G1Y-21.365
N39270G1X-3.260
N39280G1Y-21.285
N39290G1X-2.848
N39300G1Y-21.205
N39310G1X-3.260
N39320G1Y-21.125
N39330G1X-1.921
N39340G1X-1.832Y-21.101
N39350G1X-1.767Y-21.058
N39360G1X-1.758Y-21.045
N39370G1X-3.260
N39380G1Y-20.965
N39390G1X-1.723
N39400G1X-1.715Y-20.918
N39410G1X-1.720Y-20.885
N39420G1X-3.260
N39430G1Y-20.805
N39440G1X-1.749
N39450G1X-1.766Y-20.776
N39460G1X-1.831Y-20.733
N39470G1X-1.864Y-20.725
N39480G1X-3.260
N39490G1Y-20.645
N39500G1X-2.848
N39510G1Y-20.565
N39520G1X-3.260
N39530G1Y-20.485
N39540G1X-2.848
N39550G1Y-20.405
N39560G1X-3.260
N39570G1Y-20.325
N39580G1X-2.848
N39590G1Y-20.245
N39600G1X-3.260
N39610G1Y-20.165
N39620G1X-2.848
N39630G1Y-20.085
N39640G1X-3.260
N39650G1Y-20.005
N39660G1X-2.848
N39670G1Y-19.925
N39680G1X-3.260
N39690G1Y-19.845
N39700G1X-1.476
N39710G1X-1.441Y-19.788
N39720G1X-1.437Y-19.765
N39730G1X-3.260
N39740G1Y-19.704
N39750G1X-3.255Y-19.685
N39760G1X-1.431
N39770G1X-1.440Y-19.621
N39780G1X-1.450Y-19.605
N39790G1X-3.227
N39800G1X-3.194Y-19.556
N39810G1X-3.146Y-19.525
N39820G1X-1.532
N39830G00Z6.000
N39840G00X-1.440Y-19.621
N39850G1Z-0.500F480.0
N39860G1X-1.479Y-19.558F1200.0
N39870G1X-1.543Y-19.518
N39880G1X-1.634Y-19.499
N39890G1X-3.052
N39900G1X-3.132Y-19.516
N39910G1X-3.194Y-19.556
N39920G1X-3.236Y-19.619
N39930G1X-3.260Y-19.704
N39940G1Y-22.291
N39950G1X-3.237Y-22.373
N39960G1X-3.195Y-22.435
N39970G1X-3.133Y-22.477
N39980G1X-3.052Y-22.499
N39990G1X-1.634
N40000G1X-1.543Y-22.475
N40010G1X-1.479Y-22.433
N40020G1X-1.440Y-22.373
N40030G1X-1.427Y-22.294
N40040G1X-1.440Y-22.215
N40050G1X-1.479Y-22.154
N40060G1X-1.543Y-22.112
N40070G1X-1.634Y-22.087
N40080G1X-2.848
N40090G1Y-21.125
N40100G1X-1.922
N40110G1X-1.832Y-21.101
N40120G1X-1.767Y-21.058
N40130G1X-1.728Y-20.997
N40140G1X-1.715Y-20.918
N40150G1X-1.728Y-20.838
N40160G1X-1.766Y-20.776
N40170G1X-1.831Y-20.733
N40180G1X-1.922Y-20.709
N40190G1X-2.848
N40200G1Y-19.908
N40210G1X-1.634
N40220G1X-1.544Y-19.890
N40230G1X-1.480Y-19.850
N40240G1X-1.441Y-19.788
N40250G1X-1.428Y-19.705
N40260G1X-1.440Y-19.621
N40270G00Z6.000
N40280G00X-7.617Y-13.684
N40290G1Z-0.500F480.0
N40300G1X-7.683F1200.0
N40310G1X-7.723Y-13.604
N40320G1X-7.577
N40330G1X-7.537Y-13.524
N40340G1X-7.763
N40350G1X-7.803Y-13.444
N40360G1X-7.497
N40370G1X-7.457Y-13.364
N40380G1X-7.843
N40390G1X-7.883Y-13.284
N40400G1X-7.417
N40410G1X-7.377Y-13.204
N40420G1X-7.923
N40430G1X-7.963Y-13.124
N40440G1X-7.337
N40450G1X-7.297Y-13.044
N40460G1X-8.003
N40470G1X-8.043Y-12.964
N40480G1X-7.257
N40490G1X-7.217Y-12.884
N40500G1X-8.083
N40510G1X-8.123Y-12.804
N40520G1X-7.177
N40530G1X-7.137Y-12.724
N40540G1X-8.163
N40550G1X-8.203Y-12.644
N40560G1X-7.097
N40570G1X-7.057Y-12.564
N40580G1X-8.243
N40590G1X-8.283Y-12.484
N40600G1X-7.017
N40610G1X-6.977Y-12.404
N40620G1X-8.323
N40630G1X-8.363Y-12.324
N40640G1X-6.937
N40650G1X-6.897Y-12.244
N40660G1X-8.403
N40670G1X-8.443Y-12.164
N40680G1X-6.857
N40690G1X-6.817Y-12.084
N40700G1X-8.483
N40710G1X-8.523Y-12.004
N40720G1X-6.777
N40730G1X-6.737Y-11.924
N40740G1X-8.563
N40750G1X-8.603Y-11.844
N40760G1X-6.697
N40770G1X-6.657Y-11.764
N40780G1X-8.643
N40790G1X-8.650Y-11.750
N40800G1X-7.902Y-11.749
N40810G1X-7.889Y-11.684
N40820G1X-7.382
N40830G1X-7.365Y-11.604
N40840G1X-7.873
N40850G1X-7.857Y-11.524
N40860G1X-7.349
N40870G1X-7.332Y-11.444
N40880G1X-7.841
N40890G1X-7.825Y-11.364
N40900G1X-7.315
N40910G1X-7.298Y-11.284
N40920G1X-7.809
N40930G1X-7.793Y-11.204
N40940G1X-7.281
N40950G1X-7.271Y-11.154
N40960G1X-7.262Y-11.124
N40970G1X-7.777
N40980G1X-7.773Y-11.102
N40990G1X-7.756Y-11.044
N41000G1X-7.238
N41010G1X-7.214Y-10.964
N41020G1X-7.733
N41030G1X-7.710Y-10.884
N41040G1X-7.191
N41050G1X-7.167Y-10.804
N41060G1X-7.687
N41070G1X-7.664Y-10.724
N41080G1X-7.143
N41090G1X-7.120Y-10.644
N41100G1X-7.641
N41110G1X-7.618Y-10.564
N41120G1X-7.095
N41130G1X-7.064Y-10.484
N41140G1X-7.595
N41150G1X-7.593Y-10.475
N41160G1X-7.566Y-10.404
N41170G1X-7.033
N41180G1X-7.002Y-10.324
N41190G1X-7.535
N41200G1X-7.505Y-10.244
N41210G1X-6.971
N41220G1X-6.940Y-10.164
N41230G1X-7.475
N41240G1X-7.445Y-10.084
N41250G1X-6.909
N41260G1X-6.884Y-10.019
N41270G1X-6.877Y-10.004
N41280G1X-7.414
N41290G1X-7.384Y-9.924
N41300G1X-6.838
N41310G1X-6.799Y-9.844
N41320G1X-7.351
N41330G1X-7.313Y-9.764
N41340G1X-6.761
N41350G1X-6.722Y-9.684
N41360G1X-7.275
N41370G1X-7.238Y-9.604
N41380G1X-6.684
N41390G1X-6.645Y-9.524
N41400G1X-7.200
N41410G1X-7.162Y-9.444
N41420G1X-6.603
N41430G1X-6.556Y-9.364
N41440G1X-7.124
N41450G1X-7.089Y-9.290
N41460G1X-7.085Y-9.284
N41470G1X-6.509
N41480G1X-6.463Y-9.204
N41490G1X-7.039
N41500G1X-6.993Y-9.124
N41510G1X-6.416
N41520G1X-6.369Y-9.044
N41530G1X-6.947
N41540G1X-6.901Y-8.964
N41550G1X-6.321
N41560G1X-6.266Y-8.884
N41570G1X-6.855
N41580G1X-6.809Y-8.804
N41590G1X-6.210
N41600G1X-6.155Y-8.724
N41610G1X-6.761
N41620G1X-6.706Y-8.644
N41630G1X-6.099
N41640G1X-6.044Y-8.564
N41650G1X-6.651
N41660G1X-6.596Y-8.484
N41670G1X-5.988
N41680G1X-5.922Y-8.404
N41690G1X-6.541
N41700G1X-6.486Y-8.324
N41710G1X-5.857
N41720G1X-5.792Y-8.244
N41730G1X-6.431
N41740G1X-6.409Y-8.212
N41750G1X-6.370Y-8.164
N41760G1X-5.726
N41770G1X-5.661Y-8.084
N41780G1X-6.305
N41790G1X-6.240Y-8.004
N41800G1X-5.591
N41810G1X-5.515Y-7.924
N41820G1X-6.175
N41830G1X-6.110Y-7.844
N41840G1X-5.438
N41850G1X-5.362Y-7.764
N41860G1X-6.045
N41870G1X-6.008Y-7.718
N41880G1X-5.975Y-7.684
N41890G1X-5.285
N41900G1X-5.217Y-7.612
N41910G1X-5.208Y-7.604
N41920G1X-5.899
N41930G1X-5.823Y-7.524
N41940G1X-5.118
N41950G1X-5.029Y-7.444
N41960G1X-5.747
N41970G1X-5.670Y-7.364
N41980G1X-4.940
N41990G1X-4.850Y-7.284
N42000G1X-5.594
N42010G1X-5.571Y-7.259
N42020G1X-5.509Y-7.204
N42030G1X-4.758
N42040G1X-4.653Y-7.124
N42050G1X-5.420
N42060G1X-5.331Y-7.044
N42070G1X-4.549
N42080G1X-4.444Y-6.964
N42090G1X-5.241
N42100G1X-5.152Y-6.884
N42110G1X-4.339
N42120G1X-4.313Y-6.863
N42130G1X-4.220Y-6.804
N42140G1X-5.057
N42150G1X-4.952Y-6.724
N42160G1X-4.097
N42170G1X-3.973Y-6.644
N42180G1X-4.847
N42190G1X-4.742Y-6.564
N42200G1X-3.849
N42210G1X-3.818Y-6.543
N42220G1X-3.707Y-6.484
N42230G1X-4.638
N42240G1X-4.592Y-6.449
N42250G1X-4.522Y-6.404
N42260G1X-3.559
N42270G1X-3.411Y-6.324
N42280G1X-4.398
N42290G1X-4.273Y-6.244
N42300G1X-3.256
N42310G1X-3.075Y-6.164
N42320G1X-4.149
N42330G1X-4.057Y-6.104
N42340G1X-4.019Y-6.084
N42350G1X-2.894
N42360G1X-2.754Y-6.022
N42370G1X-2.702Y-6.004
N42380G1X-3.870
N42390G1X-3.720Y-5.924
N42400G1X-2.472
N42410G1X-2.243Y-5.844
N42420G1X-3.571
N42430G1X-3.493Y-5.801
N42440G1X-3.406Y-5.764
N42450G1X-1.955
N42460G1X-1.648Y-5.684
N42470G1X-3.223
N42480G1X-3.040Y-5.604
N42490G1X-1.214
N42500G1X-1.000Y-5.566
N42510G1X-1.000Y-5.524
N42520G1X-2.844
N42530G1X-2.611Y-5.444
N42540G1X-1.000
N42550G1X-1.000Y-5.364
N42560G1X-2.377
N42570G1X-2.289Y-5.333
N42580G1X-2.093Y-5.284
N42590G1X-1.000
N42600G1X-1.000Y-5.204
N42610G1X-1.777
N42620G1X-1.654Y-5.172
N42630G1X-1.362Y-5.124
N42640G1X-1.000
N42650G00Z6.000
N42660G00X-6.770Y-8.736
N42670G1Z-0.500F480.0
N42680G1X-7.089Y-9.290F1200.0
N42690G1X-7.364Y-9.870
N42700G1X-7.593Y-10.475
N42710G1X-7.773Y-11.102
N42720G1X-7.902Y-11.749
N42730G1X-8.650Y-11.750
N42740G1X-7.650Y-13.750
N42750G1X-6.650Y-11.750
N42760G1X-7.396Y-11.749
N42770G1X-7.271Y-11.154
N42780G1X-7.099Y-10.576
N42790G1X-6.884Y-10.019
N42800G1X-6.627Y-9.484
N42810G1X-6.329Y-8.974
N42820G1X-5.994Y-8.491
N42830G1X-5.622Y-8.036
N42840G1X-5.217Y-7.612
N42850G1X-4.780Y-7.220
N42860G1X-4.313Y-6.863
N42870G1X-3.818Y-6.543
N42880G1X-3.298Y-6.262
N42890G1X-2.754Y-6.022
N42900G1X-2.188Y-5.824
N42910G1X-1.603Y-5.672
N42920G1X-1.000Y-5.566
N42930G1X-1.000Y-5.063
N42940G1X-1.654Y-5.172
N42950G1X-2.289Y-5.333
N42960G1X-2.903Y-5.544
N42970G1X-3.493Y-5.801
N42980G1X-4.057Y-6.104
N42990G1X-4.592Y-6.449
N43000G1X-5.098Y-6.835
N43010G1X-5.571Y-7.259
N43020G1X-6.008Y-7.718
N43030G1X-6.409Y-8.212
N43040G1X-6.770Y-8.736
N43050G00Z6.000
N43060G00X-16.317Y-13.683
N43070G1Z-0.500F480.0
N43080G1X-16.383F1200.0
N43090G1X-16.423Y-13.603
N43100G1X-16.277
N43110G1X-16.237Y-13.523
N43120G1X-16.463
N43130G1X-16.503Y-13.443
N43140G1X-16.197
N43150G1X-16.157Y-13.363
N43160G1X-16.543
N43170G1X-16.583Y-13.283
N43180G1X-16.117
N43190G1X-16.077Y-13.203
N43200G1X-16.623
N43210G1X-16.663Y-13.123
N43220G1X-16.037
N43230G1X-15.997Y-13.043
N43240G1X-16.703
N43250G1X-16.743Y-12.963
N43260G1X-15.957
N43270G1X-15.917Y-12.883
N43280G1X-16.783
N43290G1X-16.823Y-12.803
N43300G1X-15.877
N43310G1X-15.837Y-12.723
N43320G1X-16.863
N43330G1X-16.903Y-12.643
N43340G1X-15.797
N43350G1X-15.757Y-12.563
N43360G1X-16.943
N43370G1X-16.983Y-12.483
N43380G1X-15.717
N43390G1X-15.677Y-12.403
N43400G1X-17.023
N43410G1X-17.063Y-12.323
N43420G1X-15.637
N43430G1X-15.597Y-12.243
N43440G1X-17.103
N43450G1X-17.143Y-12.163
N43460G1X-15.557
N43470G1X-15.517Y-12.083
N43480G1X-17.183
N43490G1X-17.223Y-12.003
N43500G1X-15.477
N43510G1X-15.437Y-11.923
N43520G1X-17.263
N43530G1X-17.303Y-11.843
N43540G1X-15.397
N43550G1X-15.357Y-11.763
N43560G1X-17.343
N43570G1X-17.350Y-11.750
N43580G1X-16.604Y-11.749
N43590G1X-16.618Y-11.683
N43600G1X-16.112
N43610G1X-16.128Y-11.603
N43620G1X-16.635
N43630G1X-16.651Y-11.523
N43640G1X-16.144
N43650G1X-16.159Y-11.443
N43660G1X-16.668
N43670G1X-16.685Y-11.363
N43680G1X-16.175
N43690G1X-16.191Y-11.283
N43700G1X-16.702
N43710G1X-16.719Y-11.203
N43720G1X-16.207
N43730G1X-16.223Y-11.123
N43740G1X-16.738
N43750G1X-16.762Y-11.043
N43760G1X-16.244
N43770G1X-16.267Y-10.963
N43780G1X-16.786
N43790G1X-16.809Y-10.883
N43800G1X-16.290
N43810G1X-16.313Y-10.803
N43820G1X-16.833
N43830G1X-16.857Y-10.723
N43840G1X-16.336
N43850G1X-16.359Y-10.643
N43860G1X-16.880
N43870G1X-16.900Y-10.576
N43880G1X-16.905Y-10.563
N43890G1X-16.382
N43900G1X-16.405Y-10.483
N43910G1X-16.936
N43920G1X-16.967Y-10.403
N43930G1X-16.435
N43940G1X-16.465Y-10.323
N43950G1X-16.998
N43960G1X-17.029Y-10.243
N43970G1X-16.495
N43980G1X-16.525Y-10.163
N43990G1X-17.060
N44000G1X-17.091Y-10.083
N44010G1X-16.556
N44020G1X-16.586Y-10.003
N44030G1X-17.123
N44040G1X-17.162Y-9.923
N44050G1X-16.616
N44060G1X-16.636Y-9.870
N44070G1X-16.649Y-9.843
N44080G1X-17.201
N44090G1X-17.239Y-9.763
N44100G1X-16.687
N44110G1X-16.725Y-9.683
N44120G1X-17.278
N44130G1X-17.316Y-9.603
N44140G1X-16.763
N44150G1X-16.800Y-9.523
N44160G1X-17.355
N44170G1X-17.373Y-9.484
N44180G1X-17.397Y-9.443
N44190G1X-16.838
N44200G1X-16.876Y-9.363
N44210G1X-17.444
N44220G1X-17.491Y-9.283
N44230G1X-16.915
N44240G1X-16.961Y-9.203
N44250G1X-17.537
N44260G1X-17.584Y-9.123
N44270G1X-17.007
N44280G1X-17.053Y-9.043
N44290G1X-17.631
N44300G1X-17.671Y-8.974
N44310G1X-17.679Y-8.963
N44320G1X-17.099
N44330G1X-17.145Y-8.883
N44340G1X-17.734
N44350G1X-17.790Y-8.803
N44360G1X-17.191
N44370G1X-17.230Y-8.736
N44380G1X-17.239Y-8.723
N44390G1X-17.845
N44400G1X-17.901Y-8.643
N44410G1X-17.294
N44420G1X-17.349Y-8.563
N44430G1X-17.956
N44440G1X-18.006Y-8.491
N44450G1X-18.012Y-8.483
N44460G1X-17.404
N44470G1X-17.459Y-8.403
N44480G1X-18.078
N44490G1X-18.143Y-8.323
N44500G1X-17.514
N44510G1X-17.569Y-8.243
N44520G1X-18.208
N44530G1X-18.274Y-8.163
N44540G1X-17.630
N44550G1X-17.695Y-8.083
N44560G1X-18.339
N44570G1X-18.378Y-8.036
N44580G1X-18.409Y-8.003
N44590G1X-17.760
N44600G1X-17.825Y-7.923
N44610G1X-18.485
N44620G1X-18.562Y-7.843
N44630G1X-17.890
N44640G1X-17.955Y-7.763
N44650G1X-18.638
N44660G1X-18.715Y-7.683
N44670G1X-18.025
N44680G1X-18.101Y-7.603
N44690G1X-18.792
N44700G1X-18.882Y-7.523
N44710G1X-18.177
N44720G1X-18.253Y-7.443
N44730G1X-18.971
N44740G1X-19.060Y-7.363
N44750G1X-18.329
N44760G1X-18.406Y-7.283
N44770G1X-19.150
N44780G1X-19.220Y-7.220
N44790G1X-19.242Y-7.203
N44800G1X-18.491
N44810G1X-18.580Y-7.123
N44820G1X-19.347
N44830G1X-19.451Y-7.043
N44840G1X-18.669
N44850G1X-18.758Y-6.963
N44860G1X-19.556
N44870G1X-19.661Y-6.883
N44880G1X-18.848
N44890G1X-18.902Y-6.835
N44900G1X-18.943Y-6.803
N44910G1X-19.780
N44920G1X-19.903Y-6.723
N44930G1X-19.048
N44940G1X-19.153Y-6.643
N44950G1X-20.027
N44960G1X-20.151Y-6.563
N44970G1X-19.258
N44980G1X-19.362Y-6.483
N44990G1X-20.293
N45000G1X-20.441Y-6.403
N45010G1X-19.478
N45020G1X-19.602Y-6.323
N45030G1X-20.589
N45040G1X-20.702Y-6.262
N45050G1X-20.744Y-6.243
N45060G1X-19.726
N45070G1X-19.851Y-6.163
N45080G1X-20.925
N45090G1X-21.106Y-6.083
N45100G1X-19.981
N45110G1X-20.130Y-6.003
N45120G1X-21.298
N45130G1X-21.528Y-5.923
N45140G1X-20.279
N45150G1X-20.428Y-5.843
N45160G1X-21.757
N45170G1X-21.812Y-5.824
N45180G1X-22.045Y-5.763
N45190G1X-20.594
N45200G1X-20.777Y-5.683
N45210G1X-22.352
N45220G1X-22.397Y-5.672
N45230G1X-22.787Y-5.603
N45240G1X-20.960
N45250G1X-21.097Y-5.543
N45260G1X-21.155Y-5.523
N45270G1X-23.000
N45280G1X-23.000Y-5.443
N45290G1X-21.389
N45300G1X-21.622Y-5.363
N45310G1X-23.000
N45320G1X-23.000Y-5.283
N45330G1X-21.906
N45340G1X-22.222Y-5.203
N45350G1X-23.000
N45360G1X-23.000Y-5.123
N45370G1X-22.637
N45380G00Z6.000
N45390G00X-16.604Y-11.749
N45400G1Z-0.500F480.0
N45410G1X-17.350Y-11.750F1200.0
N45420G1X-16.350Y-13.750
N45430G1X-15.350Y-11.750
N45440G1X-16.098Y-11.749
N45450G1X-16.227Y-11.102
N45460G1X-16.407Y-10.475
N45470G1X-16.636Y-9.870
N45480G1X-16.911Y-9.290
N45490G1X-17.230Y-8.736
N45500G1X-17.591Y-8.212
N45510G1X-17.992Y-7.718
N45520G1X-18.429Y-7.259
N45530G1X-18.902Y-6.835
N45540G1X-19.408Y-6.449
N45550G1X-19.943Y-6.104
N45560G1X-20.508Y-5.801
N45570G1X-21.097Y-5.543
N45580G1X-21.711Y-5.333
N45590G1X-22.346Y-5.172
N45600G1X-23.000Y-5.063
N45610G1X-23.000Y-5.566
N45620G1X-22.397Y-5.672
N45630G1X-21.812Y-5.824
N45640G1X-21.246Y-6.022
N45650G1X-20.702Y-6.262
N45660G1X-20.182Y-6.543
N45670G1X-19.687Y-6.863
N45680G1X-19.220Y-7.220
N45690G1X-18.783Y-7.612
N45700G1X-18.378Y-8.036
N45710G1X-18.006Y-8.491
N45720G1X-17.671Y-8.974
N45730G1X-17.373Y-9.484
N45740G1X-17.116Y-10.019
N45750G1X-16.900Y-10.576
N45760G1X-16.729Y-11.154
N45770G1X-16.604Y-11.749
N45780G00Z6.000
N45790G00X-21.191Y-22.432
N45800G1Z-0.500F480.0
N45810G1X-21.491F1200.0
N45820G1X-21.528Y-22.396
N45830G1X-21.538Y-22.352
N45840G1X-21.146
N45850G1X-21.139Y-22.292
N45860G1Y-22.272
N45870G1X-21.552
N45880G1X-21.553Y-22.192
N45890G1X-21.139
N45900G1Y-22.136
N45910G1Y-22.112
N45920G1X-21.553
N45930G1X-21.553Y-22.032
N45940G1X-21.139
N45950G1Y-21.961
N45960G1X-20.760
N45970G1X-20.706Y-21.952
N45980G1X-22.598
N45990G1X-22.648Y-21.940
N46000G1X-22.720Y-21.876
N46010G1X-22.722Y-21.872
N46020G1X-20.593
N46030G1X-20.569Y-21.829
N46040G1X-20.562Y-21.792
N46050G1X-22.757
N46060G1X-22.758Y-21.787
N46070G1X-22.752Y-21.712
N46080G1X-20.563
N46090G1X-20.569Y-21.680
N46100G1X-20.596Y-21.632
N46110G1X-22.732
N46120G1X-22.706Y-21.552
N46130G1X-20.734
N46140G1X-20.760Y-21.547
N46150G1X-21.139
N46160G1Y-21.472
N46170G1X-21.554
N46180G1Y-21.392
N46190G1X-21.139
N46200G1Y-21.312
N46210G1X-21.554
N46220G1Y-21.232
N46230G1X-21.139
N46240G1Y-21.152
N46250G1X-21.554
N46260G1Y-21.072
N46270G1X-21.139
N46280G1Y-20.992
N46290G1X-21.554
N46300G1Y-20.939
N46310G1X-21.550Y-20.912
N46320G1X-21.145
N46330G1X-21.158Y-20.848
N46340G1X-21.171Y-20.832
N46350G1X-21.526
N46360G1X-21.524Y-20.826
N46370G1X-21.487Y-20.784
N46380G1X-21.435Y-20.752
N46390G1X-21.255
N46400G00Z6.000
N46410G00X-22.246Y-21.472
N46420G1Z-0.500F480.0
N46430G1X-22.680F1200.0
N46440G1X-22.654Y-21.392
N46450G1X-22.220
N46460G1X-22.194Y-21.312
N46470G1X-22.629
N46480G1X-22.603Y-21.232
N46490G1X-22.169
N46500G1X-22.143Y-21.152
N46510G1X-22.577
N46520G1X-22.552Y-21.072
N46530G1X-22.117
N46540G1X-22.091Y-20.992
N46550G1X-22.526
N46560G1X-22.500Y-20.912
N46570G1X-22.066
N46580G1X-22.040Y-20.832
N46590G1X-22.475
N46600G1X-22.449Y-20.752
N46610G1X-22.014
N46620G1X-21.989Y-20.672
N46630G1X-22.423
N46640G1X-22.397Y-20.592
N46650G1X-21.963
N46660G1X-21.937Y-20.512
N46670G1X-22.372
N46680G1X-22.346Y-20.432
N46690G1X-21.911
N46700G1X-21.886Y-20.352
N46710G1X-22.320
N46720G1X-22.295Y-20.272
N46730G1X-21.860
N46740G1X-21.834Y-20.192
N46750G1X-22.269
N46760G1X-22.243Y-20.112
N46770G1X-21.808
N46780G1X-21.783Y-20.032
N46790G1X-22.218
N46800G1X-22.192Y-19.952
N46810G1X-21.757
N46820G1X-21.731Y-19.872
N46830G1X-22.166
N46840G1X-22.141Y-19.792
N46850G1X-21.706
N46860G1X-21.699Y-19.770
N46870G1X-21.687Y-19.712
N46880G1X-22.115
N46890G1X-22.093Y-19.642
N46900G1X-22.092Y-19.638
N46910G1X-22.090Y-19.632
N46920G1X-22.089Y-19.632
N46930G1X-21.695
N46940G1X-21.727Y-19.578
N46950G1X-21.759Y-19.552
N46960G1X-22.035
N46970G00Z6.000
N46980G00X-21.552Y-22.292
N46990G1Z-0.500F480.0
N47000G1X-21.528Y-22.396F1200.0
N47010G1X-21.453Y-22.468
N47020G1X-21.352Y-22.498
N47030G1X-21.247Y-22.474
N47040G1X-21.200Y-22.442
N47050G1X-21.166Y-22.402
N47060G1X-21.146Y-22.352
N47070G1X-21.139Y-22.292
N47080G1Y-22.136
N47090G1Y-21.961
N47100G1X-20.760
N47110G1X-20.671Y-21.945
N47120G1X-20.607Y-21.897
N47130G1X-20.569Y-21.829
N47140G1X-20.556Y-21.755
N47150G1X-20.569Y-21.680
N47160G1X-20.607Y-21.612
N47170G1X-20.671Y-21.563
N47180G1X-20.760Y-21.547
N47190G1X-21.139
N47200G1Y-20.939
N47210G1X-21.158Y-20.848
N47220G1X-21.215Y-20.776
N47230G1X-21.267Y-20.744
N47240G1X-21.321Y-20.730
N47250G1X-21.377Y-20.732
N47260G1X-21.435Y-20.751
N47270G1X-21.487Y-20.784
N47280G1X-21.524Y-20.826
N47290G1X-21.546Y-20.878
N47300G1X-21.554Y-20.939
N47310G1Y-21.547
N47320G1X-22.270
N47330G1X-21.699Y-19.770
N47340G1X-21.685Y-19.697
N47350G1X-21.694Y-19.633
N47360G1X-21.727Y-19.578
N47370G1X-21.784Y-19.531
N47380G1X-21.872Y-19.500
N47390G1X-21.962Y-19.509
N47400G1X-22.040Y-19.554
N47410G1X-22.090Y-19.632
N47420G1X-22.092Y-19.638
N47430G1X-22.093Y-19.642
N47440G1X-22.750Y-21.690
N47450G1X-22.758Y-21.787
N47460G1X-22.720Y-21.876
N47470G1X-22.648Y-21.940
N47480G1X-22.554Y-21.961
N47490G1X-21.554
N47500G1X-21.553Y-22.131
N47510G1X-21.552Y-22.292
N47520G00Z6.000
N47530G00X-25.120Y-22.462
N47540G1Z-0.500F480.0
N47550G1X-24.877F1200.0
N47560G1X-24.859Y-22.451
N47570G1X-24.816Y-22.387
N47580G1X-24.815Y-22.382
N47590G1X-25.181
N47600G1X-25.203Y-22.302
N47610G1X-24.792
N47620G1X-24.791Y-22.297
N47630G1Y-22.222
N47640G1X-25.204
N47650G1Y-22.142
N47660G1X-24.791
N47670G1Y-22.062
N47680G1X-25.204
N47690G1Y-21.982
N47700G1X-24.791
N47710G1Y-21.902
N47720G1X-25.204
N47730G1Y-21.822
N47740G1X-24.791
N47750G1Y-21.742
N47760G1X-25.204
N47770G1Y-21.662
N47780G1X-24.791
N47790G1Y-21.582
N47800G1X-25.204
N47810G1Y-21.502
N47820G1X-24.791
N47830G1Y-21.422
N47840G1X-25.204
N47850G1Y-21.342
N47860G1X-24.791
N47870G1Y-21.262
N47880G1X-25.204
N47890G1Y-21.182
N47900G1X-24.791
N47910G1Y-21.102
N47920G1X-25.204
N47930G1Y-21.022
N47940G1X-24.791
N47950G1Y-20.942
N47960G1X-25.204
N47970G1Y-20.862
N47980G1X-24.791
N47990G1Y-20.782
N48000G1X-25.204
N48010G1Y-20.702
N48020G1X-24.791
N48030G1Y-20.622
N48040G1X-25.204
N48050G1Y-20.542
N48060G1X-24.791
N48070G1Y-20.462
N48080G1X-25.204
N48090G1Y-20.382
N48100G1X-24.338
N48110G1X-24.388Y-20.302
N48120G1X-25.204
N48130G1Y-20.222
N48140G1X-24.437
N48150G1X-24.487Y-20.142
N48160G1X-25.204
N48170G1Y-20.062
N48180G1X-24.537
N48190G1X-24.587Y-19.982
N48200G1X-25.204
N48210G1Y-19.902
N48220G1X-24.637
N48230G1X-24.687Y-19.822
N48240G1X-25.204
N48250G1Y-19.742
N48260G1X-24.736
N48270G1X-24.786Y-19.662
N48280G1X-25.192
N48290G1X-25.186Y-19.640
