( LANDING_GEAR_CUTOUT )
( File created: Friday December 13 2019 - 01:23 PM)
( USBCNC Postprocessor )
( Material Size)
( X= 250.000, Y= 250.000, Z= 2.000)
()
(Toolpaths used in this file:)
(Profile 1)
(Profile 2)
(Tools used in this file: )
(1 = End Mill {2 mm})
N110G00G21G17G90G40G49
N120G80
N130 (End Mill {2 mm})
N140G00G43Z20.000H1
N150S12000M03
N160(Toolpath:- Profile 1)
N170()
N180G94
N190X0.000Y0.000F3600.0
N200G00X0.000Y17.501Z6.000
N210G1Z-0.500F1200.0
N220G1X-0.410Y17.522F3600.0
N230G1X-0.807Y17.583
N240G1X-1.190Y17.681
N250G1X-1.556Y17.815
N260G1X-1.906Y17.983
N270G1X-2.235Y18.184
N280G1X-2.543Y18.414
N290G1X-2.828Y18.672
N300G1X-3.086Y18.957
N310G1X-3.316Y19.265
N320G1X-3.517Y19.594
N330G1X-3.685Y19.944
N340G1X-3.819Y20.310
N350G1X-3.917Y20.693
N360G1X-3.978Y21.090
N370G1X-3.999Y21.500
N380G1X-3.978Y21.910
N390G1X-3.917Y22.307
N400G1X-3.819Y22.690
N410G1X-3.685Y23.056
N420G1X-3.517Y23.406
N430G1X-3.316Y23.735
N440G1X-3.086Y24.043
N450G1X-2.828Y24.328
N460G1X-2.543Y24.586
N470G1X-2.235Y24.816
N480G1X-1.906Y25.017
N490G1X-1.556Y25.185
N500G1X-1.190Y25.319
N510G1X-0.807Y25.417
N520G1X-0.410Y25.478
N530G1X0.000Y25.499
N540G1X0.410Y25.478
N550G1X0.807Y25.417
N560G1X1.190Y25.319
N570G1X1.556Y25.185
N580G1X1.906Y25.017
N590G1X2.235Y24.816
N600G1X2.543Y24.586
N610G1X2.828Y24.328
N620G1X3.086Y24.043
N630G1X3.316Y23.735
N640G1X3.517Y23.406
N650G1X3.685Y23.056
N660G1X3.819Y22.690
N670G1X3.917Y22.307
N680G1X3.978Y21.910
N690G1X3.999Y21.500
N700G1X3.978Y21.090
N710G1X3.917Y20.693
N720G1X3.819Y20.310
N730G1X3.685Y19.944
N740G1X3.517Y19.594
N750G1X3.316Y19.265
N760G1X3.086Y18.957
N770G1X2.828Y18.672
N780G1X2.543Y18.414
N790G1X2.235Y18.184
N800G1X1.906Y17.983
N810G1X1.556Y17.815
N820G1X1.190Y17.681
N830G1X0.807Y17.583
N840G1X0.410Y17.522
N850G1X0.000Y17.501
N860G1Z-1.000F1200.0
N870G1X-0.410Y17.522F3600.0
N880G1X-0.807Y17.583
N890G1X-1.190Y17.681
N900G1X-1.556Y17.815
N910G1X-1.906Y17.983
N920G1X-2.235Y18.184
N930G1X-2.543Y18.414
N940G1X-2.828Y18.672
N950G1X-3.086Y18.957
N960G1X-3.316Y19.265
N970G1X-3.517Y19.594
N980G1X-3.685Y19.944
N990G1X-3.819Y20.310
N1000G1X-3.917Y20.693
N1010G1X-3.978Y21.090
N1020G1X-3.999Y21.500
N1030G1X-3.978Y21.910
N1040G1X-3.917Y22.307
N1050G1X-3.819Y22.690
N1060G1X-3.685Y23.056
N1070G1X-3.517Y23.406
N1080G1X-3.316Y23.735
N1090G1X-3.086Y24.043
N1100G1X-2.828Y24.328
N1110G1X-2.543Y24.586
N1120G1X-2.235Y24.816
N1130G1X-1.906Y25.017
N1140G1X-1.556Y25.185
N1150G1X-1.190Y25.319
N1160G1X-0.807Y25.417
N1170G1X-0.410Y25.478
N1180G1X0.000Y25.499
N1190G1X0.410Y25.478
N1200G1X0.807Y25.417
N1210G1X1.190Y25.319
N1220G1X1.556Y25.185
N1230G1X1.906Y25.017
N1240G1X2.235Y24.816
N1250G1X2.543Y24.586
N1260G1X2.828Y24.328
N1270G1X3.086Y24.043
N1280G1X3.316Y23.735
N1290G1X3.517Y23.406
N1300G1X3.685Y23.056
N1310G1X3.819Y22.690
N1320G1X3.917Y22.307
N1330G1X3.978Y21.910
N1340G1X3.999Y21.500
N1350G1X3.978Y21.090
N1360G1X3.917Y20.693
N1370G1X3.819Y20.310
N1380G1X3.685Y19.944
N1390G1X3.517Y19.594
N1400G1X3.316Y19.265
N1410G1X3.086Y18.957
N1420G1X2.828Y18.672
N1430G1X2.543Y18.414
N1440G1X2.235Y18.184
N1450G1X1.906Y17.983
N1460G1X1.556Y17.815
N1470G1X1.190Y17.681
N1480G1X0.807Y17.583
N1490G1X0.410Y17.522
N1500G1X0.000Y17.501
N1510G1Z-1.500F1200.0
N1520G1X-0.410Y17.522F3600.0
N1530G1X-0.807Y17.583
N1540G1X-1.190Y17.681
N1550G1X-1.556Y17.815
N1560G1X-1.906Y17.983
N1570G1X-2.235Y18.184
N1580G1X-2.543Y18.414
N1590G1X-2.828Y18.672
N1600G1X-3.086Y18.957
N1610G1X-3.316Y19.265
N1620G1X-3.517Y19.594
N1630G1X-3.685Y19.944
N1640G1X-3.819Y20.310
N1650G1X-3.917Y20.693
N1660G1X-3.978Y21.090
N1670G1X-3.999Y21.500
N1680G1X-3.978Y21.910
N1690G1X-3.917Y22.307
N1700G1X-3.819Y22.690
N1710G1X-3.685Y23.056
N1720G1X-3.517Y23.406
N1730G1X-3.316Y23.735
N1740G1X-3.086Y24.043
N1750G1X-2.828Y24.328
N1760G1X-2.543Y24.586
N1770G1X-2.235Y24.816
N1780G1X-1.906Y25.017
N1790G1X-1.556Y25.185
N1800G1X-1.190Y25.319
N1810G1X-0.807Y25.417
N1820G1X-0.410Y25.478
N1830G1X0.000Y25.499
N1840G1X0.410Y25.478
N1850G1X0.807Y25.417
N1860G1X1.190Y25.319
N1870G1X1.556Y25.185
N1880G1X1.906Y25.017
N1890G1X2.235Y24.816
N1900G1X2.543Y24.586
N1910G1X2.828Y24.328
N1920G1X3.086Y24.043
N1930G1X3.316Y23.735
N1940G1X3.517Y23.406
N1950G1X3.685Y23.056
N1960G1X3.819Y22.690
N1970G1X3.917Y22.307
N1980G1X3.978Y21.910
N1990G1X3.999Y21.500
N2000G1X3.978Y21.090
N2010G1X3.917Y20.693
N2020G1X3.819Y20.310
N2030G1X3.685Y19.944
N2040G1X3.517Y19.594
N2050G1X3.316Y19.265
N2060G1X3.086Y18.957
N2070G1X2.828Y18.672
N2080G1X2.543Y18.414
N2090G1X2.235Y18.184
N2100G1X1.906Y17.983
N2110G1X1.556Y17.815
N2120G1X1.190Y17.681
N2130G1X0.807Y17.583
N2140G1X0.410Y17.522
N2150G1X0.000Y17.501
N2160G1Z-2.000F1200.0
N2170G1X-0.410Y17.522F3600.0
N2180G1X-0.807Y17.583
N2190G1X-1.190Y17.681
N2200G1X-1.556Y17.815
N2210G1X-1.906Y17.983
N2220G1X-2.235Y18.184
N2230G1X-2.543Y18.414
N2240G1X-2.828Y18.672
N2250G1X-3.086Y18.957
N2260G1X-3.316Y19.265
N2270G1X-3.517Y19.594
N2280G1X-3.685Y19.944
N2290G1X-3.819Y20.310
N2300G1X-3.917Y20.693
N2310G1X-3.978Y21.090
N2320G1X-3.999Y21.500
N2330G1X-3.978Y21.910
N2340G1X-3.917Y22.307
N2350G1X-3.819Y22.690
N2360G1X-3.685Y23.056
N2370G1X-3.517Y23.406
N2380G1X-3.316Y23.735
N2390G1X-3.086Y24.043
N2400G1X-2.828Y24.328
N2410G1X-2.543Y24.586
N2420G1X-2.235Y24.816
N2430G1X-1.906Y25.017
N2440G1X-1.556Y25.185
N2450G1X-1.190Y25.319
N2460G1X-0.807Y25.417
N2470G1X-0.410Y25.478
N2480G1X0.000Y25.499
N2490G1X0.410Y25.478
N2500G1X0.807Y25.417
N2510G1X1.190Y25.319
N2520G1X1.556Y25.185
N2530G1X1.906Y25.017
N2540G1X2.235Y24.816
N2550G1X2.543Y24.586
N2560G1X2.828Y24.328
N2570G1X3.086Y24.043
N2580G1X3.316Y23.735
N2590G1X3.517Y23.406
N2600G1X3.685Y23.056
N2610G1X3.819Y22.690
N2620G1X3.917Y22.307
N2630G1X3.978Y21.910
N2640G1X3.999Y21.500
N2650G1X3.978Y21.090
N2660G1X3.917Y20.693
N2670G1X3.819Y20.310
N2680G1X3.685Y19.944
N2690G1X3.517Y19.594
N2700G1X3.316Y19.265
N2710G1X3.086Y18.957
N2720G1X2.828Y18.672
N2730G1X2.543Y18.414
N2740G1X2.235Y18.184
N2750G1X1.906Y17.983
N2760G1X1.556Y17.815
N2770G1X1.190Y17.681
N2780G1X0.807Y17.583
N2790G1X0.410Y17.522
N2800G1X0.000Y17.501
N2810G00Z6.000
N2820G00X-7.172Y9.328
N2830G1Z-0.500F1200.0
N2840G1X-6.914Y9.043F3600.0
N2850G1X-6.684Y8.735
N2860G1X-6.483Y8.406
N2870G1X-6.315Y8.056
N2880G1X-6.181Y7.690
N2890G1X-6.083Y7.307
N2900G1X-6.022Y6.910
N2910G1X-6.001Y6.500
N2920G1X-6.022Y6.090
N2930G1X-6.083Y5.693
N2940G1X-6.181Y5.310
N2950G1X-6.315Y4.944
N2960G1X-6.483Y4.594
N2970G1X-6.684Y4.265
N2980G1X-6.914Y3.957
N2990G1X-7.172Y3.672
N3000G1X-7.457Y3.414
N3010G1X-7.765Y3.184
N3020G1X-8.094Y2.983
N3030G1X-8.444Y2.815
N3040G1X-8.810Y2.681
N3050G1X-9.193Y2.583
N3060G1X-9.590Y2.522
N3070G1X-10.000Y2.501
N3080G1X-10.410Y2.522
N3090G1X-10.807Y2.583
N3100G1X-11.190Y2.681
N3110G1X-11.556Y2.815
N3120G1X-11.906Y2.983
N3130G1X-12.235Y3.184
N3140G1X-12.543Y3.414
N3150G1X-12.828Y3.672
N3160G1X-13.086Y3.957
N3170G1X-13.316Y4.265
N3180G1X-13.517Y4.594
N3190G1X-13.685Y4.944
N3200G1X-13.819Y5.310
N3210G1X-13.917Y5.693
N3220G1X-13.978Y6.090
N3230G1X-13.999Y6.500
N3240G1X-13.978Y6.910
N3250G1X-13.917Y7.307
N3260G1X-13.819Y7.690
N3270G1X-13.685Y8.056
N3280G1X-13.517Y8.406
N3290G1X-13.316Y8.735
N3300G1X-13.086Y9.043
N3310G1X-12.828Y9.328
N3320G1X-12.543Y9.586
N3330G1X-12.235Y9.816
N3340G1X-11.906Y10.017
N3350G1X-11.556Y10.185
N3360G1X-11.190Y10.319
N3370G1X-10.807Y10.417
N3380G1X-10.410Y10.478
N3390G1X-10.000Y10.499
N3400G1X-9.590Y10.478
N3410G1X-9.193Y10.417
N3420G1X-8.810Y10.319
N3430G1X-8.444Y10.185
N3440G1X-8.094Y10.017
N3450G1X-7.765Y9.816
N3460G1X-7.457Y9.586
N3470G1X-7.172Y9.328
N3480G1Z-1.000F1200.0
N3490G1X-6.914Y9.043F3600.0
N3500G1X-6.684Y8.735
N3510G1X-6.483Y8.406
N3520G1X-6.315Y8.056
N3530G1X-6.181Y7.690
N3540G1X-6.083Y7.307
N3550G1X-6.022Y6.910
N3560G1X-6.001Y6.500
N3570G1X-6.022Y6.090
N3580G1X-6.083Y5.693
N3590G1X-6.181Y5.310
N3600G1X-6.315Y4.944
N3610G1X-6.483Y4.594
N3620G1X-6.684Y4.265
N3630G1X-6.914Y3.957
N3640G1X-7.172Y3.672
N3650G1X-7.457Y3.414
N3660G1X-7.765Y3.184
N3670G1X-8.094Y2.983
N3680G1X-8.444Y2.815
N3690G1X-8.810Y2.681
N3700G1X-9.193Y2.583
N3710G1X-9.590Y2.522
N3720G1X-10.000Y2.501
N3730G1X-10.410Y2.522
N3740G1X-10.807Y2.583
N3750G1X-11.190Y2.681
N3760G1X-11.556Y2.815
N3770G1X-11.906Y2.983
N3780G1X-12.235Y3.184
N3790G1X-12.543Y3.414
N3800G1X-12.828Y3.672
N3810G1X-13.086Y3.957
N3820G1X-13.316Y4.265
N3830G1X-13.517Y4.594
N3840G1X-13.685Y4.944
N3850G1X-13.819Y5.310
N3860G1X-13.917Y5.693
N3870G1X-13.978Y6.090
N3880G1X-13.999Y6.500
N3890G1X-13.978Y6.910
N3900G1X-13.917Y7.307
N3910G1X-13.819Y7.690
N3920G1X-13.685Y8.056
N3930G1X-13.517Y8.406
N3940G1X-13.316Y8.735
N3950G1X-13.086Y9.043
N3960G1X-12.828Y9.328
N3970G1X-12.543Y9.586
N3980G1X-12.235Y9.816
N3990G1X-11.906Y10.017
N4000G1X-11.556Y10.185
N4010G1X-11.190Y10.319
N4020G1X-10.807Y10.417
N4030G1X-10.410Y10.478
N4040G1X-10.000Y10.499
N4050G1X-9.590Y10.478
N4060G1X-9.193Y10.417
N4070G1X-8.810Y10.319
N4080G1X-8.444Y10.185
N4090G1X-8.094Y10.017
N4100G1X-7.765Y9.816
N4110G1X-7.457Y9.586
N4120G1X-7.172Y9.328
N4130G1Z-1.500F1200.0
N4140G1X-6.914Y9.043F3600.0
N4150G1X-6.684Y8.735
N4160G1X-6.483Y8.406
N4170G1X-6.315Y8.056
N4180G1X-6.181Y7.690
N4190G1X-6.083Y7.307
N4200G1X-6.022Y6.910
N4210G1X-6.001Y6.500
N4220G1X-6.022Y6.090
N4230G1X-6.083Y5.693
N4240G1X-6.181Y5.310
N4250G1X-6.315Y4.944
N4260G1X-6.483Y4.594
N4270G1X-6.684Y4.265
N4280G1X-6.914Y3.957
N4290G1X-7.172Y3.672
N4300G1X-7.457Y3.414
N4310G1X-7.765Y3.184
N4320G1X-8.094Y2.983
N4330G1X-8.444Y2.815
N4340G1X-8.810Y2.681
N4350G1X-9.193Y2.583
N4360G1X-9.590Y2.522
N4370G1X-10.000Y2.501
N4380G1X-10.410Y2.522
N4390G1X-10.807Y2.583
N4400G1X-11.190Y2.681
N4410G1X-11.556Y2.815
N4420G1X-11.906Y2.983
N4430G1X-12.235Y3.184
N4440G1X-12.543Y3.414
N4450G1X-12.828Y3.672
N4460G1X-13.086Y3.957
N4470G1X-13.316Y4.265
N4480G1X-13.517Y4.594
N4490G1X-13.685Y4.944
N4500G1X-13.819Y5.310
N4510G1X-13.917Y5.693
N4520G1X-13.978Y6.090
N4530G1X-13.999Y6.500
N4540G1X-13.978Y6.910
N4550G1X-13.917Y7.307
N4560G1X-13.819Y7.690
N4570G1X-13.685Y8.056
N4580G1X-13.517Y8.406
N4590G1X-13.316Y8.735
N4600G1X-13.086Y9.043
N4610G1X-12.828Y9.328
N4620G1X-12.543Y9.586
N4630G1X-12.235Y9.816
N4640G1X-11.906Y10.017
N4650G1X-11.556Y10.185
N4660G1X-11.190Y10.319
N4670G1X-10.807Y10.417
N4680G1X-10.410Y10.478
N4690G1X-10.000Y10.499
N4700G1X-9.590Y10.478
N4710G1X-9.193Y10.417
N4720G1X-8.810Y10.319
N4730G1X-8.444Y10.185
N4740G1X-8.094Y10.017
N4750G1X-7.765Y9.816
N4760G1X-7.457Y9.586
N4770G1X-7.172Y9.328
N4780G1Z-2.000F1200.0
N4790G1X-6.914Y9.043F3600.0
N4800G1X-6.684Y8.735
N4810G1X-6.483Y8.406
N4820G1X-6.315Y8.056
N4830G1X-6.181Y7.690
N4840G1X-6.083Y7.307
N4850G1X-6.022Y6.910
N4860G1X-6.001Y6.500
N4870G1X-6.022Y6.090
N4880G1X-6.083Y5.693
N4890G1X-6.181Y5.310
N4900G1X-6.315Y4.944
N4910G1X-6.483Y4.594
N4920G1X-6.684Y4.265
N4930G1X-6.914Y3.957
N4940G1X-7.172Y3.672
N4950G1X-7.457Y3.414
N4960G1X-7.765Y3.184
N4970G1X-8.094Y2.983
N4980G1X-8.444Y2.815
N4990G1X-8.810Y2.681
N5000G1X-9.193Y2.583
N5010G1X-9.590Y2.522
N5020G1X-10.000Y2.501
N5030G1X-10.410Y2.522
N5040G1X-10.807Y2.583
N5050G1X-11.190Y2.681
N5060G1X-11.556Y2.815
N5070G1X-11.906Y2.983
N5080G1X-12.235Y3.184
N5090G1X-12.543Y3.414
N5100G1X-12.828Y3.672
N5110G1X-13.086Y3.957
N5120G1X-13.316Y4.265
N5130G1X-13.517Y4.594
N5140G1X-13.685Y4.944
N5150G1X-13.819Y5.310
N5160G1X-13.917Y5.693
N5170G1X-13.978Y6.090
N5180G1X-13.999Y6.500
N5190G1X-13.978Y6.910
N5200G1X-13.917Y7.307
N5210G1X-13.819Y7.690
N5220G1X-13.685Y8.056
N5230G1X-13.517Y8.406
N5240G1X-13.316Y8.735
N5250G1X-13.086Y9.043
N5260G1X-12.828Y9.328
N5270G1X-12.543Y9.586
N5280G1X-12.235Y9.816
N5290G1X-11.906Y10.017
N5300G1X-11.556Y10.185
N5310G1X-11.190Y10.319
N5320G1X-10.807Y10.417
N5330G1X-10.410Y10.478
N5340G1X-10.000Y10.499
N5350G1X-9.590Y10.478
N5360G1X-9.193Y10.417
N5370G1X-8.810Y10.319
N5380G1X-8.444Y10.185
N5390G1X-8.094Y10.017
N5400G1X-7.765Y9.816
N5410G1X-7.457Y9.586
N5420G1X-7.172Y9.328
N5430G00Z6.000
N5440G00X6.083Y7.307
N5450G1Z-0.500F1200.0
N5460G1X6.181Y7.690F3600.0
N5470G1X6.315Y8.056
N5480G1X6.483Y8.406
N5490G1X6.684Y8.735
N5500G1X6.914Y9.043
N5510G1X7.172Y9.328
N5520G1X7.457Y9.586
N5530G1X7.765Y9.816
N5540G1X8.094Y10.017
N5550G1X8.444Y10.185
N5560G1X8.810Y10.319
N5570G1X9.193Y10.417
N5580G1X9.590Y10.478
N5590G1X10.000Y10.499
N5600G1X10.410Y10.478
N5610G1X10.807Y10.417
N5620G1X11.190Y10.319
N5630G1X11.556Y10.185
N5640G1X11.906Y10.017
N5650G1X12.235Y9.816
N5660G1X12.543Y9.586
N5670G1X12.828Y9.328
N5680G1X13.086Y9.043
N5690G1X13.316Y8.735
N5700G1X13.517Y8.406
N5710G1X13.685Y8.056
N5720G1X13.819Y7.690
N5730G1X13.917Y7.307
N5740G1X13.978Y6.910
N5750G1X13.999Y6.500
N5760G1X13.978Y6.090
N5770G1X13.917Y5.693
N5780G1X13.819Y5.310
N5790G1X13.685Y4.944
N5800G1X13.517Y4.594
N5810G1X13.316Y4.265
N5820G1X13.086Y3.957
N5830G1X12.828Y3.672
N5840G1X12.543Y3.414
N5850G1X12.235Y3.184
N5860G1X11.906Y2.983
N5870G1X11.556Y2.815
N5880G1X11.190Y2.681
N5890G1X10.807Y2.583
N5900G1X10.410Y2.522
N5910G1X10.000Y2.501
N5920G1X9.590Y2.522
N5930G1X9.193Y2.583
N5940G1X8.810Y2.681
N5950G1X8.444Y2.815
N5960G1X8.094Y2.983
N5970G1X7.765Y3.184
N5980G1X7.457Y3.414
N5990G1X7.172Y3.672
N6000G1X6.914Y3.957
N6010G1X6.684Y4.265
N6020G1X6.483Y4.594
N6030G1X6.315Y4.944
N6040G1X6.181Y5.310
N6050G1X6.083Y5.693
N6060G1X6.022Y6.090
N6070G1X6.001Y6.500
N6080G1X6.022Y6.910
N6090G1X6.083Y7.307
N6100G1Z-1.000F1200.0
N6110G1X6.181Y7.690F3600.0
N6120G1X6.315Y8.056
N6130G1X6.483Y8.406
N6140G1X6.684Y8.735
N6150G1X6.914Y9.043
N6160G1X7.172Y9.328
N6170G1X7.457Y9.586
N6180G1X7.765Y9.816
N6190G1X8.094Y10.017
N6200G1X8.444Y10.185
N6210G1X8.810Y10.319
N6220G1X9.193Y10.417
N6230G1X9.590Y10.478
N6240G1X10.000Y10.499
N6250G1X10.410Y10.478
N6260G1X10.807Y10.417
N6270G1X11.190Y10.319
N6280G1X11.556Y10.185
N6290G1X11.906Y10.017
N6300G1X12.235Y9.816
N6310G1X12.543Y9.586
N6320G1X12.828Y9.328
N6330G1X13.086Y9.043
N6340G1X13.316Y8.735
N6350G1X13.517Y8.406
N6360G1X13.685Y8.056
N6370G1X13.819Y7.690
N6380G1X13.917Y7.307
N6390G1X13.978Y6.910
N6400G1X13.999Y6.500
N6410G1X13.978Y6.090
N6420G1X13.917Y5.693
N6430G1X13.819Y5.310
N6440G1X13.685Y4.944
N6450G1X13.517Y4.594
N6460G1X13.316Y4.265
N6470G1X13.086Y3.957
N6480G1X12.828Y3.672
N6490G1X12.543Y3.414
N6500G1X12.235Y3.184
N6510G1X11.906Y2.983
N6520G1X11.556Y2.815
N6530G1X11.190Y2.681
N6540G1X10.807Y2.583
N6550G1X10.410Y2.522
N6560G1X10.000Y2.501
N6570G1X9.590Y2.522
N6580G1X9.193Y2.583
N6590G1X8.810Y2.681
N6600G1X8.444Y2.815
N6610G1X8.094Y2.983
N6620G1X7.765Y3.184
N6630G1X7.457Y3.414
N6640G1X7.172Y3.672
N6650G1X6.914Y3.957
N6660G1X6.684Y4.265
N6670G1X6.483Y4.594
N6680G1X6.315Y4.944
N6690G1X6.181Y5.310
N6700G1X6.083Y5.693
N6710G1X6.022Y6.090
N6720G1X6.001Y6.500
N6730G1X6.022Y6.910
N6740G1X6.083Y7.307
N6750G1Z-1.500F1200.0
N6760G1X6.181Y7.690F3600.0
N6770G1X6.315Y8.056
N6780G1X6.483Y8.406
N6790G1X6.684Y8.735
N6800G1X6.914Y9.043
N6810G1X7.172Y9.328
N6820G1X7.457Y9.586
N6830G1X7.765Y9.816
N6840G1X8.094Y10.017
N6850G1X8.444Y10.185
N6860G1X8.810Y10.319
N6870G1X9.193Y10.417
N6880G1X9.590Y10.478
N6890G1X10.000Y10.499
N6900G1X10.410Y10.478
N6910G1X10.807Y10.417
N6920G1X11.190Y10.319
N6930G1X11.556Y10.185
N6940G1X11.906Y10.017
N6950G1X12.235Y9.816
N6960G1X12.543Y9.586
N6970G1X12.828Y9.328
N6980G1X13.086Y9.043
N6990G1X13.316Y8.735
N7000G1X13.517Y8.406
N7010G1X13.685Y8.056
N7020G1X13.819Y7.690
N7030G1X13.917Y7.307
N7040G1X13.978Y6.910
N7050G1X13.999Y6.500
N7060G1X13.978Y6.090
N7070G1X13.917Y5.693
N7080G1X13.819Y5.310
N7090G1X13.685Y4.944
N7100G1X13.517Y4.594
N7110G1X13.316Y4.265
N7120G1X13.086Y3.957
N7130G1X12.828Y3.672
N7140G1X12.543Y3.414
N7150G1X12.235Y3.184
N7160G1X11.906Y2.983
N7170G1X11.556Y2.815
N7180G1X11.190Y2.681
N7190G1X10.807Y2.583
N7200G1X10.410Y2.522
N7210G1X10.000Y2.501
N7220G1X9.590Y2.522
N7230G1X9.193Y2.583
N7240G1X8.810Y2.681
N7250G1X8.444Y2.815
N7260G1X8.094Y2.983
N7270G1X7.765Y3.184
N7280G1X7.457Y3.414
N7290G1X7.172Y3.672
N7300G1X6.914Y3.957
N7310G1X6.684Y4.265
N7320G1X6.483Y4.594
N7330G1X6.315Y4.944
N7340G1X6.181Y5.310
N7350G1X6.083Y5.693
N7360G1X6.022Y6.090
N7370G1X6.001Y6.500
N7380G1X6.022Y6.910
N7390G1X6.083Y7.307
N7400G1Z-2.000F1200.0
N7410G1X6.181Y7.690F3600.0
N7420G1X6.315Y8.056
N7430G1X6.483Y8.406
N7440G1X6.684Y8.735
N7450G1X6.914Y9.043
N7460G1X7.172Y9.328
N7470G1X7.457Y9.586
N7480G1X7.765Y9.816
N7490G1X8.094Y10.017
N7500G1X8.444Y10.185
N7510G1X8.810Y10.319
N7520G1X9.193Y10.417
N7530G1X9.590Y10.478
N7540G1X10.000Y10.499
N7550G1X10.410Y10.478
N7560G1X10.807Y10.417
N7570G1X11.190Y10.319
N7580G1X11.556Y10.185
N7590G1X11.906Y10.017
N7600G1X12.235Y9.816
N7610G1X12.543Y9.586
N7620G1X12.828Y9.328
N7630G1X13.086Y9.043
N7640G1X13.316Y8.735
N7650G1X13.517Y8.406
N7660G1X13.685Y8.056
N7670G1X13.819Y7.690
N7680G1X13.917Y7.307
N7690G1X13.978Y6.910
N7700G1X13.999Y6.500
N7710G1X13.978Y6.090
N7720G1X13.917Y5.693
N7730G1X13.819Y5.310
N7740G1X13.685Y4.944
N7750G1X13.517Y4.594
N7760G1X13.316Y4.265
N7770G1X13.086Y3.957
N7780G1X12.828Y3.672
N7790G1X12.543Y3.414
N7800G1X12.235Y3.184
N7810G1X11.906Y2.983
N7820G1X11.556Y2.815
N7830G1X11.190Y2.681
N7840G1X10.807Y2.583
N7850G1X10.410Y2.522
N7860G1X10.000Y2.501
N7870G1X9.590Y2.522
N7880G1X9.193Y2.583
N7890G1X8.810Y2.681
N7900G1X8.444Y2.815
N7910G1X8.094Y2.983
N7920G1X7.765Y3.184
N7930G1X7.457Y3.414
N7940G1X7.172Y3.672
N7950G1X6.914Y3.957
N7960G1X6.684Y4.265
N7970G1X6.483Y4.594
N7980G1X6.315Y4.944
N7990G1X6.181Y5.310
N8000G1X6.083Y5.693
N8010G1X6.022Y6.090
N8020G1X6.001Y6.500
N8030G1X6.022Y6.910
N8040G1X6.083Y7.307
N8050G00Z6.000
N8060G00X10.000Y-12.500
N8070G1Z-0.500F1200.0
N8080G2X15.000Y-17.500I0.000J-5.000F3600.0
N8090G2X10.000Y-22.500I-5.000J0.000
N8100G2X5.000Y-17.500I0.000J5.000
N8110G2X10.000Y-12.500I5.000J0.000
N8120G1Z-1.000F1200.0
N8130G2X15.000Y-17.500I0.000J-5.000F3600.0
N8140G2X10.000Y-22.500I-5.000J0.000
N8150G2X5.000Y-17.500I0.000J5.000
N8160G2X10.000Y-12.500I5.000J0.000
N8170G1Z-1.500F1200.0
N8180G2X15.000Y-17.500I0.000J-5.000F3600.0
N8190G2X10.000Y-22.500I-5.000J0.000
N8200G2X5.000Y-17.500I0.000J5.000
N8210G2X10.000Y-12.500I5.000J0.000
N8220G1Z-2.000F1200.0
N8230G2X15.000Y-17.500I0.000J-5.000F3600.0
N8240G2X10.000Y-22.500I-5.000J0.000
N8250G2X5.000Y-17.500I0.000J5.000
N8260G2X10.000Y-12.500I5.000J0.000
N8270G00Z6.000
N8280S12000M03
(Profile 2)
()
N8310G00X-2.500Y-4.500Z6.000
N8320G1Z-0.500F1200.0
N8330G2X-1.000Y-6.000I0.000J-1.500F3600.0
N8340G1Y-29.000
N8350G3X2.500Y-32.500I3.500J0.000
N8360G1X17.500
N8370G3X21.000Y-29.000I0.000J3.500
N8380G1Y-3.500
N8390G1Y14.000
N8400G3X17.500Y17.500I-3.500J0.000
N8410G1X12.500
N8420G2X11.000Y19.000I0.000J1.500
N8430G1Y29.000
N8440G3X7.500Y32.500I-3.500J0.000
N8450G1X-7.500
N8460G3X-11.000Y29.000I0.000J-3.500
N8470G1Y19.000
N8480G2X-12.500Y17.500I-1.500J0.000
N8490G1X-17.500
N8500G3X-21.000Y14.000I0.000J-3.500
N8510G1Y-1.000
N8520G3X-17.500Y-4.500I3.500J0.000
N8530G1X-2.500
N8540G1Z-1.000F1200.0
N8550G2X-1.000Y-6.000I0.000J-1.500F3600.0
N8560G1Y-29.000
N8570G3X2.500Y-32.500I3.500J0.000
N8580G1X17.500
N8590G3X21.000Y-29.000I0.000J3.500
N8600G1Y-3.500
N8610G1Y14.000
N8620G3X17.500Y17.500I-3.500J0.000
N8630G1X12.500
N8640G2X11.000Y19.000I0.000J1.500
N8650G1Y29.000
N8660G3X7.500Y32.500I-3.500J0.000
N8670G1X-7.500
N8680G3X-11.000Y29.000I0.000J-3.500
N8690G1Y19.000
N8700G2X-12.500Y17.500I-1.500J0.000
N8710G1X-17.500
N8720G3X-21.000Y14.000I0.000J-3.500
N8730G1Y-1.000
N8740G3X-17.500Y-4.500I3.500J0.000
N8750G1X-2.500
N8760G1Z-1.500F1200.0
N8770G2X-1.000Y-6.000I0.000J-1.500F3600.0
N8780G1Y-29.000
N8790G3X2.500Y-32.500I3.500J0.000
N8800G1X17.500
N8810G3X21.000Y-29.000I0.000J3.500
N8820G1Y-3.500
N8830G1Y14.000
N8840G3X17.500Y17.500I-3.500J0.000
N8850G1X12.500
N8860G2X11.000Y19.000I0.000J1.500
N8870G1Y29.000
N8880G3X7.500Y32.500I-3.500J0.000
N8890G1X-7.500
N8900G3X-11.000Y29.000I0.000J-3.500
N8910G1Y19.000
N8920G2X-12.500Y17.500I-1.500J0.000
N8930G1X-17.500
N8940G3X-21.000Y14.000I0.000J-3.500
N8950G1Y-1.000
N8960G3X-17.500Y-4.500I3.500J0.000
N8970G1X-2.500
N8980G1Z-2.000F1200.0
N8990G2X-1.000Y-6.000I0.000J-1.500F3600.0
N9000G1Y-29.000
N9010G3X2.500Y-32.500I3.500J0.000
N9020G1X17.500
N9030G3X21.000Y-29.000I0.000J3.500
N9040G1Y-3.500
N9050G1Y14.000
N9060G3X17.500Y17.500I-3.500J0.000
N9070G1X12.500
N9080G2X11.000Y19.000I0.000J1.500
N9090G1Y29.000
N9100G3X7.500Y32.500I-3.500J0.000
N9110G1X-7.500
N9120G3X-11.000Y29.000I0.000J-3.500
N9130G1Y19.000
N9140G2X-12.500Y17.500I-1.500J0.000
N9150G1X-17.500
N9160G3X-21.000Y14.000I0.000J-3.500
N9170G1Y-1.000
N9180G3X-17.500Y-4.500I3.500J0.000
N9190G1X-2.500
N9200G00Z6.000
N9210G00Z20.000
N9220G00X0.000Y0.000
N9230M09
N9240M30
%
