( LANDING_GEAR_ENGRAVE )
( File created: Friday December 13 2019 - 01:12 PM)
( USBCNC Postprocessor )
( Material Size)
( X= 250.000, Y= 250.000, Z= 2.000)
()
(Toolpaths used in this file:)
(Quick Engrave 1)
(Tools used in this file: )
(1 = Engraving Tool)
N100G00G21G17G90G40G49
N110G80
N120 (Engraving Tool)
N130G00G43Z20.000H1
N140S12000M03
N150(Toolpath:- Quick Engrave 1)
N160()
N170G94
N180X0.000Y0.000F1200.0
N190G00X5.064Y-29.930Z6.000
N200G1Z-0.500F480.0
N210G1X6.268F1200.0
N220G1X6.361Y-29.882
N230G1X6.406Y-29.850
N240G1X5.026
N250G1X5.018Y-29.791
N260G1X5.017
N270G1X5.017Y-29.770
N280G1X6.502
N290G1X6.537Y-29.736
N300G1X6.570Y-29.690
N310G1X5.017
N320G1X5.017Y-29.610
N330G1X6.626
N340G1X6.682Y-29.531
N350G1X6.682Y-29.530
N360G1X6.102
N370G1X6.104Y-29.528
N380G1X6.111Y-29.523
N390G1X6.124Y-29.514
N400G1X6.131Y-29.511
N410G1X6.139Y-29.506
N420G1X6.145Y-29.501
N430G1X6.152Y-29.495
N440G1X6.158Y-29.492
N450G1X6.166Y-29.487
N460G1X6.180Y-29.475
N470G1X6.192Y-29.463
N480G1X6.198Y-29.457
N490G1X6.205Y-29.450
N500G1X6.720
N510G1X6.757Y-29.370
N520G1X6.280
N530G1X6.283Y-29.367
N540G1X6.294Y-29.350
N550G1X6.300Y-29.342
N560G1X6.308Y-29.334
N570G1X6.313Y-29.326
N580G1X6.319Y-29.317
N590G1X6.324Y-29.307
N600G1X6.331Y-29.298
N610G1X6.336Y-29.290
N620G1X6.795
N630G1X6.820Y-29.210
N640G1X6.382
N650G1X6.387Y-29.201
N660G1X6.392Y-29.191
N670G1X6.398Y-29.180
N680G1X6.402Y-29.170
N690G1X6.407Y-29.159
N700G1X6.417Y-29.137
N710G1X6.420Y-29.130
N720G1X6.846
N730G1X6.871Y-29.050
N740G1X6.450
N750G1X6.453Y-29.041
N760G1X6.456Y-29.030
N770G1X6.461Y-29.016
N780G1X6.469Y-28.992
N790G1X6.476Y-28.970
N800G1X6.887
N810G1X6.902Y-28.890
N820G1X6.496
N830G1X6.497Y-28.889
N840G1X6.501Y-28.861
N850G1X6.503Y-28.849
N860G1X6.507Y-28.835
N870G1X6.508Y-28.822
N880G1X6.511Y-28.810
N890G1X6.916
N900G1X6.923Y-28.775
N910G1X6.926Y-28.730
N920G1X6.524
N930G1X6.524Y-28.725
N940G1X6.525Y-28.712
N950G1X6.527Y-28.697
N960G1X6.530Y-28.669
N970G1X6.531Y-28.650
N980G1X6.930
N990G1X6.935Y-28.570
N1000G1X6.535
N1010G1X6.538Y-28.555
N1020G1X6.538Y-28.543
N1030G1X6.539Y-28.527
N1040G1Y-28.514
N1050G1Y-28.499
N1060G1Y-28.490
N1070G1X6.938
N1080G1X6.934Y-28.410
N1090G1X6.537
N1100G1X6.535Y-28.385
N1110G1X6.533Y-28.359
N1120G1X6.530Y-28.330
N1130G1X6.929
N1140G1X6.924Y-28.250
N1150G1X6.523
N1160G1X6.523Y-28.246
N1170G1X6.517Y-28.218
N1180G1X6.514Y-28.206
N1190G1X6.513Y-28.192
N1200G1X6.509Y-28.170
N1210G1X6.913
N1220G1X6.899Y-28.090
N1230G1X6.493
N1240G1X6.492Y-28.085
N1250G1X6.488Y-28.072
N1260G1X6.485Y-28.058
N1270G1X6.480Y-28.046
N1280G1X6.478Y-28.032
N1290G1X6.471Y-28.010
N1300G1X6.884
N1310G1X6.875Y-27.960
N1320G1X6.865Y-27.930
N1330G1X6.444
N1340G1X6.437Y-27.910
N1350G1X6.431Y-27.899
N1360G1X6.428Y-27.887
N1370G1X6.422Y-27.877
N1380G1X6.417Y-27.865
N1390G1X6.410Y-27.850
N1400G1X6.840
N1410G1X6.814Y-27.770
N1420G1X6.371
N1430G1X6.366Y-27.761
N1440G1X6.354Y-27.742
N1450G1X6.348Y-27.732
N1460G1X6.343Y-27.723
N1470G1X6.331Y-27.705
N1480G1X6.325Y-27.696
N1490G1X6.322Y-27.690
N1500G1X6.786
N1510G1X6.749Y-27.610
N1520G1X6.262
N1530G1X6.246Y-27.592
N1540G1X6.220Y-27.565
N1550G1X6.195Y-27.540
N1560G1X6.182Y-27.530
N1570G1X6.712
N1580G1X6.683Y-27.468
N1590G1X6.671Y-27.450
N1600G1X6.063
N1610G1X6.059Y-27.447
N1620G1X6.031Y-27.437
N1630G1X6.003Y-27.427
N1640G1X5.990Y-27.423
N1650G1X5.978Y-27.418
N1660G1X5.952Y-27.414
N1670G1X5.925Y-27.412
N1680G1X5.429
N1690G1Y-27.450
N1700G1X5.018
N1710G1X5.018Y-27.530
N1720G1X5.429
N1730G1Y-27.610
N1740G1X5.018
N1750G1X5.018Y-27.690
N1760G1X5.429
N1770G1Y-27.770
N1780G1X5.018
N1790G1X5.018Y-27.850
N1800G1X5.429
N1810G1Y-27.930
N1820G1X5.018
N1830G1X5.018Y-28.010
N1840G1X5.429
N1850G1Y-28.090
N1860G1X5.018
N1870G1X5.018Y-28.170
N1880G1X5.429
N1890G1Y-28.250
N1900G1X5.018
N1910G1X5.018Y-28.330
N1920G1X5.429
N1930G1Y-28.410
N1940G1X5.018
N1950G1X5.018Y-28.490
N1960G1X5.429
N1970G1Y-28.570
N1980G1X5.018
N1990G1X5.018Y-28.650
N2000G1X5.429
N2010G1Y-28.730
N2020G1X5.018
N2030G1X5.018Y-28.810
N2040G1X5.429
N2050G1Y-28.890
N2060G1X5.017
N2070G1X5.017Y-28.970
N2080G1X5.429
N2090G1Y-29.050
N2100G1X5.017
N2110G1X5.017Y-29.130
N2120G1X5.429
N2130G1Y-29.210
N2140G1X5.017
N2150G1X5.017Y-29.290
N2160G1X5.429
N2170G1Y-29.370
N2180G1X5.017
N2190G1X5.017Y-29.450
N2200G1X5.429
N2210G1Y-29.530
N2220G1X5.017
N2230G00Z6.000
N2240G00X5.018Y-27.370
N2250G1Z-0.500F480.0
N2260G1X6.622F1200.0
N2270G1X6.615Y-27.358
N2280G1X6.560Y-27.290
N2290G1X5.018
N2300G1X5.018Y-27.210
N2310G1X6.483
N2320G1X6.454Y-27.182
N2330G1X6.381Y-27.130
N2340G1X5.032
N2350G1X5.035Y-27.118
N2360G1X5.081Y-27.056
N2370G1X5.090Y-27.050
N2380G1X6.216
N2390G00Z6.000
N2400G00X6.192Y-29.463
N2410G1Z-0.500F480.0
N2420G1X6.180Y-29.475F1200.0
N2430G1X6.166Y-29.487
N2440G1X6.158Y-29.492
N2450G1X6.152Y-29.495
N2460G1X6.145Y-29.501
N2470G1X6.139Y-29.506
N2480G1X6.131Y-29.511
N2490G1X6.124Y-29.514
N2500G1X6.111Y-29.523
N2510G1X6.104Y-29.528
N2520G1X6.098Y-29.532
N2530G1X6.083Y-29.539
N2540G1X6.072Y-29.547
N2550G1X6.064Y-29.550
N2560G1X6.059Y-29.553
N2570G1X6.044Y-29.558
N2580G1X6.031Y-29.564
N2590G1X6.023Y-29.567
N2600G1X6.018Y-29.569
N2610G1X6.009Y-29.571
N2620G1X6.003Y-29.572
N2630G1X5.996Y-29.575
N2640G1X5.990Y-29.577
N2650G1X5.978Y-29.580
N2660G1X5.971Y-29.581
N2670G1X5.965Y-29.582
N2680G1X5.957Y-29.583
N2690G1X5.952Y-29.583
N2700G1X5.944Y-29.584
N2710G1X5.937Y-29.585
N2720G1X5.930Y-29.586
N2730G1X5.925Y-29.586
N2740G1X5.918
N2750G1X5.912
N2760G1X5.429
N2770G1Y-27.412
N2780G1X5.912
N2790G1X5.918
N2800G1X5.925
N2810G1X5.952Y-27.414
N2820G1X5.978Y-27.418
N2830G1X5.990Y-27.423
N2840G1X6.003Y-27.427
N2850G1X6.031Y-27.437
N2860G1X6.059Y-27.447
N2870G1X6.085Y-27.461
N2880G1X6.111Y-27.477
N2890G1X6.139Y-27.496
N2900G1X6.167Y-27.518
N2910G1X6.195Y-27.540
N2920G1X6.220Y-27.565
N2930G1X6.246Y-27.592
N2940G1X6.272Y-27.622
N2950G1X6.296Y-27.654
N2960G1X6.321Y-27.688
N2970G1X6.325Y-27.696
N2980G1X6.331Y-27.705
N2990G1X6.343Y-27.723
N3000G1X6.348Y-27.732
N3010G1X6.354Y-27.742
N3020G1X6.366Y-27.761
N3030G1X6.378Y-27.781
N3040G1X6.382Y-27.791
N3050G1X6.388Y-27.801
N3060G1X6.398Y-27.822
N3070G1X6.407Y-27.843
N3080G1X6.417Y-27.865
N3090G1X6.422Y-27.877
N3100G1X6.428Y-27.887
N3110G1X6.431Y-27.899
N3120G1X6.437Y-27.910
N3130G1X6.445Y-27.934
N3140G1X6.454Y-27.959
N3150G1X6.458Y-27.971
N3160G1X6.463Y-27.982
N3170G1X6.470Y-28.007
N3180G1X6.478Y-28.032
N3190G1X6.480Y-28.046
N3200G1X6.485Y-28.058
N3210G1X6.488Y-28.072
N3220G1X6.492Y-28.085
N3230G1X6.497Y-28.110
N3240G1X6.504Y-28.136
N3250G1X6.508Y-28.164
N3260G1X6.513Y-28.192
N3270G1X6.514Y-28.206
N3280G1X6.517Y-28.218
N3290G1X6.523Y-28.246
N3300G1X6.524Y-28.261
N3310G1X6.526Y-28.274
N3320G1X6.529Y-28.302
N3330G1X6.530Y-28.328
N3340G1X6.533Y-28.359
N3350G1X6.535Y-28.385
N3360G1X6.538Y-28.414
N3370G1Y-28.429
N3380G1Y-28.442
N3390G1X6.538Y-28.458
N3400G1X6.539Y-28.471
N3410G1Y-28.485
N3420G1Y-28.499
N3430G1Y-28.514
N3440G1Y-28.527
N3450G1X6.538Y-28.543
N3460G1X6.538Y-28.555
N3470G1X6.535Y-28.570
N3480G1X6.535Y-28.584
N3490G1X6.533Y-28.612
N3500G1X6.532Y-28.641
N3510G1X6.530Y-28.669
N3520G1X6.527Y-28.697
N3530G1X6.525Y-28.712
N3540G1X6.524Y-28.725
N3550G1X6.521Y-28.753
N3560G1X6.518Y-28.767
N3570G1X6.516Y-28.781
N3580G1X6.511Y-28.808
N3590G1X6.508Y-28.822
N3600G1X6.507Y-28.835
N3610G1X6.503Y-28.849
N3620G1X6.501Y-28.861
N3630G1X6.497Y-28.889
N3640G1X6.493Y-28.903
N3650G1X6.491Y-28.914
N3660G1X6.486Y-28.928
N3670G1X6.483Y-28.940
N3680G1X6.480Y-28.954
N3690G1X6.478Y-28.967
N3700G1X6.469Y-28.992
N3710G1X6.461Y-29.016
N3720G1X6.456Y-29.030
N3730G1X6.453Y-29.041
N3740G1X6.445Y-29.065
N3750G1X6.440Y-29.078
N3760G1X6.437Y-29.090
N3770G1X6.431Y-29.102
N3780G1X6.428Y-29.113
N3790G1X6.417Y-29.137
N3800G1X6.407Y-29.159
N3810G1X6.402Y-29.170
N3820G1X6.398Y-29.180
N3830G1X6.392Y-29.191
N3840G1X6.387Y-29.201
N3850G1X6.380Y-29.213
N3860G1X6.375Y-29.223
N3870G1X6.366Y-29.242
N3880G1X6.360Y-29.252
N3890G1X6.354Y-29.261
N3900G1X6.348Y-29.271
N3910G1X6.343Y-29.280
N3920G1X6.331Y-29.298
N3930G1X6.324Y-29.307
N3940G1X6.319Y-29.317
N3950G1X6.313Y-29.326
N3960G1X6.308Y-29.334
N3970G1X6.300Y-29.342
N3980G1X6.294Y-29.350
N3990G1X6.283Y-29.367
N4000G1X6.270Y-29.383
N4010G1X6.258Y-29.397
N4020G1X6.250Y-29.405
N4030G1X6.245Y-29.412
N4040G1X6.237Y-29.419
N4050G1X6.231Y-29.425
N4060G1X6.218Y-29.437
N4070G1X6.211Y-29.444
N4080G1X6.205Y-29.450
N4090G1X6.198Y-29.457
N4100G1X6.192Y-29.463
N4110G00Z6.000
N4120G00X6.537Y-29.736
N4130G1Z-0.500F480.0
N4140G1X6.682Y-29.531F1200.0
N4150G1X6.794Y-29.290
N4160G1X6.875Y-29.038
N4170G1X6.923Y-28.775
N4180G1X6.939Y-28.499
N4190G1X6.923Y-28.224
N4200G1X6.875Y-27.960
N4210G1X6.795Y-27.708
N4220G1X6.683Y-27.468
N4230G1X6.615Y-27.358
N4240G1X6.538Y-27.263
N4250G1X6.454Y-27.182
N4260G1X6.362Y-27.116
N4270G1X6.261Y-27.065
N4280G1X6.153Y-27.028
N4290G1X6.037Y-27.007
N4300G1X5.912Y-26.999
N4310G1X5.224
N4320G1X5.146Y-27.013
N4330G1X5.081Y-27.056
N4340G1X5.035Y-27.118
N4350G1X5.017Y-27.193
N4360G1X5.018Y-27.204
N4370G1X5.017Y-29.791
N4380G1X5.018
N4390G1X5.027Y-29.865
N4400G1X5.055Y-29.922
N4410G1X5.103Y-29.964
N4420G1X5.169Y-29.991
N4430G1X5.222Y-29.999
N4440G1X5.225
N4450G1X5.912
N4460G1X6.036Y-29.992
N4470G1X6.152Y-29.970
N4480G1X6.261Y-29.933
N4490G1X6.361Y-29.882
N4500G1X6.453Y-29.816
N4510G1X6.537Y-29.736
N4520G00Z6.000
N4530G00X8.195Y-29.971
N4540G1Z-0.500F480.0
N4550G1X8.580F1200.0
N4560G1X8.652Y-29.948
N4570G1X8.751Y-29.891
N4580G1X7.980
N4590G1X7.877Y-29.838
N4600G1X7.847Y-29.811
N4610G1X8.849
N4620G1X8.942Y-29.731
N4630G1X7.754
N4640G1X7.720Y-29.703
N4650G1X7.682Y-29.651
N4660G1X9.012
N4670G1X9.071Y-29.571
N4680G1X8.474
N4690G1X8.517Y-29.554
N4700G1X8.595Y-29.495
N4710G1X8.598Y-29.491
N4720G1X9.128
N4730G1X9.168Y-29.411
N4740G1X8.667
N4750G1X8.726Y-29.344
N4760G1X8.733Y-29.331
N4770G1X9.208
N4780G1X9.216Y-29.316
N4790G1X9.239Y-29.251
N4800G1X8.781
N4810G1X8.820Y-29.185
N4820G1X8.824Y-29.171
N4830G1X9.268
N4840G1X9.286Y-29.122
N4850G1X9.294Y-29.091
N4860G1X8.851
N4870G1X8.878Y-29.011
N4880G1X9.313
N4890G1X9.332Y-28.931
N4900G1X8.895
N4910G1X8.908Y-28.851
N4920G1X9.344
N4930G1X9.354Y-28.771
N4940G1X8.921
N4950G1X8.926Y-28.742
N4960G1X8.928Y-28.691
N4970G1X9.363
N4980G1X9.365Y-28.611
N4990G1X8.931
N5000G1X8.935Y-28.531
N5010G1X9.368
N5020G1X9.369Y-28.488
N5030G1X9.366Y-28.451
N5040G1X8.936
N5050G1X8.929Y-28.371
N5060G1X9.361
N5070G1X9.355Y-28.291
N5080G1X8.922
N5090G1X8.914Y-28.211
N5100G1X9.343
N5110G1X9.329Y-28.131
N5120G1X8.898
N5130G1X8.879Y-28.051
N5140G1X9.314
N5150G1X9.291Y-27.971
N5160G1X8.860
N5170G1X8.851Y-27.936
N5180G1X8.832Y-27.891
N5190G1X9.269
N5200G1X9.261Y-27.862
N5210G1X9.237Y-27.811
N5220G1X8.797
N5230G1X8.762Y-27.731
N5240G1X9.199
N5250G1X9.161Y-27.651
N5260G1X8.715
N5270G1X8.682Y-27.604
N5280G1X8.650Y-27.571
N5290G1X9.123
N5300G1X9.115Y-27.555
N5310G1X9.070Y-27.491
N5320G1X8.552
N5330G1X8.510Y-27.464
N5340G1X8.404Y-27.424
N5350G1X8.337Y-27.415
N5360G1X8.210Y-27.433
N5370G1X8.100Y-27.488
N5380G1X8.096Y-27.491
N5390G1X7.573
N5400G1X7.540Y-27.542
N5410G1X7.526Y-27.571
N5420G1X8.013
N5430G1X8.006Y-27.578
N5440G1X7.961Y-27.651
N5450G1X7.491
N5460G1X7.455Y-27.731
N5470G1X7.918
N5480G1X7.884Y-27.811
N5490G1X7.428
N5500G1X7.404Y-27.891
N5510G1X7.850
N5520G1X7.817Y-27.971
N5530G1X7.379
N5540G1X7.378Y-27.976
N5550G1X7.363Y-28.051
N5560G1X7.794
N5570G1X7.772Y-28.131
N5580G1X7.348
N5590G1X7.334Y-28.205
N5600G1X7.333Y-28.211
N5610G1X7.752
N5620G1X7.743Y-28.291
N5630G1X7.326
N5640G1X7.320Y-28.371
N5650G1X7.734
N5660G1X7.734Y-28.451
N5670G1X7.315
N5680G1X7.316Y-28.531
N5690G1X7.733
N5700G1X7.733Y-28.562
N5710G1X7.737Y-28.611
N5720G1X7.318
N5730G1X7.319Y-28.671
N5740G1X7.322Y-28.691
N5750G1X7.745
N5760G1X7.752Y-28.771
N5770G1X7.332
N5780G1X7.342Y-28.851
N5790G1X7.768
N5800G1X7.784Y-28.931
N5810G1X7.356
N5820G1X7.376Y-29.011
N5830G1X7.805
N5840G1X7.832Y-29.091
N5850G1X7.396
N5860G1X7.404Y-29.122
N5870G1X7.423Y-29.171
N5880G1X7.860
N5890G1X7.862Y-29.179
N5900G1X7.901Y-29.251
N5910G1X7.454
N5920G1X7.484Y-29.331
N5930G1X7.944
N5940G1X7.957Y-29.356
N5950G1X8.000Y-29.411
N5960G1X7.527
N5970G1X7.569Y-29.491
N5980G1X8.080
N5990G1X8.082Y-29.494
N6000G1X8.158Y-29.542
N6010G1X8.230Y-29.571
N6020G1X7.621
N6030G00Z6.000
N6040G00X7.625Y-27.411
N6050G1Z-0.500F480.0
N6060G1X9.013F1200.0
N6070G1X8.957Y-27.331
N6080G1X7.687
N6090G1X7.764Y-27.251
N6100G1X8.894
N6110G1X8.811Y-27.171
N6120G1X7.860
N6130G1X7.963Y-27.099
N6140G1X7.980Y-27.091
N6150G1X8.692
N6160G1X8.652Y-27.067
N6170G1X8.497Y-27.016
N6180G1X8.449Y-27.011
N6190G1X8.233
N6200G00Z6.000
N6210G00X8.652Y-27.067
N6220G1Z-0.500F480.0
N6230G1X8.497Y-27.016F1200.0
N6240G1X8.325Y-26.999
N6250G1X8.140Y-27.024
N6260G1X7.963Y-27.099
N6270G1X7.798Y-27.216
N6280G1X7.657Y-27.364
N6290G1X7.540Y-27.542
N6300G1X7.447Y-27.751
N6310G1X7.378Y-27.976
N6320G1X7.334Y-28.205
N6330G1X7.314Y-28.437
N6340G1X7.319Y-28.671
N6350G1X7.349Y-28.902
N6360G1X7.404Y-29.122
N6370G1X7.484Y-29.331
N6380G1X7.589Y-29.529
N6390G1X7.720Y-29.703
N6400G1X7.877Y-29.838
N6410G1X8.060Y-29.934
N6420G1X8.269Y-29.992
N6430G1X8.402Y-30.003
N6440G1X8.530Y-29.988
N6450G1X8.652Y-29.948
N6460G1X8.767Y-29.882
N6470G1X8.969Y-29.709
N6480G1X9.123Y-29.501
N6490G1X9.216Y-29.316
N6500G1X9.286Y-29.122
N6510G1X9.335Y-28.918
N6520G1X9.363Y-28.704
N6530G1X9.369Y-28.488
N6540G1X9.354Y-28.276
N6550G1X9.318Y-28.067
N6560G1X9.261Y-27.862
N6570G1X9.115Y-27.555
N6580G1X8.914Y-27.271
N6590G1X8.791Y-27.152
N6600G1X8.652Y-27.067
N6610G00Z6.000
N6620G00X8.602Y-27.524
N6630G1Z-0.500F480.0
N6640G1X8.682Y-27.604F1200.0
N6650G1X8.750Y-27.703
N6660G1X8.851Y-27.936
N6670G1X8.913Y-28.195
N6680G1X8.937Y-28.469
N6690G1X8.926Y-28.742
N6700G1X8.885Y-28.990
N6710G1X8.820Y-29.185
N6720G1X8.726Y-29.344
N6730G1X8.595Y-29.495
N6740G1X8.517Y-29.554
N6750G1X8.432Y-29.588
N6760G1X8.340Y-29.595
N6770G1X8.241Y-29.576
N6780G1X8.158Y-29.542
N6790G1X8.082Y-29.494
N6800G1X8.016Y-29.432
N6810G1X7.957Y-29.356
N6820G1X7.862Y-29.179
N6830G1X7.795Y-28.982
N6840G1X7.752Y-28.773
N6850G1X7.733Y-28.562
N6860G1X7.734Y-28.366
N6870G1X7.754Y-28.200
N6880G1X7.816Y-27.974
N6890G1X7.929Y-27.705
N6900G1X8.006Y-27.578
N6910G1X8.100Y-27.488
N6920G1X8.210Y-27.433
N6930G1X8.337Y-27.415
N6940G1X8.404Y-27.424
N6950G1X8.510Y-27.464
N6960G1X8.602Y-27.524
N6970G00Z6.000
N6980G00X10.328Y-29.937
N6990G1Z-0.500F480.0
N7000G1X10.610F1200.0
N7010G1X10.628Y-29.920
N7020G1X10.663Y-29.857
N7030G1X10.276
N7040G1X10.263Y-29.831
N7050G1X10.252Y-29.777
N7060G1X10.687
N7070G1X10.711Y-29.697
N7080G1X10.237
N7090G1X10.221Y-29.617
N7100G1X10.734
N7110G1X10.757Y-29.537
N7120G1X10.205
N7130G1X10.190Y-29.457
N7140G1X10.780
N7150G1X10.804Y-29.377
N7160G1X10.174
N7170G1X10.158Y-29.297
N7180G1X10.827
N7190G1X10.850Y-29.217
N7200G1X10.143
N7210G1X10.127Y-29.137
N7220G1X10.873
N7230G1X10.897Y-29.057
N7240G1X10.111
N7250G1X10.096Y-28.977
N7260G1X10.920
N7270G1X10.943Y-28.897
N7280G1X10.512
N7290G1X10.535Y-28.817
N7300G1X10.966
N7310G1X10.990Y-28.737
N7320G1X10.558
N7330G1X10.582Y-28.657
N7340G1X11.013
N7350G1X11.036Y-28.577
N7360G1X10.605
N7370G1X10.628Y-28.497
N7380G1X11.059
N7390G1X11.083Y-28.417
N7400G1X10.652
N7410G1X10.675Y-28.337
N7420G1X11.106
N7430G1X11.129Y-28.257
N7440G1X10.699
N7450G1X10.722Y-28.177
N7460G1X11.152
N7470G1X11.176Y-28.097
N7480G1X10.745
N7490G1X10.769Y-28.017
N7500G1X11.199
N7510G1X11.215Y-27.962
N7520G1X11.232Y-28.017
N7530G1X11.664
N7540G1X11.687Y-28.097
N7550G1X11.255
N7560G1X11.278Y-28.177
N7570G1X11.710
N7580G1X11.734Y-28.257
N7590G1X11.302
N7600G1X11.325Y-28.337
N7610G1X11.757
N7620G1X11.781Y-28.417
N7630G1X11.349
N7640G1X11.372Y-28.497
N7650G1X11.804
N7660G1X11.827Y-28.577
N7670G1X11.396
N7680G1X11.419Y-28.657
N7690G1X11.851
N7700G1X11.874Y-28.737
N7710G1X11.442
N7720G1X11.466Y-28.817
N7730G1X11.898
N7740G1X11.921Y-28.897
N7750G1X11.489
N7760G1X11.513Y-28.977
N7770G1X12.336
N7780G1X12.320Y-29.057
N7790G1X11.536
N7800G1X11.560Y-29.137
N7810G1X12.305
N7820G1X12.289Y-29.217
N7830G1X11.583
N7840G1X11.607Y-29.297
N7850G1X12.273
N7860G1X12.258Y-29.377
N7870G1X11.630
N7880G1X11.653Y-29.457
N7890G1X12.242
N7900G1X12.226Y-29.537
N7910G1X11.677
N7920G1X11.700Y-29.617
N7930G1X12.211
N7940G1X12.195Y-29.697
N7950G1X11.724
N7960G1X11.747Y-29.777
N7970G1X12.179
N7980G1X12.169Y-29.831
N7990G1X12.158Y-29.857
N8000G1X11.772
N8010G1X11.806Y-29.918
N8020G1X11.825Y-29.937
N8030G1X12.111
N8040G00Z6.000
N8050G00X10.500Y-28.897
N8060G1Z-0.500F480.0
N8070G1X10.080F1200.0
N8080G1X10.064Y-28.817
N8090G1X10.485
N8100G1X10.469Y-28.737
N8110G1X10.049
N8120G1X10.033Y-28.657
N8130G1X10.454
N8140G1X10.438Y-28.577
N8150G1X10.017
N8160G1X10.002Y-28.497
N8170G1X10.423
N8180G1X10.408Y-28.417
N8190G1X9.986
N8200G1X9.970Y-28.337
N8210G1X10.392
N8220G1X10.377Y-28.257
N8230G1X9.955
N8240G1X9.939Y-28.177
N8250G1X10.361
N8260G1X10.346Y-28.097
N8270G1X9.923
N8280G1X9.908Y-28.017
N8290G1X10.330
N8300G1X10.315Y-27.937
N8310G1X9.892
N8320G1X9.876Y-27.857
N8330G1X10.300
N8340G1X10.284Y-27.777
N8350G1X9.861
N8360G1X9.845Y-27.697
N8370G1X10.269
N8380G1X10.253Y-27.617
N8390G1X9.829
N8400G1X9.814Y-27.537
N8410G1X10.238
N8420G1X10.222Y-27.457
N8430G1X9.798
N8440G1X9.782Y-27.377
N8450G1X10.207
N8460G1X10.192Y-27.297
N8470G1X9.767
N8480G1X9.756Y-27.244
N8490G1X9.759Y-27.217
N8500G1X10.176
N8510G1X10.166Y-27.166
N8520G1X10.151Y-27.137
N8530G1X9.772
N8540G1X9.798Y-27.079
N8550G1X9.821Y-27.057
N8560G1X10.097
N8570G00Z6.000
N8580G00X12.352Y-28.897
N8590G1Z-0.500F480.0
N8600G1X11.931F1200.0
N8610G1X11.947Y-28.817
N8620G1X12.367
N8630G1X12.383Y-28.737
N8640G1X11.963
N8650G1X11.978Y-28.657
N8660G1X12.399
N8670G1X12.414Y-28.577
N8680G1X11.994
N8690G1X12.009Y-28.497
N8700G1X12.430
N8710G1X12.446Y-28.417
N8720G1X12.025
N8730G1X12.041Y-28.337
N8740G1X12.461
N8750G1X12.477Y-28.257
N8760G1X12.056
N8770G1X12.072Y-28.177
N8780G1X12.493
N8790G1X12.508Y-28.097
N8800G1X12.088
N8810G1X12.103Y-28.017
N8820G1X12.524
N8830G1X12.540Y-27.937
N8840G1X12.119
N8850G1X12.135Y-27.857
N8860G1X12.556
N8870G1X12.571Y-27.777
N8880G1X12.150
N8890G1X12.166Y-27.697
N8900G1X12.587
N8910G1X12.603Y-27.617
N8920G1X12.182
N8930G1X12.197Y-27.537
N8940G1X12.618
N8950G1X12.634Y-27.457
N8960G1X12.213
N8970G1X12.229Y-27.377
N8980G1X12.650
N8990G1X12.665Y-27.297
N9000G1X12.244
N9010G1X12.260Y-27.217
N9020G1X12.674
N9030G1X12.671Y-27.153
N9040G1X12.664Y-27.137
N9050G1X12.283
N9060G1X12.308Y-27.082
N9070G1X12.332Y-27.057
N9080G1X12.614
N9090G00Z6.000
N9100G00X11.640Y-27.937
N9110G1Z-0.500F480.0
N9120G1X10.792F1200.0
N9130G1X10.815Y-27.857
N9140G1X11.617
N9150G1X11.593Y-27.777
N9160G1X10.839
N9170G1X10.862Y-27.697
N9180G1X11.570
N9190G1X11.546Y-27.617
N9200G1X10.886
N9210G1X10.909Y-27.537
N9220G1X11.523
N9230G1X11.500Y-27.457
N9240G1X10.932
N9250G1X10.956Y-27.377
N9260G1X11.476
N9270G1X11.453Y-27.297
N9280G1X10.979
N9290G1X11.002Y-27.217
N9300G1X11.429
N9310G1X11.414Y-27.166
N9320G1X11.400Y-27.137
N9330G1X11.034
N9340G1X11.054Y-27.102
N9350G1X11.098Y-27.057
N9360G1X11.342
N9370G00Z6.000
N9380G00X9.756Y-27.244
N9390G1Z-0.500F480.0
N9400G1X10.263Y-29.831F1200.0
N9410G1X10.297Y-29.901
N9420G1X10.341Y-29.952
N9430G1X10.395Y-29.985
N9440G1X10.459Y-29.999
N9450G1X10.524Y-29.994
N9460G1X10.580Y-29.968
N9470G1X10.628Y-29.920
N9480G1X10.666Y-29.851
N9490G1X11.215Y-27.962
N9500G1X11.769Y-29.851
N9510G1X11.806Y-29.918
N9520G1X11.853Y-29.965
N9530G1X11.911Y-29.992
N9540G1X11.978Y-29.999
N9550G1X12.044Y-29.987
N9560G1X12.098Y-29.954
N9570G1X12.139Y-29.902
N9580G1X12.169Y-29.831
N9590G1X12.676Y-27.244
N9600G1X12.671Y-27.153
N9610G1X12.642Y-27.083
N9620G1X12.589Y-27.034
N9630G1X12.511Y-27.005
N9640G1X12.429Y-27.001
N9650G1X12.361Y-27.027
N9660G1X12.308Y-27.082
N9670G1X12.270Y-27.166
N9680G1X11.927Y-28.918
N9690G1X11.414Y-27.166
N9700G1X11.381Y-27.099
N9710G1X11.337Y-27.052
N9720G1X11.283Y-27.024
N9730G1X11.219Y-27.017
N9740G1X11.154Y-27.028
N9750G1X11.099Y-27.056
N9760G1X11.054Y-27.102
N9770G1X11.017Y-27.166
N9780G1X10.505Y-28.921
N9790G1X10.166Y-27.166
N9800G1X10.123Y-27.083
N9810G1X10.067Y-27.028
N9820G1X10.001Y-27.001
N9830G1X9.923Y-27.003
N9840G1X9.850Y-27.030
N9850G1X9.798Y-27.079
N9860G1X9.767Y-27.150
N9870G1X9.756Y-27.244
N9880G00Z6.000
N9890G00X13.044Y-29.962
N9900G1Z-0.500F480.0
N9910G1X13.287F1200.0
N9920G1X13.305Y-29.951
N9930G1X13.348Y-29.887
N9940G1X13.349Y-29.882
N9950G1X12.983
N9960G1X12.961Y-29.802
N9970G1X13.372
N9980G1X13.373Y-29.797
N9990G1Y-29.722
N10000G1X12.960
N10010G1Y-29.642
N10020G1X13.373
N10030G1Y-29.562
N10040G1X12.960
N10050G1Y-29.482
N10060G1X13.373
N10070G1Y-29.402
N10080G1X12.960
N10090G1Y-29.322
N10100G1X13.373
N10110G1Y-29.242
N10120G1X12.960
N10130G1Y-29.162
N10140G1X13.373
N10150G1Y-29.082
N10160G1X12.960
N10170G1Y-29.002
N10180G1X13.373
N10190G1Y-28.922
N10200G1X12.960
N10210G1Y-28.842
N10220G1X13.373
N10230G1Y-28.762
N10240G1X12.960
N10250G1Y-28.682
N10260G1X13.373
N10270G1Y-28.602
N10280G1X12.960
N10290G1Y-28.522
N10300G1X13.373
N10310G1Y-28.442
N10320G1X12.960
N10330G1Y-28.362
N10340G1X13.373
N10350G1Y-28.282
N10360G1X12.960
N10370G1Y-28.202
N10380G1X13.373
N10390G1Y-28.122
N10400G1X12.960
N10410G1Y-28.042
N10420G1X13.373
N10430G1Y-27.962
N10440G1X12.960
N10450G1Y-27.882
N10460G1X13.826
N10470G1X13.776Y-27.802
N10480G1X12.960
N10490G1Y-27.722
N10500G1X13.727
N10510G1X13.677Y-27.642
N10520G1X12.960
N10530G1Y-27.562
N10540G1X13.627
N10550G1X13.577Y-27.482
N10560G1X12.960
N10570G1Y-27.402
N10580G1X13.527
N10590G1X13.478Y-27.322
N10600G1X12.960
N10610G1Y-27.242
N10620G1X13.428
N10630G1X13.378Y-27.162
N10640G1X12.972
N10650G1X12.978Y-27.140
N10660G1X13.010Y-27.084
N10670G1X13.011Y-27.082
N10680G1X13.325
N10690G1X13.292Y-27.042
N10700G1X13.239Y-27.008
N10710G1X13.208Y-27.002
N10720G1X13.153
N10730G00Z6.000
N10740G00X14.653Y-29.962
N10750G1Z-0.500F480.0
N10760G1X14.902F1200.0
N10770G1X14.946Y-29.923
N10780G1X14.966Y-29.882
N10790G1X14.589
N10800G1X14.539Y-29.802
N10810G1X14.982
N10820G1X14.983Y-29.797
N10830G1Y-29.722
N10840G1X14.489
N10850G1X14.439Y-29.642
N10860G1X14.983
N10870G1Y-29.562
N10880G1X14.389
N10890G1X14.340Y-29.482
N10900G1X14.983
N10910G1Y-29.402
N10920G1X14.290
N10930G1X14.240Y-29.322
N10940G1X14.983
N10950G1Y-29.242
N10960G1X14.190
N10970G1X14.140Y-29.162
N10980G1X14.983
N10990G1Y-29.082
N11000G1X14.090
N11010G1X14.040Y-29.002
N11020G1X14.524
N11030G1X14.474Y-28.922
N11040G1X13.990
N11050G1X13.940Y-28.842
N11060G1X14.424
N11070G1X14.374Y-28.762
N11080G1X13.891
N11090G1X13.841Y-28.682
N11100G1X14.324
N11110G1X14.275Y-28.602
N11120G1X13.791
N11130G1X13.741Y-28.522
N11140G1X14.225
N11150G1X14.175Y-28.442
N11160G1X13.691
N11170G1X13.641Y-28.362
N11180G1X14.125
N11190G1X14.075Y-28.282
N11200G1X13.591
N11210G1X13.541Y-28.202
N11220G1X14.026
N11230G1X13.976Y-28.122
N11240G1X13.491
N11250G1X13.442Y-28.042
N11260G1X13.926
N11270G1X13.876Y-27.962
N11280G1X13.392
N11290G00Z6.000
N11300G00X14.570Y-29.002
N11310G1Z-0.500F480.0
N11320G1X14.983F1200.0
N11330G1Y-28.922
N11340G1X14.570
N11350G1Y-28.842
N11360G1X14.983
N11370G1Y-28.762
N11380G1X14.570
N11390G1Y-28.682
N11400G1X14.983
N11410G1Y-28.602
N11420G1X14.570
N11430G1Y-28.522
N11440G1X14.983
N11450G1Y-28.442
N11460G1X14.570
N11470G1Y-28.362
N11480G1X14.983
N11490G1Y-28.282
N11500G1X14.570
N11510G1Y-28.202
N11520G1X14.983
N11530G1Y-28.122
N11540G1X14.570
N11550G1Y-28.042
N11560G1X14.983
N11570G1Y-27.962
N11580G1X14.570
N11590G1Y-27.882
N11600G1X14.983
N11610G1Y-27.802
N11620G1X14.570
N11630G1Y-27.722
N11640G1X14.983
N11650G1Y-27.642
N11660G1X14.570
N11670G1Y-27.562
N11680G1X14.983
N11690G1Y-27.482
N11700G1X14.570
N11710G1Y-27.402
N11720G1X14.983
N11730G1Y-27.322
N11740G1X14.570
N11750G1Y-27.242
N11760G1X14.983
N11770G1Y-27.210
N11780G1X14.973Y-27.162
N11790G1X14.582
N11800G1X14.594Y-27.119
N11810G1X14.618Y-27.082
N11820G1X14.942
N11830G00Z6.000
N11840G00X12.960Y-29.797
N11850G1Z-0.500F480.0
N11860G1X12.984Y-29.887F1200.0
N11870G1X13.027Y-29.951
N11880G1X13.087Y-29.990
N11890G1X13.166Y-30.002
N11900G1X13.244Y-29.990
N11910G1X13.305Y-29.951
N11920G1X13.348Y-29.887
N11930G1X13.373Y-29.797
N11940G1Y-27.932
N11950G1X14.604Y-29.906
N11960G1X14.649Y-29.959
N11970G1X14.702Y-29.992
N11980G1X14.764Y-30.003
N11990G1X14.834Y-29.993
N12000G1X14.899Y-29.965
N12010G1X14.946Y-29.923
N12020G1X14.974Y-29.867
N12030G1X14.983Y-29.797
N12040G1Y-27.210
N12050G1X14.965Y-27.120
N12060G1X14.926Y-27.056
N12070G1X14.865Y-27.017
N12080G1X14.783Y-27.003
N12090G1X14.700Y-27.015
N12100G1X14.637Y-27.054
N12110G1X14.594Y-27.119
N12120G1X14.570Y-27.210
N12130G1Y-29.076
N12140G1X13.339Y-27.100
N12150G1X13.292Y-27.042
N12160G1X13.239Y-27.008
N12170G1X13.180Y-26.997
N12180G1X13.116Y-27.009
N12190G1X13.056Y-27.040
N12200G1X13.010Y-27.084
N12210G1X12.978Y-27.140
N12220G1X12.960Y-27.210
N12230G1Y-29.797
N12240G00Z6.000
N12250G00X10.238Y-7.951
N12260G1Z-0.500F480.0
N12270G1X10.516F1200.0
N12280G1X10.520Y-7.949
N12290G1X10.562Y-7.884
N12300G1X10.565Y-7.871
N12310G1X10.189
N12320G1X10.170Y-7.794
N12330G1Y-7.791
N12340G1X10.585
N12350G1Y-7.711
N12360G1X10.170
N12370G1Y-7.631
N12380G1X10.585
N12390G1Y-7.551
N12400G1X10.170
N12410G1Y-7.471
N12420G1X10.585
N12430G1Y-7.391
N12440G1X10.170
N12450G1Y-7.311
N12460G1X10.585
N12470G1Y-7.231
N12480G1X10.170
N12490G1Y-7.151
N12500G1X10.585
N12510G1Y-7.071
N12520G1X10.170
N12530G1Y-6.991
N12540G1X10.585
N12550G1Y-6.911
N12560G1X10.170
N12570G1Y-6.831
N12580G1X10.585
N12590G1Y-6.751
N12600G1X10.170
N12610G1Y-6.671
N12620G1X11.588
N12630G1X11.684Y-6.631
N12640G1X11.753Y-6.591
N12650G1X10.170
N12660G1Y-6.511
N12670G1X11.863
N12680G1X11.885Y-6.494
N12690G1X11.944Y-6.431
N12700G1X10.170
N12710G1Y-6.351
N12720G1X12.005
N12730G1X12.038Y-6.302
N12740G1X12.054Y-6.271
N12750G1X11.475
N12760G1X11.592Y-6.200
N12770G1X11.599Y-6.191
N12780G1X12.095
N12790G1X12.097Y-6.187
N12800G1X12.120Y-6.111
N12810G1X11.664
N12820G1X11.694Y-6.074
N12830G1X11.708Y-6.031
N12840G1X12.145
N12850G1X12.154Y-5.951
N12860G1X11.733
N12870G1X11.742Y-5.921
N12880G1X11.744Y-5.871
N12890G1X12.162
N12900G1X12.154Y-5.791
N12910G1X11.739
N12920G1X11.728Y-5.731
N12930G1X11.719Y-5.711
N12940G1X12.146
N12950G1X12.122Y-5.631
N12960G1X11.680
N12970G1X11.634Y-5.566
N12980G1X11.617Y-5.551
N12990G1X12.099
N13000G1X12.060Y-5.471
N13010G1X11.514
N13020G1X11.482Y-5.451
N13030G1X11.394Y-5.423
N13040G1X11.297Y-5.413
N13050G1X10.585
N13060G1Y-5.471
N13070G1X10.170
N13080G1Y-5.551
N13090G1X10.585
N13100G1Y-5.631
N13110G1X10.170
N13120G1Y-5.711
N13130G1X10.585
N13140G1Y-5.791
N13150G1X10.170
N13160G1Y-5.871
N13170G1X10.585
N13180G1Y-5.951
N13190G1X10.170
N13200G1Y-6.031
N13210G1X10.585
N13220G1Y-6.111
N13230G1X10.170
N13240G1Y-6.191
N13250G1X10.585
N13260G1Y-6.271
N13270G1X10.170
N13280G00Z6.000
N13290G00Y-5.391
N13300G1Z-0.500F480.0
N13310G1X12.018F1200.0
N13320G1X11.958Y-5.311
N13330G1X10.170
N13340G1Y-5.231
N13350G1X11.882
N13360G1X11.811Y-5.167
N13370G1X11.782Y-5.151
N13380G1X10.184
N13390G1X10.191Y-5.124
N13400G1X10.225Y-5.071
N13410G1X11.629
N13420G00Z6.000
N13430G00X11.562Y-5.499
N13440G1Z-0.500F480.0
N13450G1X11.634Y-5.566F1200.0
N13460G1X11.691Y-5.646
N13470G1X11.728Y-5.731
N13480G1X11.745Y-5.823
N13490G1X11.742Y-5.921
N13500G1X11.694Y-6.074
N13510G1X11.592Y-6.200
N13520G1X11.454Y-6.283
N13530G1X11.297Y-6.311
N13540G1X10.585
N13550G1Y-5.413
N13560G1X11.297
N13570G1X11.394Y-5.423
N13580G1X11.482Y-5.451
N13590G1X11.562Y-5.499
N13600G00Z6.000
N13610G00X11.811Y-5.167
N13620G1Z-0.500F480.0
N13630G1X11.670Y-5.085F1200.0
N13640G1X11.505Y-5.028
N13650G1X11.325Y-5.000
N13660G1X11.297
N13670G1X10.377
N13680G1X10.364
N13690G1X10.287Y-5.022
N13700G1X10.230Y-5.063
N13710G1X10.191Y-5.124
N13720G1X10.170Y-5.205
N13730G1Y-7.794
N13740G1X10.193Y-7.884
N13750G1X10.234Y-7.949
N13760G1X10.296Y-7.987
N13770G1X10.377Y-8.000
N13780G1X10.458Y-7.987
N13790G1X10.520Y-7.949
N13800G1X10.562Y-7.884
N13810G1X10.585Y-7.794
N13820G1Y-6.726
N13830G1X11.297
N13840G1X11.325Y-6.724
N13850G1X11.451Y-6.708
N13860G1X11.571Y-6.677
N13870G1X11.684Y-6.631
N13880G1X11.789Y-6.570
N13890G1X11.885Y-6.494
N13900G1X11.968Y-6.405
N13910G1X12.038Y-6.302
N13920G1X12.097Y-6.187
N13930G1X12.145Y-6.031
N13940G1X12.162Y-5.873
N13950G1X12.147Y-5.714
N13960G1X12.100Y-5.552
N13970G1X12.026Y-5.401
N13980G1X11.929Y-5.273
N13990G1X11.811Y-5.167
N14000G00Z6.000
N14010G00X8.508Y-7.935
N14020G1Z-0.500F480.0
N14030G1X9.150F1200.0
N14040G1X9.284Y-7.882
N14050G1X9.329Y-7.855
N14060G1X8.326
N14070G1X8.299Y-7.842
N14080G1X8.205Y-7.775
N14090G1X9.456
N14100G1X9.547Y-7.695
N14110G1X8.112
N14120G1X8.035Y-7.615
N14130G1X9.615
N14140G1X9.672Y-7.535
N14150G1X9.050
N14160G1X9.126Y-7.501
N14170G1X9.184Y-7.455
N14180G1X9.711
N14190G1X9.745Y-7.375
N14200G1X9.267
N14210G1X9.324Y-7.295
N14220G1X9.770
N14230G1X9.788Y-7.215
N14240G1X9.355
N14250G1X9.376Y-7.159
N14260G1X9.380Y-7.135
N14270G1X9.805
N14280G1X9.807Y-7.129
N14290G1X9.812Y-7.055
N14300G1X9.394
N14310G1X9.401Y-7.011
N14320G1Y-6.975
N14330G1X9.813
N14340G1Y-6.895
N14350G1X9.401
N14360G1Y-6.815
N14370G1X9.813
N14380G1Y-6.735
N14390G1X9.401
N14400G1Y-6.655
N14410G1X9.813
N14420G1Y-6.575
N14430G1X9.401
N14440G1Y-6.495
N14450G1X9.813
N14460G1Y-6.415
N14470G1X9.401
N14480G1Y-6.335
N14490G1X9.813
N14500G1Y-6.255
N14510G1X9.401
N14520G1Y-6.175
N14530G1X9.813
N14540G1Y-6.095
N14550G1X9.401
N14560G1Y-6.015
N14570G1X9.813
N14580G1Y-5.935
N14590G1X9.401
N14600G1Y-5.855
N14610G1X9.813
N14620G1Y-5.775
N14630G1X9.401
N14640G1Y-5.695
N14650G1X9.813
N14660G1Y-5.615
N14670G1X9.401
N14680G1Y-5.535
N14690G1X9.813
N14700G1Y-5.455
N14710G1X9.401
N14720G1Y-5.375
N14730G1X9.813
N14740G1Y-5.295
N14750G1X9.401
N14760G1Y-5.215
N14770G1X9.813
N14780G1Y-5.205
N14790G1X9.803Y-5.135
N14800G1X9.414
N14810G1X9.431Y-5.088
N14820G1X9.458Y-5.055
N14830G1X9.756
N14840G00Z6.000
N14850G00X8.593Y-7.535
N14860G1Z-0.500F480.0
N14870G1X7.983F1200.0
N14880G1X7.936Y-7.455
N14890G1X8.471
N14900G1X8.426Y-7.421
N14910G1X8.391Y-7.375
N14920G1X7.906
N14930G1X7.880Y-7.295
N14940G1X8.332
N14950G1X8.298Y-7.215
N14960G1X7.862
N14970G1X7.851Y-7.135
N14980G1X8.272
N14990G1X8.259Y-7.055
N15000G1X7.840
N15010G1X7.838Y-7.041
N15020G1Y-7.011
N15030G1Y-6.975
N15040G1X8.251
N15050G1Y-6.895
N15060G1X7.838
N15070G1Y-6.815
N15080G1X8.251
N15090G1Y-6.735
N15100G1X7.838
N15110G1Y-6.655
N15120G1X8.251
N15130G1Y-6.575
N15140G1X7.838
N15150G1Y-6.495
N15160G1X8.251
N15170G1Y-6.415
N15180G1X7.838
N15190G1Y-6.335
N15200G1X8.251
N15210G1Y-6.255
N15220G1X7.838
N15230G1Y-6.175
N15240G1X8.251
N15250G1Y-6.095
N15260G1X7.838
N15270G1Y-6.015
N15280G1X8.251
N15290G1Y-5.935
N15300G1X7.838
N15310G1Y-5.855
N15320G1X8.251
N15330G1Y-5.775
N15340G1X7.838
N15350G1Y-5.695
N15360G1X8.251
N15370G1Y-5.615
N15380G1X7.838
N15390G1Y-5.535
N15400G1X8.251
N15410G1Y-5.455
N15420G1X7.838
N15430G1Y-5.375
N15440G1X8.251
N15450G1Y-5.295
N15460G1X7.838
N15470G1Y-5.215
N15480G1X8.251
N15490G1Y-5.205
N15500G1X8.242Y-5.135
N15510G1X7.852
N15520G1X7.854Y-5.126
N15530G1X7.895Y-5.061
N15540G1X7.902Y-5.055
N15550G1X8.192
N15560G00Z6.000
N15570G00X8.151Y-7.736
N15580G1Z-0.500F480.0
N15590G1X8.299Y-7.842F1200.0
N15600G1X8.454Y-7.919
N15610G1X8.616Y-7.968
N15620G1X8.786Y-7.989
N15630G1X8.957Y-7.982
N15640G1X9.123Y-7.946
N15650G1X9.284Y-7.882
N15660G1X9.439Y-7.790
N15670G1X9.577Y-7.669
N15680G1X9.684Y-7.518
N15690G1X9.761Y-7.338
N15700G1X9.807Y-7.129
N15710G1X9.813Y-7.041
N15720G1Y-7.011
N15730G1Y-5.205
N15740G1X9.801Y-5.123
N15750G1X9.766Y-5.062
N15760G1X9.707Y-5.022
N15770G1X9.625Y-5.003
N15780G1X9.541Y-5.006
N15790G1X9.476Y-5.035
N15800G1X9.431Y-5.088
N15810G1X9.404Y-5.165
N15820G1X9.401Y-5.205
N15830G1Y-7.011
N15840G1X9.376Y-7.159
N15850G1X9.326Y-7.293
N15860G1X9.244Y-7.408
N15870G1X9.126Y-7.501
N15880G1X8.976Y-7.570
N15890G1X8.830Y-7.595
N15900G1X8.687Y-7.577
N15910G1X8.548Y-7.515
N15920G1X8.426Y-7.421
N15930G1X8.336Y-7.306
N15940G1X8.278Y-7.169
N15950G1X8.251Y-7.011
N15960G1Y-5.205
N15970G1X8.241Y-5.129
N15980G1X8.210Y-5.071
N15990G1X8.159Y-5.029
N16000G1X8.088Y-5.004
N16010G1X8.012Y-5.000
N16020G1X7.948Y-5.019
N16030G1X7.895Y-5.061
N16040G1X7.854Y-5.126
N16050G1X7.838Y-5.205
N16060G1Y-7.011
N16070G1Y-7.041
N16080G1X7.867Y-7.256
N16090G1X7.929Y-7.443
N16100G1X8.023Y-7.603
N16110G1X8.151Y-7.736
N16120G00Z6.000
N16130G00X-0.636Y0.025
N16140G1Z-0.500F480.0
N16150G1X-0.829F1200.0
N16160G1X-0.901Y0.091
N16170G1X-0.905Y0.105
N16180G1X-0.551
N16190G1X-0.550Y0.106
N16200G1X-0.508Y0.185
N16210G1X-0.933
N16220G1X-0.935Y0.191
N16230G1X-0.921Y0.265
N16240G1X-0.465
N16250G1X-0.422Y0.345
N16260G1X-0.894
N16270G1X-0.851Y0.425
N16280G1X-0.380
N16290G1X-0.337Y0.505
N16300G1X-0.808
N16310G1X-0.765Y0.585
N16320G1X-0.294
N16330G1X-0.251Y0.665
N16340G1X-0.722
N16350G1X-0.679Y0.745
N16360G1X-0.209
N16370G1X-0.166Y0.825
N16380G1X-0.636
N16390G1X-0.593Y0.905
N16400G1X-0.123
N16410G1X-0.081Y0.985
N16420G1X-0.550
N16430G1X-0.507Y1.065
N16440G1X-0.038
N16450G1X0.005Y1.145
N16460G1X-0.464
N16470G1X-0.421Y1.225
N16480G1X0.048
N16490G1X0.090Y1.305
N16500G1X-0.378
N16510G1X-0.335Y1.385
N16520G1X0.133
N16530G1X0.176Y1.465
N16540G1X-0.292
N16550G1X-0.249Y1.545
N16560G1X0.218
N16570G1X0.261Y1.625
N16580G1X-0.206
N16590G1X-0.163Y1.705
N16600G1X0.304
N16610G1X0.347Y1.785
N16620G1X-0.120
N16630G1X-0.077Y1.865
N16640G1X0.389
N16650G1X0.432Y1.945
N16660G1X-0.034
N16670G1X0.009Y2.025
N16680G1X0.475
N16690G1X0.517Y2.105
N16700G1X0.052
N16710G1X0.095Y2.185
N16720G1X0.560
N16730G1X0.603Y2.265
N16740G1X0.138
N16750G1X0.181Y2.345
N16760G1X0.646
N16770G1X0.688Y2.425
N16780G1X0.224
N16790G1X0.267Y2.505
N16800G1X0.731
N16810G1X0.774Y2.585
N16820G1X0.310
N16830G1X0.353Y2.665
N16840G1X0.816
N16850G1X0.833Y2.696
N16860G1X0.845Y2.745
N16870G1X0.396
N16880G1X0.439Y2.825
N16890G1X0.859
N16900G1X0.852Y2.863
N16910G1X0.829Y2.905
N16920G1X0.484
N16930G1X0.524Y2.957
N16940G1X0.578Y2.985
N16950G1X0.720
N16960G00Z6.000
N16970G00X0.476Y2.894
N16980G1Z-0.500F480.0
N16990G1X-0.913Y0.310F1200.0
N17000G1X-0.935Y0.191
N17010G1X-0.901Y0.091
N17020G1X-0.828Y0.023
N17030G1X-0.733Y0.001
N17040G1X-0.665Y0.010
N17050G1X-0.613Y0.037
N17060G1X-0.550Y0.106
N17070G1X0.833Y2.696
N17080G1X0.862Y2.811
N17090G1X0.852Y2.863
N17100G1X0.826Y2.910
N17110G1X0.748Y2.978
N17120G1X0.652Y3.001
N17130G1X0.582Y2.987
N17140G1X0.524Y2.957
N17150G1X0.476Y2.894
N17160G00Z6.000
N17170G00X-3.255Y0.055
N17180G1Z-0.500F480.0
N17190G1X-1.406F1200.0
N17200G1X-1.405Y0.056
N17210G1X-1.366Y0.117
N17220G1X-1.363Y0.135
N17230G1X-3.304
N17240G1X-3.323Y0.203
N17250G1Y0.215
N17260G1X-1.354
N17270G1X-1.364Y0.282
N17280G1X-1.371Y0.295
N17290G1X-3.323
N17300G1Y0.375
N17310G1X-1.447
N17320G1X-1.467Y0.387
N17330G1X-1.558Y0.409
N17340G1X-2.910Y0.408
N17350G1Y0.455
N17360G1X-3.323
N17370G1Y0.535
N17380G1X-2.910
N17390G1Y0.615
N17400G1X-3.323
N17410G1Y0.695
N17420G1X-2.910
N17430G1Y0.775
N17440G1X-3.323
N17450G1Y0.855
N17460G1X-2.910
N17470G1Y0.935
N17480G1X-3.323
N17490G1Y1.015
N17500G1X-2.910
N17510G1Y1.095
N17520G1X-3.323
N17530G1Y1.175
N17540G1X-2.910
N17550G1Y1.255
N17560G1X-3.323
N17570G1Y1.335
N17580G1X-2.910
N17590G1Y1.415
N17600G1X-3.323
N17610G1Y1.495
N17620G1X-2.910
N17630G1Y1.575
N17640G1X-3.323
N17650G1Y1.655
N17660G1X-2.910
N17670G1Y1.735
N17680G1X-3.323
N17690G1Y1.815
N17700G1X-2.910
N17710G1Y1.895
N17720G1X-3.323
N17730G1Y1.975
N17740G1X-2.910
N17750G1Y2.055
N17760G1X-3.323
N17770G1Y2.135
N17780G1X-2.910
N17790G1Y2.215
N17800G1X-3.323
N17810G1Y2.295
N17820G1X-2.910
N17830G1Y2.375
N17840G1X-3.323
N17850G1Y2.455
N17860G1X-2.910
N17870G1Y2.535
N17880G1X-3.323
N17890G1Y2.615
N17900G1X-2.910
N17910G1Y2.695
N17920G1X-3.323
N17930G1Y2.775
N17940G1X-2.910
N17950G1Y2.793
N17960G1X-2.923Y2.855
N17970G1X-3.306
N17980G1X-3.298Y2.885
N17990G1X-3.264Y2.935
N18000G1X-2.960
N18010G00Z6.000
N18020G00X-3.323Y0.203
N18030G1Z-0.500F480.0
N18040G1X-3.299Y0.118F1200.0
N18050G1X-3.257Y0.056
N18060G1X-3.195Y0.016
N18070G1X-3.115Y-0.001
N18080G1X-1.559
N18090G1X-1.469Y0.017
N18100G1X-1.405Y0.056
N18110G1X-1.366Y0.117
N18120G1X-1.352Y0.199
N18130G1X-1.364Y0.282
N18140G1X-1.402Y0.345
N18150G1X-1.467Y0.387
N18160G1X-1.558Y0.409
N18170G1X-2.910Y0.408
N18180G1Y2.793
N18190G1X-2.928Y2.882
N18200G1X-2.968Y2.946
N18210G1X-3.028Y2.986
N18220G1X-3.109Y3.000
N18230G1X-3.191Y2.989
N18240G1X-3.254Y2.950
N18250G1X-3.298Y2.885
N18260G1X-3.323Y2.793
N18270G1Y0.203
N18280G00Z6.000
N18290G00X1.402Y0.048
N18300G1Z-0.500F480.0
N18310G1X1.659F1200.0
N18320G1X1.672Y0.056
N18330G1X1.708Y0.097
N18340G1X1.721Y0.128
N18350G1X1.341
N18360G1X1.324Y0.207
N18370G1Y0.208
N18380G1X1.737
N18390G1Y0.288
N18400G1X1.324
N18410G1Y0.368
N18420G1X1.737
N18430G1Y0.448
N18440G1X1.324
N18450G1Y0.528
N18460G1X1.737
N18470G1Y0.608
N18480G1X1.324
N18490G1Y0.688
N18500G1X1.737
N18510G1Y0.768
N18520G1X1.324
N18530G1Y0.848
N18540G1X1.737
N18550G1Y0.928
N18560G1X1.324
N18570G1Y1.008
N18580G1X1.737
N18590G1Y1.088
N18600G1X1.324
N18610G1Y1.168
N18620G1X1.737
N18630G1Y1.239
N18640G1X2.103
N18650G1X2.148Y1.168
N18660G1X2.637
N18670G1X2.688Y1.088
N18680G1X2.199
N18690G1X2.249Y1.008
N18700G1X2.738
N18710G1X2.789Y0.928
N18720G1X2.300
N18730G1X2.351Y0.848
N18740G1X2.840
N18750G1X2.890Y0.768
N18760G1X2.401
N18770G1X2.452Y0.688
N18780G1X2.941
N18790G1X2.991Y0.608
N18800G1X2.502
N18810G1X2.553Y0.528
N18820G1X3.042
N18830G1X3.092Y0.448
N18840G1X2.604
N18850G1X2.654Y0.368
N18860G1X3.143
N18870G1X3.174Y0.319
N18880G1X3.186Y0.288
N18890G1X2.705
N18900G1X2.756Y0.208
N18910G1X3.207
N18920G1X3.208Y0.166
N18930G1X3.192Y0.128
N18940G1X2.806
N18950G1X2.825Y0.097
N18960G1X2.871Y0.048
N18970G1X3.129
N18980G00Z6.000
N18990G00X2.587Y1.248
N19000G1Z-0.500F480.0
N19010G1X1.324F1200.0
N19020G1Y1.328
N19030G1X2.826
N19040G1X2.922Y1.378
N19050G1X2.959Y1.408
N19060G1X1.324
N19070G1Y1.488
N19080G1X3.055
N19090G1X3.121Y1.568
N19100G1X1.324
N19110G1Y1.648
N19120G1X3.180
N19130G1X3.225Y1.728
N19140G1X2.689
N19150G1X2.715Y1.741
N19160G1X2.783Y1.808
N19170G1X3.262
N19180G1X3.289Y1.888
N19190G1X2.841
N19200G1X2.880Y1.968
N19210G1X3.308
N19220G1X3.317Y2.048
N19230G1X2.899
N19240G1X2.907Y2.088
N19250G1X2.906Y2.128
N19260G1X3.320
N19270G1X3.313Y2.208
N19280G1X2.900
N19290G1X2.877Y2.288
N19300G1X3.302
N19310G1X3.281Y2.368
N19320G1X2.833
N19330G1X2.823Y2.386
N19340G1X2.768Y2.448
N19350G1X3.254
N19360G1X3.217Y2.528
N19370G1X2.666
N19380G1X2.569Y2.568
N19390G1X2.459Y2.588
N19400G1X1.737
N19410G1Y2.528
N19420G1X1.324
N19430G1Y2.448
N19440G1X1.737
N19450G1Y2.368
N19460G1X1.324
N19470G1Y2.288
N19480G1X1.737
N19490G1Y2.208
N19500G1X1.324
N19510G1Y2.128
N19520G1X1.737
N19530G1Y2.048
N19540G1X1.324
N19550G1Y1.968
N19560G1X1.737
N19570G1Y1.888
N19580G1X1.324
N19590G1Y1.808
N19600G1X1.737
N19610G1Y1.728
N19620G1X1.324
N19630G00Z6.000
N19640G00Y2.608
N19650G1Z-0.500F480.0
N19660G1X3.168F1200.0
N19670G1X3.118Y2.681
N19680G1X3.111Y2.688
N19690G1X1.324
N19700G1Y2.768
N19710G1X3.032
N19720G1X3.009Y2.792
N19730G1X2.932Y2.848
N19740G1X1.334
N19750G1X1.339Y2.874
N19760G1X1.375Y2.928
N19770G1X2.789
N19780G00Z6.000
N19790G00X3.180Y0.100
N19800G1Z-0.500F480.0
N19810G1X3.208Y0.166F1200.0
N19820G1X3.206Y0.239
N19830G1X3.174Y0.319
N19840G1X2.585Y1.250
N19850G1X2.613Y1.255
N19860G1X2.776Y1.302
N19870G1X2.922Y1.378
N19880G1X3.051Y1.484
N19890G1X3.163Y1.619
N19900G1X3.250Y1.771
N19910G1X3.303Y1.929
N19920G1X3.323Y2.093
N19930G1X3.309Y2.263
N19940G1X3.268Y2.416
N19950G1X3.205Y2.555
N19960G1X3.118Y2.681
N19970G1X3.009Y2.792
N19980G1X2.882Y2.883
N19990G1X2.745Y2.949
N20000G1X2.597Y2.988
N20010G1X2.439Y3.001
N20020G1X1.529
N20030G1X1.449Y2.986
N20040G1X1.383Y2.941
N20050G1X1.339Y2.874
N20060G1X1.324Y2.796
N20070G1Y0.207
N20080G1X1.344Y0.115
N20090G1X1.404Y0.045
N20100G1X1.456Y0.014
N20110G1X1.509Y0.000
N20120G1X1.564Y0.004
N20130G1X1.621Y0.023
N20140G1X1.672Y0.056
N20150G1X1.708Y0.097
N20160G1X1.730Y0.148
N20170G1X1.737Y0.207
N20180G1Y1.239
N20190G1X2.103
N20200G1X2.825Y0.097
N20210G1X2.880Y0.037
N20220G1X2.960Y0.006
N20230G1X3.046Y0.007
N20240G1X3.121Y0.040
N20250G1X3.180Y0.100
N20260G00Z6.000
N20270G00X1.737Y1.650
N20280G1Z-0.500F480.0
N20290G1Y2.588F1200.0
N20300G1X2.459
N20310G1X2.569Y2.568
N20320G1X2.666Y2.528
N20330G1X2.750Y2.467
N20340G1X2.823Y2.386
N20350G1X2.876Y2.292
N20360G1X2.904Y2.193
N20370G1X2.907Y2.088
N20380G1X2.886Y1.978
N20390G1X2.821Y1.846
N20400G1X2.715Y1.741
N20410G1X2.582Y1.673
N20420G1X2.439Y1.650
N20430G1X1.737
N20440G00Z6.000
N20450G00X0.957Y10.577
N20460G1Z-0.500F480.0
N20470G1X1.277F1200.0
N20480G1X1.302Y10.614
N20490G1X1.315Y10.657
N20500G1X0.925
N20510G1X0.915Y10.705
N20520G1Y10.737
N20530G1X1.328
N20540G1Y10.817
N20550G1X0.915
N20560G1Y10.897
N20570G1X1.328
N20580G1Y10.977
N20590G1X0.915
N20600G1Y11.057
N20610G1X1.328
N20620G1Y11.137
N20630G1X0.915
N20640G1Y11.217
N20650G1X1.328
N20660G1Y11.297
N20670G1X0.915
N20680G1Y11.377
N20690G1X1.328
N20700G1Y11.457
N20710G1X0.915
N20720G1Y11.537
N20730G1X1.328
N20740G1Y11.617
N20750G1X0.915
N20760G1Y11.697
N20770G1X1.328
N20780G1Y11.777
N20790G1X0.915
N20800G1Y11.857
N20810G1X1.328
N20820G1Y11.937
N20830G1X0.915
N20840G1Y12.017
N20850G1X1.328
N20860G1Y12.097
N20870G1X0.915
N20880G1Y12.177
N20890G1X1.328
N20900G1Y12.257
N20910G1X0.915
N20920G1Y12.337
N20930G1X1.328
N20940G1Y12.417
N20950G1X0.915
N20960G1Y12.497
N20970G1X1.328
N20980G1Y12.577
N20990G1X0.915
N21000G1Y12.657
N21010G1X1.328
N21020G1Y12.737
N21030G1X0.915
N21040G1Y12.817
N21050G1X1.328
N21060G1Y12.897
N21070G1X0.915
N21080G1Y12.977
N21090G1X1.328
N21100G1Y13.057
N21110G1X0.915
N21120G1Y13.087
N21130G1X0.378
N21140G1X0.288Y13.106
N21150G1X0.239Y13.137
N21160G1X2.004
N21170G1X2.017Y13.146
N21180G1X2.055Y13.208
N21190G1X2.056Y13.217
N21200G1X0.184
N21210G1X0.173Y13.293
N21220G1X0.174Y13.297
N21230G1X2.067
N21240G1X2.054Y13.377
N21250G1X0.186
N21260G1X0.225Y13.439
N21270G1X0.252Y13.457
N21280G1X1.990
N21290G00Z6.000
N21300G00X0.186Y13.209
N21310G1Z-0.500F480.0
N21320G1X0.224Y13.147F1200.0
N21330G1X0.288Y13.106
N21340G1X0.378Y13.087
N21350G1X0.915
N21360G1Y10.705
N21370G1X0.933Y10.616
N21380G1X0.972Y10.553
N21390G1X1.032Y10.514
N21400G1X1.112Y10.500
N21410G1X1.194Y10.512
N21420G1X1.257Y10.550
N21430G1X1.302Y10.614
N21440G1X1.328Y10.705
N21450G1Y13.087
N21460G1X1.865
N21470G1X1.954Y13.105
N21480G1X2.017Y13.146
N21490G1X2.055Y13.208
N21500G1X2.067Y13.293
N21510G1X2.054Y13.377
N21520G1X2.016Y13.440
N21530G1X1.953Y13.481
N21540G1X1.865Y13.500
N21550G1X0.378
N21560G1X0.288Y13.481
N21570G1X0.225Y13.439
N21580G1X0.186Y13.377
N21590G1X0.173Y13.293
N21600G1X0.186Y13.209
N21610G00Z6.000
N21620G00X-1.771Y10.518
N21630G1Z-0.500F480.0
N21640G1X-1.942F1200.0
N21650G1X-1.999Y10.553
N21660G1X-2.030Y10.598
N21670G1X-1.687
N21680G1X-1.674Y10.619
N21690G1X-1.662Y10.678
N21700G1X-2.059
N21710G1X-2.067Y10.708
N21720G1Y10.758
N21730G1X-1.656
N21740G1Y10.838
N21750G1X-2.067
N21760G1Y10.918
N21770G1X-1.656
N21780G1Y10.998
N21790G1X-2.067
N21800G1Y11.078
N21810G1X-1.656
N21820G1Y11.158
N21830G1X-2.067
N21840G1Y11.238
N21850G1X-1.656
N21860G1Y11.318
N21870G1X-2.067
N21880G1Y11.398
N21890G1X-1.656
N21900G1Y11.478
N21910G1X-2.067
N21920G1Y11.558
N21930G1X-1.656
N21940G1Y11.638
N21950G1X-2.067
N21960G1Y11.718
N21970G1X-1.656
N21980G1Y11.798
N21990G1X-2.067
N22000G1Y11.878
N22010G1X-0.702
N22020G1X-0.620Y11.900
N22030G1X-0.556Y11.944
N22040G1X-0.547Y11.958
N22050G1X-2.067
N22060G1Y12.038
N22070G1X-0.513
N22080G1X-0.506Y12.089
N22090G1X-0.511Y12.118
N22100G1X-2.067
N22110G1Y12.198
N22120G1X-0.537
N22130G1X-0.559Y12.230
N22140G1X-0.622Y12.269
N22150G1X-0.665Y12.278
N22160G1X-2.067
N22170G1Y12.358
N22180G1X-1.656
N22190G1Y12.438
N22200G1X-2.067
N22210G1Y12.518
N22220G1X-1.656
N22230G1Y12.598
N22240G1X-2.067
N22250G1Y12.678
N22260G1X-1.656
N22270G1Y12.758
N22280G1X-2.067
N22290G1Y12.838
N22300G1X-1.656
N22310G1Y12.918
N22320G1X-2.067
N22330G1Y12.998
N22340G1X-1.656
N22350G1Y13.078
N22360G1X-2.067
N22370G1Y13.158
N22380G1X-0.282
N22390G1X-0.251Y13.208
N22400G1X-0.246Y13.238
N22410G1X-2.067
N22420G1Y13.292
N22430G1X-2.061Y13.318
N22440G1X-0.241
N22450G1X-0.250Y13.377
N22460G1X-0.263Y13.398
N22470G1X-2.031
N22480G1X-2.002Y13.441
N22490G1X-1.946Y13.478
N22500G1X-0.347
N22510G00Z6.000
N22520G00X-0.620Y11.900
N22530G1Z-0.500F480.0
N22540G1X-0.556Y11.944F1200.0
N22550G1X-0.517Y12.007
N22560G1X-0.506Y12.089
N22570G1X-0.520Y12.170
N22580G1X-0.559Y12.230
N22590G1X-0.622Y12.269
N22600G1X-0.711Y12.287
N22610G1X-1.656
N22620G1Y13.088
N22630G1X-0.444
N22640G1X-0.354Y13.106
N22650G1X-0.289Y13.146
N22660G1X-0.251Y13.208
N22670G1X-0.238Y13.293
N22680G1X-0.250Y13.377
N22690G1X-0.289Y13.440
N22700G1X-0.352Y13.481
N22710G1X-0.441Y13.500
N22720G1X-1.859
N22730G1X-1.941Y13.482
N22740G1X-2.002Y13.441
N22750G1X-2.045Y13.378
N22760G1X-2.067Y13.292
N22770G1Y10.708
N22780G1X-2.043Y10.617
N22790G1X-1.999Y10.553
N22800G1X-1.937Y10.515
N22810G1X-1.854Y10.503
N22820G1X-1.773Y10.517
N22830G1X-1.713Y10.556
N22840G1X-1.674Y10.619
N22850G1X-1.656Y10.708
N22860G1Y11.875
N22870G1X-0.711
N22880G1X-0.620Y11.900
N22890G00Z6.000
N22900G00Z20.000
N22910G00X0.000Y0.000
N22920M09
N22930M30
%
