( LIGHTS_PANELS_CUTOUT )
( File created: Friday December 13 2019 - 08:21 PM)
( USBCNC Postprocessor )
( Material Size)
( X= 250.000, Y= 250.000, Z= 2.000)
()
(Toolpaths used in this file:)
(Profile 1)
(Profile 2)
(Profile 3)
(Profile 4)
(Profile 5)
(Profile 6)
(Profile 7)
(Profile 8)
(Tools used in this file: )
(1 = End Mill {2 mm})
N170G00G21G17G90G40G49
N180G80
N190 (End Mill {2 mm})
N200G00G43Z20.000H1
N210S12000M03
N220(Toolpath:- Profile 1)
N230()
N240G94
N250X0.000Y0.000F3600.0
N260G00X-18.070Y2.796Z6.000
N270G1Z-0.500F1200.0
N280G1X-18.017Y3.143F3600.0
N290G1X-18.000Y3.475
N300G1Y16.525
N310G1X-18.017Y16.857
N320G1X-18.070Y17.204
N330G1X-18.156Y17.541
N340G1X-18.274Y17.863
N350G1X-18.422Y18.169
N360G1X-18.597Y18.458
N370G1X-18.799Y18.727
N380G1X-19.024Y18.976
N390G1X-19.273Y19.201
N400G1X-19.542Y19.403
N410G1X-19.831Y19.578
N420G1X-20.137Y19.726
N430G1X-20.459Y19.844
N440G1X-20.796Y19.930
N450G1X-21.143Y19.983
N460G1X-21.475Y20.000
N470G1X-32.525
N480G1X-32.857Y19.983
N490G1X-33.204Y19.930
N500G1X-33.541Y19.844
N510G1X-33.863Y19.726
N520G1X-34.169Y19.578
N530G1X-34.458Y19.403
N540G1X-34.727Y19.201
N550G1X-34.976Y18.976
N560G1X-35.201Y18.727
N570G1X-35.403Y18.458
N580G1X-35.578Y18.169
N590G1X-35.726Y17.863
N600G1X-35.844Y17.541
N610G1X-35.930Y17.204
N620G1X-35.983Y16.857
N630G1X-36.000Y16.525
N640G1Y3.475
N650G1X-35.983Y3.143
N660G1X-35.930Y2.796
N670G1X-35.844Y2.459
N680G1X-35.726Y2.137
N690G1X-35.578Y1.831
N700G1X-35.403Y1.542
N710G1X-35.201Y1.273
N720G1X-34.976Y1.024
N730G1X-34.727Y0.799
N740G1X-34.458Y0.597
N750G1X-34.169Y0.422
N760G1X-33.863Y0.274
N770G1X-33.541Y0.156
N780G1X-33.204Y0.070
N790G1X-32.857Y0.017
N800G1X-32.525Y0.000
N810G1X-28.000
N820G3X-27.000Y1.000I0.000J1.000
N830G1X-27.001Y3.101
N840G3X-27.759Y4.071I-1.000J0.000
N850G1X-28.138Y4.165
N860G1X-28.462Y4.276
N870G1X-28.773Y4.414
N880G1X-29.070Y4.577
N890G1X-29.351Y4.764
N900G1X-29.614Y4.974
N910G1X-29.860Y5.204
N920G1X-30.085Y5.455
N930G1X-30.288Y5.723
N940G1X-30.469Y6.008
N950G1X-30.625Y6.309
N960G1X-30.756Y6.624
N970G1X-30.860Y6.951
N980G1X-30.936Y7.290
N990G1X-30.983Y7.640
N1000G1X-30.999Y7.997
N1010G1X-30.978Y8.410
N1020G1X-30.917Y8.807
N1030G1X-30.819Y9.190
N1040G1X-30.685Y9.556
N1050G1X-30.517Y9.906
N1060G1X-30.316Y10.235
N1070G1X-30.086Y10.543
N1080G1X-29.828Y10.828
N1090G1X-29.543Y11.086
N1100G1X-29.235Y11.316
N1110G1X-28.906Y11.517
N1120G1X-28.556Y11.685
N1130G1X-28.190Y11.819
N1140G1X-27.807Y11.917
N1150G1X-27.410Y11.978
N1160G1X-27.000Y11.999
N1170G1X-26.590Y11.978
N1180G1X-26.193Y11.917
N1190G1X-25.810Y11.819
N1200G1X-25.444Y11.685
N1210G1X-25.094Y11.517
N1220G1X-24.765Y11.316
N1230G1X-24.457Y11.086
N1240G1X-24.172Y10.828
N1250G1X-23.914Y10.543
N1260G1X-23.684Y10.235
N1270G1X-23.483Y9.906
N1280G1X-23.315Y9.556
N1290G1X-23.181Y9.190
N1300G1X-23.083Y8.807
N1310G1X-23.022Y8.410
N1320G1X-23.001Y7.997
N1330G1X-23.017Y7.640
N1340G1X-23.064Y7.290
N1350G1X-23.140Y6.951
N1360G1X-23.244Y6.623
N1370G1X-23.375Y6.309
N1380G1X-23.531Y6.008
N1390G1X-23.712Y5.723
N1400G1X-23.916Y5.454
N1410G1X-24.141Y5.204
N1420G1X-24.386Y4.973
N1430G1X-24.650Y4.764
N1440G1X-24.931Y4.577
N1450G1X-25.228Y4.414
N1460G1X-25.539Y4.276
N1470G1X-25.863Y4.165
N1480G1X-26.242Y4.070
N1490G3X-27.000Y3.100I0.242J-0.970
N1500G1X-27.000Y1.000
N1510G3X-26.000Y0.000I1.000J0.000
N1520G1X-21.475Y0.000
N1530G1X-21.143Y0.017
N1540G1X-20.796Y0.070
N1550G1X-20.459Y0.156
N1560G1X-20.137Y0.274
N1570G1X-19.831Y0.422
N1580G1X-19.542Y0.597
N1590G1X-19.273Y0.799
N1600G1X-19.024Y1.024
N1610G1X-18.799Y1.273
N1620G1X-18.597Y1.542
N1630G1X-18.422Y1.831
N1640G1X-18.274Y2.137
N1650G1X-18.156Y2.459
N1660G1X-18.070Y2.796
N1670G1Z-1.000F1200.0
N1680G1X-18.017Y3.143F3600.0
N1690G1X-18.000Y3.475
N1700G1Y16.525
N1710G1X-18.017Y16.857
N1720G1X-18.070Y17.204
N1730G1X-18.156Y17.541
N1740G1X-18.274Y17.863
N1750G1X-18.422Y18.169
N1760G1X-18.597Y18.458
N1770G1X-18.799Y18.727
N1780G1X-19.024Y18.976
N1790G1X-19.273Y19.201
N1800G1X-19.542Y19.403
N1810G1X-19.831Y19.578
N1820G1X-20.137Y19.726
N1830G1X-20.459Y19.844
N1840G1X-20.796Y19.930
N1850G1X-21.143Y19.983
N1860G1X-21.475Y20.000
N1870G1X-32.525
N1880G1X-32.857Y19.983
N1890G1X-33.204Y19.930
N1900G1X-33.541Y19.844
N1910G1X-33.863Y19.726
N1920G1X-34.169Y19.578
N1930G1X-34.458Y19.403
N1940G1X-34.727Y19.201
N1950G1X-34.976Y18.976
N1960G1X-35.201Y18.727
N1970G1X-35.403Y18.458
N1980G1X-35.578Y18.169
N1990G1X-35.726Y17.863
N2000G1X-35.844Y17.541
N2010G1X-35.930Y17.204
N2020G1X-35.983Y16.857
N2030G1X-36.000Y16.525
N2040G1Y3.475
N2050G1X-35.983Y3.143
N2060G1X-35.930Y2.796
N2070G1X-35.844Y2.459
N2080G1X-35.726Y2.137
N2090G1X-35.578Y1.831
N2100G1X-35.403Y1.542
N2110G1X-35.201Y1.273
N2120G1X-34.976Y1.024
N2130G1X-34.727Y0.799
N2140G1X-34.458Y0.597
N2150G1X-34.169Y0.422
N2160G1X-33.863Y0.274
N2170G1X-33.541Y0.156
N2180G1X-33.204Y0.070
N2190G1X-32.857Y0.017
N2200G1X-32.525Y0.000
N2210G1X-28.000
N2220G3X-27.000Y1.000I0.000J1.000
N2230G1X-27.001Y3.101
N2240G3X-27.759Y4.071I-1.000J0.000
N2250G1X-28.138Y4.165
N2260G1X-28.462Y4.276
N2270G1X-28.773Y4.414
N2280G1X-29.070Y4.577
N2290G1X-29.351Y4.764
N2300G1X-29.614Y4.974
N2310G1X-29.860Y5.204
N2320G1X-30.085Y5.455
N2330G1X-30.288Y5.723
N2340G1X-30.469Y6.008
N2350G1X-30.625Y6.309
N2360G1X-30.756Y6.624
N2370G1X-30.860Y6.951
N2380G1X-30.936Y7.290
N2390G1X-30.983Y7.640
N2400G1X-30.999Y7.997
N2410G1X-30.978Y8.410
N2420G1X-30.917Y8.807
N2430G1X-30.819Y9.190
N2440G1X-30.685Y9.556
N2450G1X-30.517Y9.906
N2460G1X-30.316Y10.235
N2470G1X-30.086Y10.543
N2480G1X-29.828Y10.828
N2490G1X-29.543Y11.086
N2500G1X-29.235Y11.316
N2510G1X-28.906Y11.517
N2520G1X-28.556Y11.685
N2530G1X-28.190Y11.819
N2540G1X-27.807Y11.917
N2550G1X-27.410Y11.978
N2560G1X-27.000Y11.999
N2570G1X-26.590Y11.978
N2580G1X-26.193Y11.917
N2590G1X-25.810Y11.819
N2600G1X-25.444Y11.685
N2610G1X-25.094Y11.517
N2620G1X-24.765Y11.316
N2630G1X-24.457Y11.086
N2640G1X-24.172Y10.828
N2650G1X-23.914Y10.543
N2660G1X-23.684Y10.235
N2670G1X-23.483Y9.906
N2680G1X-23.315Y9.556
N2690G1X-23.181Y9.190
N2700G1X-23.083Y8.807
N2710G1X-23.022Y8.410
N2720G1X-23.001Y7.997
N2730G1X-23.017Y7.640
N2740G1X-23.064Y7.290
N2750G1X-23.140Y6.951
N2760G1X-23.244Y6.623
N2770G1X-23.375Y6.309
N2780G1X-23.531Y6.008
N2790G1X-23.712Y5.723
N2800G1X-23.916Y5.454
N2810G1X-24.141Y5.204
N2820G1X-24.386Y4.973
N2830G1X-24.650Y4.764
N2840G1X-24.931Y4.577
N2850G1X-25.228Y4.414
N2860G1X-25.539Y4.276
N2870G1X-25.863Y4.165
N2880G1X-26.242Y4.070
N2890G3X-27.000Y3.100I0.242J-0.970
N2900G1X-27.000Y1.000
N2910G3X-26.000Y0.000I1.000J0.000
N2920G1X-21.475Y0.000
N2930G1X-21.143Y0.017
N2940G1X-20.796Y0.070
N2950G1X-20.459Y0.156
N2960G1X-20.137Y0.274
N2970G1X-19.831Y0.422
N2980G1X-19.542Y0.597
N2990G1X-19.273Y0.799
N3000G1X-19.024Y1.024
N3010G1X-18.799Y1.273
N3020G1X-18.597Y1.542
N3030G1X-18.422Y1.831
N3040G1X-18.274Y2.137
N3050G1X-18.156Y2.459
N3060G1X-18.070Y2.796
N3070G1Z-1.500F1200.0
N3080G1X-18.017Y3.143F3600.0
N3090G1X-18.000Y3.475
N3100G1Y16.525
N3110G1X-18.017Y16.857
N3120G1X-18.070Y17.204
N3130G1X-18.156Y17.541
N3140G1X-18.274Y17.863
N3150G1X-18.422Y18.169
N3160G1X-18.597Y18.458
N3170G1X-18.799Y18.727
N3180G1X-19.024Y18.976
N3190G1X-19.273Y19.201
N3200G1X-19.542Y19.403
N3210G1X-19.831Y19.578
N3220G1X-20.137Y19.726
N3230G1X-20.459Y19.844
N3240G1X-20.796Y19.930
N3250G1X-21.143Y19.983
N3260G1X-21.475Y20.000
N3270G1X-32.525
N3280G1X-32.857Y19.983
N3290G1X-33.204Y19.930
N3300G1X-33.541Y19.844
N3310G1X-33.863Y19.726
N3320G1X-34.169Y19.578
N3330G1X-34.458Y19.403
N3340G1X-34.727Y19.201
N3350G1X-34.976Y18.976
N3360G1X-35.201Y18.727
N3370G1X-35.403Y18.458
N3380G1X-35.578Y18.169
N3390G1X-35.726Y17.863
N3400G1X-35.844Y17.541
N3410G1X-35.930Y17.204
N3420G1X-35.983Y16.857
N3430G1X-36.000Y16.525
N3440G1Y3.475
N3450G1X-35.983Y3.143
N3460G1X-35.930Y2.796
N3470G1X-35.844Y2.459
N3480G1X-35.726Y2.137
N3490G1X-35.578Y1.831
N3500G1X-35.403Y1.542
N3510G1X-35.201Y1.273
N3520G1X-34.976Y1.024
N3530G1X-34.727Y0.799
N3540G1X-34.458Y0.597
N3550G1X-34.169Y0.422
N3560G1X-33.863Y0.274
N3570G1X-33.541Y0.156
N3580G1X-33.204Y0.070
N3590G1X-32.857Y0.017
N3600G1X-32.525Y0.000
N3610G1X-28.000
N3620G3X-27.000Y1.000I0.000J1.000
N3630G1X-27.001Y3.101
N3640G3X-27.759Y4.071I-1.000J0.000
N3650G1X-28.138Y4.165
N3660G1X-28.462Y4.276
N3670G1X-28.773Y4.414
N3680G1X-29.070Y4.577
N3690G1X-29.351Y4.764
N3700G1X-29.614Y4.974
N3710G1X-29.860Y5.204
N3720G1X-30.085Y5.455
N3730G1X-30.288Y5.723
N3740G1X-30.469Y6.008
N3750G1X-30.625Y6.309
N3760G1X-30.756Y6.624
N3770G1X-30.860Y6.951
N3780G1X-30.936Y7.290
N3790G1X-30.983Y7.640
N3800G1X-30.999Y7.997
N3810G1X-30.978Y8.410
N3820G1X-30.917Y8.807
N3830G1X-30.819Y9.190
N3840G1X-30.685Y9.556
N3850G1X-30.517Y9.906
N3860G1X-30.316Y10.235
N3870G1X-30.086Y10.543
N3880G1X-29.828Y10.828
N3890G1X-29.543Y11.086
N3900G1X-29.235Y11.316
N3910G1X-28.906Y11.517
N3920G1X-28.556Y11.685
N3930G1X-28.190Y11.819
N3940G1X-27.807Y11.917
N3950G1X-27.410Y11.978
N3960G1X-27.000Y11.999
N3970G1X-26.590Y11.978
N3980G1X-26.193Y11.917
N3990G1X-25.810Y11.819
N4000G1X-25.444Y11.685
N4010G1X-25.094Y11.517
N4020G1X-24.765Y11.316
N4030G1X-24.457Y11.086
N4040G1X-24.172Y10.828
N4050G1X-23.914Y10.543
N4060G1X-23.684Y10.235
N4070G1X-23.483Y9.906
N4080G1X-23.315Y9.556
N4090G1X-23.181Y9.190
N4100G1X-23.083Y8.807
N4110G1X-23.022Y8.410
N4120G1X-23.001Y7.997
N4130G1X-23.017Y7.640
N4140G1X-23.064Y7.290
N4150G1X-23.140Y6.951
N4160G1X-23.244Y6.623
N4170G1X-23.375Y6.309
N4180G1X-23.531Y6.008
N4190G1X-23.712Y5.723
N4200G1X-23.916Y5.454
N4210G1X-24.141Y5.204
N4220G1X-24.386Y4.973
N4230G1X-24.650Y4.764
N4240G1X-24.931Y4.577
N4250G1X-25.228Y4.414
N4260G1X-25.539Y4.276
N4270G1X-25.863Y4.165
N4280G1X-26.242Y4.070
N4290G3X-27.000Y3.100I0.242J-0.970
N4300G1X-27.000Y1.000
N4310G3X-26.000Y0.000I1.000J0.000
N4320G1X-21.475Y0.000
N4330G1X-21.143Y0.017
N4340G1X-20.796Y0.070
N4350G1X-20.459Y0.156
N4360G1X-20.137Y0.274
N4370G1X-19.831Y0.422
N4380G1X-19.542Y0.597
N4390G1X-19.273Y0.799
N4400G1X-19.024Y1.024
N4410G1X-18.799Y1.273
N4420G1X-18.597Y1.542
N4430G1X-18.422Y1.831
N4440G1X-18.274Y2.137
N4450G1X-18.156Y2.459
N4460G1X-18.070Y2.796
N4470G1Z-2.000F1200.0
N4480G1X-18.017Y3.143F3600.0
N4490G1X-18.000Y3.475
N4500G1Y16.525
N4510G1X-18.017Y16.857
N4520G1X-18.070Y17.204
N4530G1X-18.156Y17.541
N4540G1X-18.274Y17.863
N4550G1X-18.422Y18.169
N4560G1X-18.597Y18.458
N4570G1X-18.799Y18.727
N4580G1X-19.024Y18.976
N4590G1X-19.273Y19.201
N4600G1X-19.542Y19.403
N4610G1X-19.831Y19.578
N4620G1X-20.137Y19.726
N4630G1X-20.459Y19.844
N4640G1X-20.796Y19.930
N4650G1X-21.143Y19.983
N4660G1X-21.475Y20.000
N4670G1X-32.525
N4680G1X-32.857Y19.983
N4690G1X-33.204Y19.930
N4700G1X-33.541Y19.844
N4710G1X-33.863Y19.726
N4720G1X-34.169Y19.578
N4730G1X-34.458Y19.403
N4740G1X-34.727Y19.201
N4750G1X-34.976Y18.976
N4760G1X-35.201Y18.727
N4770G1X-35.403Y18.458
N4780G1X-35.578Y18.169
N4790G1X-35.726Y17.863
N4800G1X-35.844Y17.541
N4810G1X-35.930Y17.204
N4820G1X-35.983Y16.857
N4830G1X-36.000Y16.525
N4840G1Y3.475
N4850G1X-35.983Y3.143
N4860G1X-35.930Y2.796
N4870G1X-35.844Y2.459
N4880G1X-35.726Y2.137
N4890G1X-35.578Y1.831
N4900G1X-35.403Y1.542
N4910G1X-35.201Y1.273
N4920G1X-34.976Y1.024
N4930G1X-34.727Y0.799
N4940G1X-34.458Y0.597
N4950G1X-34.169Y0.422
N4960G1X-33.863Y0.274
N4970G1X-33.541Y0.156
N4980G1X-33.204Y0.070
N4990G1X-32.857Y0.017
N5000G1X-32.525Y0.000
N5010G1X-28.000
N5020G3X-27.000Y1.000I0.000J1.000
N5030G1X-27.001Y3.101
N5040G3X-27.759Y4.071I-1.000J0.000
N5050G1X-28.138Y4.165
N5060G1X-28.462Y4.276
N5070G1X-28.773Y4.414
N5080G1X-29.070Y4.577
N5090G1X-29.351Y4.764
N5100G1X-29.614Y4.974
N5110G1X-29.860Y5.204
N5120G1X-30.085Y5.455
N5130G1X-30.288Y5.723
N5140G1X-30.469Y6.008
N5150G1X-30.625Y6.309
N5160G1X-30.756Y6.624
N5170G1X-30.860Y6.951
N5180G1X-30.936Y7.290
N5190G1X-30.983Y7.640
N5200G1X-30.999Y7.997
N5210G1X-30.978Y8.410
N5220G1X-30.917Y8.807
N5230G1X-30.819Y9.190
N5240G1X-30.685Y9.556
N5250G1X-30.517Y9.906
N5260G1X-30.316Y10.235
N5270G1X-30.086Y10.543
N5280G1X-29.828Y10.828
N5290G1X-29.543Y11.086
N5300G1X-29.235Y11.316
N5310G1X-28.906Y11.517
N5320G1X-28.556Y11.685
N5330G1X-28.190Y11.819
N5340G1X-27.807Y11.917
N5350G1X-27.410Y11.978
N5360G1X-27.000Y11.999
N5370G1X-26.590Y11.978
N5380G1X-26.193Y11.917
N5390G1X-25.810Y11.819
N5400G1X-25.444Y11.685
N5410G1X-25.094Y11.517
N5420G1X-24.765Y11.316
N5430G1X-24.457Y11.086
N5440G1X-24.172Y10.828
N5450G1X-23.914Y10.543
N5460G1X-23.684Y10.235
N5470G1X-23.483Y9.906
N5480G1X-23.315Y9.556
N5490G1X-23.181Y9.190
N5500G1X-23.083Y8.807
N5510G1X-23.022Y8.410
N5520G1X-23.001Y7.997
N5530G1X-23.017Y7.640
N5540G1X-23.064Y7.290
N5550G1X-23.140Y6.951
N5560G1X-23.244Y6.623
N5570G1X-23.375Y6.309
N5580G1X-23.531Y6.008
N5590G1X-23.712Y5.723
N5600G1X-23.916Y5.454
N5610G1X-24.141Y5.204
N5620G1X-24.386Y4.973
N5630G1X-24.650Y4.764
N5640G1X-24.931Y4.577
N5650G1X-25.228Y4.414
N5660G1X-25.539Y4.276
N5670G1X-25.863Y4.165
N5680G1X-26.242Y4.070
N5690G3X-27.000Y3.100I0.242J-0.970
N5700G1X-27.000Y1.000
N5710G3X-26.000Y0.000I1.000J0.000
N5720G1X-21.475Y0.000
N5730G1X-21.143Y0.017
N5740G1X-20.796Y0.070
N5750G1X-20.459Y0.156
N5760G1X-20.137Y0.274
N5770G1X-19.831Y0.422
N5780G1X-19.542Y0.597
N5790G1X-19.273Y0.799
N5800G1X-19.024Y1.024
N5810G1X-18.799Y1.273
N5820G1X-18.597Y1.542
N5830G1X-18.422Y1.831
N5840G1X-18.274Y2.137
N5850G1X-18.156Y2.459
N5860G1X-18.070Y2.796
N5870G00Z6.000
N5880S12000M03
(Profile 2)
()
N5910G00X-1.024Y1.024Z6.000
N5920G1Z-0.500F1200.0
N5930G1X-0.799Y1.273F3600.0
N5940G1X-0.597Y1.542
N5950G1X-0.422Y1.831
N5960G1X-0.274Y2.137
N5970G1X-0.156Y2.459
N5980G1X-0.070Y2.796
N5990G1X-0.017Y3.143
N6000G1X0.000Y3.475
N6010G1Y16.525
N6020G1X-0.017Y16.857
N6030G1X-0.070Y17.204
N6040G1X-0.156Y17.541
N6050G1X-0.274Y17.863
N6060G1X-0.422Y18.169
N6070G1X-0.597Y18.458
N6080G1X-0.799Y18.727
N6090G1X-1.024Y18.976
N6100G1X-1.273Y19.201
N6110G1X-1.542Y19.403
N6120G1X-1.831Y19.578
N6130G1X-2.137Y19.726
N6140G1X-2.459Y19.844
N6150G1X-2.796Y19.930
N6160G1X-3.143Y19.983
N6170G1X-3.475Y20.000
N6180G1X-14.525
N6190G1X-14.857Y19.983
N6200G1X-15.204Y19.930
N6210G1X-15.541Y19.844
N6220G1X-15.863Y19.726
N6230G1X-16.169Y19.578
N6240G1X-16.458Y19.403
N6250G1X-16.727Y19.201
N6260G1X-16.976Y18.976
N6270G1X-17.201Y18.727
N6280G1X-17.403Y18.458
N6290G1X-17.578Y18.169
N6300G1X-17.726Y17.863
N6310G1X-17.844Y17.541
N6320G1X-17.930Y17.204
N6330G1X-17.983Y16.857
N6340G1X-18.000Y16.525
N6350G1Y3.475
N6360G1X-17.983Y3.143
N6370G1X-17.930Y2.796
N6380G1X-17.844Y2.459
N6390G1X-17.726Y2.137
N6400G1X-17.578Y1.831
N6410G1X-17.403Y1.542
N6420G1X-17.201Y1.273
N6430G1X-16.976Y1.024
N6440G1X-16.727Y0.799
N6450G1X-16.458Y0.597
N6460G1X-16.169Y0.422
N6470G1X-15.863Y0.274
N6480G1X-15.541Y0.156
N6490G1X-15.204Y0.070
N6500G1X-14.857Y0.017
N6510G1X-14.525Y0.000
N6520G1X-10.000
N6530G3X-9.000Y1.000I0.000J1.000
N6540G1X-9.001Y3.101
N6550G3X-9.759Y4.071I-1.000J0.000
N6560G1X-10.138Y4.165
N6570G1X-10.462Y4.276
N6580G1X-10.773Y4.414
N6590G1X-11.070Y4.577
N6600G1X-11.351Y4.764
N6610G1X-11.614Y4.974
N6620G1X-11.859Y5.204
N6630G1X-12.085Y5.455
N6640G1X-12.288Y5.723
N6650G1X-12.469Y6.008
N6660G1X-12.625Y6.309
N6670G1X-12.756Y6.624
N6680G1X-12.860Y6.951
N6690G1X-12.936Y7.290
N6700G1X-12.983Y7.640
N6710G1X-12.999Y7.997
N6720G1X-12.978Y8.410
N6730G1X-12.917Y8.807
N6740G1X-12.819Y9.190
N6750G1X-12.685Y9.556
N6760G1X-12.517Y9.906
N6770G1X-12.316Y10.235
N6780G1X-12.086Y10.543
N6790G1X-11.828Y10.828
N6800G1X-11.543Y11.086
N6810G1X-11.235Y11.316
N6820G1X-10.906Y11.517
N6830G1X-10.556Y11.685
N6840G1X-10.190Y11.819
N6850G1X-9.807Y11.917
N6860G1X-9.410Y11.978
N6870G1X-9.000Y11.999
N6880G1X-8.590Y11.978
N6890G1X-8.193Y11.917
N6900G1X-7.810Y11.819
N6910G1X-7.444Y11.685
N6920G1X-7.094Y11.517
N6930G1X-6.765Y11.316
N6940G1X-6.457Y11.086
N6950G1X-6.172Y10.828
N6960G1X-5.914Y10.543
N6970G1X-5.684Y10.235
N6980G1X-5.483Y9.906
N6990G1X-5.315Y9.556
N7000G1X-5.181Y9.190
N7010G1X-5.083Y8.807
N7020G1X-5.022Y8.410
N7030G1X-5.001Y7.997
N7040G1X-5.017Y7.640
N7050G1X-5.064Y7.290
N7060G1X-5.140Y6.951
N7070G1X-5.244Y6.623
N7080G1X-5.375Y6.309
N7090G1X-5.531Y6.008
N7100G1X-5.712Y5.723
N7110G1X-5.916Y5.454
N7120G1X-6.141Y5.204
N7130G1X-6.386Y4.973
N7140G1X-6.650Y4.764
N7150G1X-6.931Y4.577
N7160G1X-7.228Y4.414
N7170G1X-7.539Y4.276
N7180G1X-7.863Y4.165
N7190G1X-8.242Y4.070
N7200G3X-9.000Y3.100I0.242J-0.970
N7210G1X-9.000Y1.000
N7220G3X-8.000Y0.000I1.000J0.000
N7230G1X-3.475Y0.000
N7240G1X-3.143Y0.017
N7250G1X-2.796Y0.070
N7260G1X-2.459Y0.156
N7270G1X-2.137Y0.274
N7280G1X-1.831Y0.422
N7290G1X-1.542Y0.597
N7300G1X-1.273Y0.799
N7310G1X-1.024Y1.024
N7320G1Z-1.000F1200.0
N7330G1X-0.799Y1.273F3600.0
N7340G1X-0.597Y1.542
N7350G1X-0.422Y1.831
N7360G1X-0.274Y2.137
N7370G1X-0.156Y2.459
N7380G1X-0.070Y2.796
N7390G1X-0.017Y3.143
N7400G1X0.000Y3.475
N7410G1Y16.525
N7420G1X-0.017Y16.857
N7430G1X-0.070Y17.204
N7440G1X-0.156Y17.541
N7450G1X-0.274Y17.863
N7460G1X-0.422Y18.169
N7470G1X-0.597Y18.458
N7480G1X-0.799Y18.727
N7490G1X-1.024Y18.976
N7500G1X-1.273Y19.201
N7510G1X-1.542Y19.403
N7520G1X-1.831Y19.578
N7530G1X-2.137Y19.726
N7540G1X-2.459Y19.844
N7550G1X-2.796Y19.930
N7560G1X-3.143Y19.983
N7570G1X-3.475Y20.000
N7580G1X-14.525
N7590G1X-14.857Y19.983
N7600G1X-15.204Y19.930
N7610G1X-15.541Y19.844
N7620G1X-15.863Y19.726
N7630G1X-16.169Y19.578
N7640G1X-16.458Y19.403
N7650G1X-16.727Y19.201
N7660G1X-16.976Y18.976
N7670G1X-17.201Y18.727
N7680G1X-17.403Y18.458
N7690G1X-17.578Y18.169
N7700G1X-17.726Y17.863
N7710G1X-17.844Y17.541
N7720G1X-17.930Y17.204
N7730G1X-17.983Y16.857
N7740G1X-18.000Y16.525
N7750G1Y3.475
N7760G1X-17.983Y3.143
N7770G1X-17.930Y2.796
N7780G1X-17.844Y2.459
N7790G1X-17.726Y2.137
N7800G1X-17.578Y1.831
N7810G1X-17.403Y1.542
N7820G1X-17.201Y1.273
N7830G1X-16.976Y1.024
N7840G1X-16.727Y0.799
N7850G1X-16.458Y0.597
N7860G1X-16.169Y0.422
N7870G1X-15.863Y0.274
N7880G1X-15.541Y0.156
N7890G1X-15.204Y0.070
N7900G1X-14.857Y0.017
N7910G1X-14.525Y0.000
N7920G1X-10.000
N7930G3X-9.000Y1.000I0.000J1.000
N7940G1X-9.001Y3.101
N7950G3X-9.759Y4.071I-1.000J0.000
N7960G1X-10.138Y4.165
N7970G1X-10.462Y4.276
N7980G1X-10.773Y4.414
N7990G1X-11.070Y4.577
N8000G1X-11.351Y4.764
N8010G1X-11.614Y4.974
N8020G1X-11.859Y5.204
N8030G1X-12.085Y5.455
N8040G1X-12.288Y5.723
N8050G1X-12.469Y6.008
N8060G1X-12.625Y6.309
N8070G1X-12.756Y6.624
N8080G1X-12.860Y6.951
N8090G1X-12.936Y7.290
N8100G1X-12.983Y7.640
N8110G1X-12.999Y7.997
N8120G1X-12.978Y8.410
N8130G1X-12.917Y8.807
N8140G1X-12.819Y9.190
N8150G1X-12.685Y9.556
N8160G1X-12.517Y9.906
N8170G1X-12.316Y10.235
N8180G1X-12.086Y10.543
N8190G1X-11.828Y10.828
N8200G1X-11.543Y11.086
N8210G1X-11.235Y11.316
N8220G1X-10.906Y11.517
N8230G1X-10.556Y11.685
N8240G1X-10.190Y11.819
N8250G1X-9.807Y11.917
N8260G1X-9.410Y11.978
N8270G1X-9.000Y11.999
N8280G1X-8.590Y11.978
N8290G1X-8.193Y11.917
N8300G1X-7.810Y11.819
N8310G1X-7.444Y11.685
N8320G1X-7.094Y11.517
N8330G1X-6.765Y11.316
N8340G1X-6.457Y11.086
N8350G1X-6.172Y10.828
N8360G1X-5.914Y10.543
N8370G1X-5.684Y10.235
N8380G1X-5.483Y9.906
N8390G1X-5.315Y9.556
N8400G1X-5.181Y9.190
N8410G1X-5.083Y8.807
N8420G1X-5.022Y8.410
N8430G1X-5.001Y7.997
N8440G1X-5.017Y7.640
N8450G1X-5.064Y7.290
N8460G1X-5.140Y6.951
N8470G1X-5.244Y6.623
N8480G1X-5.375Y6.309
N8490G1X-5.531Y6.008
N8500G1X-5.712Y5.723
N8510G1X-5.916Y5.454
N8520G1X-6.141Y5.204
N8530G1X-6.386Y4.973
N8540G1X-6.650Y4.764
N8550G1X-6.931Y4.577
N8560G1X-7.228Y4.414
N8570G1X-7.539Y4.276
N8580G1X-7.863Y4.165
N8590G1X-8.242Y4.070
N8600G3X-9.000Y3.100I0.242J-0.970
N8610G1X-9.000Y1.000
N8620G3X-8.000Y0.000I1.000J0.000
N8630G1X-3.475Y0.000
N8640G1X-3.143Y0.017
N8650G1X-2.796Y0.070
N8660G1X-2.459Y0.156
N8670G1X-2.137Y0.274
N8680G1X-1.831Y0.422
N8690G1X-1.542Y0.597
N8700G1X-1.273Y0.799
N8710G1X-1.024Y1.024
N8720G1Z-1.500F1200.0
N8730G1X-0.799Y1.273F3600.0
N8740G1X-0.597Y1.542
N8750G1X-0.422Y1.831
N8760G1X-0.274Y2.137
N8770G1X-0.156Y2.459
N8780G1X-0.070Y2.796
N8790G1X-0.017Y3.143
N8800G1X0.000Y3.475
N8810G1Y16.525
N8820G1X-0.017Y16.857
N8830G1X-0.070Y17.204
N8840G1X-0.156Y17.541
N8850G1X-0.274Y17.863
N8860G1X-0.422Y18.169
N8870G1X-0.597Y18.458
N8880G1X-0.799Y18.727
N8890G1X-1.024Y18.976
N8900G1X-1.273Y19.201
N8910G1X-1.542Y19.403
N8920G1X-1.831Y19.578
N8930G1X-2.137Y19.726
N8940G1X-2.459Y19.844
N8950G1X-2.796Y19.930
N8960G1X-3.143Y19.983
N8970G1X-3.475Y20.000
N8980G1X-14.525
N8990G1X-14.857Y19.983
N9000G1X-15.204Y19.930
N9010G1X-15.541Y19.844
N9020G1X-15.863Y19.726
N9030G1X-16.169Y19.578
N9040G1X-16.458Y19.403
N9050G1X-16.727Y19.201
N9060G1X-16.976Y18.976
N9070G1X-17.201Y18.727
N9080G1X-17.403Y18.458
N9090G1X-17.578Y18.169
N9100G1X-17.726Y17.863
N9110G1X-17.844Y17.541
N9120G1X-17.930Y17.204
N9130G1X-17.983Y16.857
N9140G1X-18.000Y16.525
N9150G1Y3.475
N9160G1X-17.983Y3.143
N9170G1X-17.930Y2.796
N9180G1X-17.844Y2.459
N9190G1X-17.726Y2.137
N9200G1X-17.578Y1.831
N9210G1X-17.403Y1.542
N9220G1X-17.201Y1.273
N9230G1X-16.976Y1.024
N9240G1X-16.727Y0.799
N9250G1X-16.458Y0.597
N9260G1X-16.169Y0.422
N9270G1X-15.863Y0.274
N9280G1X-15.541Y0.156
N9290G1X-15.204Y0.070
N9300G1X-14.857Y0.017
N9310G1X-14.525Y0.000
N9320G1X-10.000
N9330G3X-9.000Y1.000I0.000J1.000
N9340G1X-9.001Y3.101
N9350G3X-9.759Y4.071I-1.000J0.000
N9360G1X-10.138Y4.165
N9370G1X-10.462Y4.276
N9380G1X-10.773Y4.414
N9390G1X-11.070Y4.577
N9400G1X-11.351Y4.764
N9410G1X-11.614Y4.974
N9420G1X-11.859Y5.204
N9430G1X-12.085Y5.455
N9440G1X-12.288Y5.723
N9450G1X-12.469Y6.008
N9460G1X-12.625Y6.309
N9470G1X-12.756Y6.624
N9480G1X-12.860Y6.951
N9490G1X-12.936Y7.290
N9500G1X-12.983Y7.640
N9510G1X-12.999Y7.997
N9520G1X-12.978Y8.410
N9530G1X-12.917Y8.807
N9540G1X-12.819Y9.190
N9550G1X-12.685Y9.556
N9560G1X-12.517Y9.906
N9570G1X-12.316Y10.235
N9580G1X-12.086Y10.543
N9590G1X-11.828Y10.828
N9600G1X-11.543Y11.086
N9610G1X-11.235Y11.316
N9620G1X-10.906Y11.517
N9630G1X-10.556Y11.685
N9640G1X-10.190Y11.819
N9650G1X-9.807Y11.917
N9660G1X-9.410Y11.978
N9670G1X-9.000Y11.999
N9680G1X-8.590Y11.978
N9690G1X-8.193Y11.917
N9700G1X-7.810Y11.819
N9710G1X-7.444Y11.685
N9720G1X-7.094Y11.517
N9730G1X-6.765Y11.316
N9740G1X-6.457Y11.086
N9750G1X-6.172Y10.828
N9760G1X-5.914Y10.543
N9770G1X-5.684Y10.235
N9780G1X-5.483Y9.906
N9790G1X-5.315Y9.556
N9800G1X-5.181Y9.190
N9810G1X-5.083Y8.807
N9820G1X-5.022Y8.410
N9830G1X-5.001Y7.997
N9840G1X-5.017Y7.640
N9850G1X-5.064Y7.290
N9860G1X-5.140Y6.951
N9870G1X-5.244Y6.623
N9880G1X-5.375Y6.309
N9890G1X-5.531Y6.008
N9900G1X-5.712Y5.723
N9910G1X-5.916Y5.454
N9920G1X-6.141Y5.204
N9930G1X-6.386Y4.973
N9940G1X-6.650Y4.764
N9950G1X-6.931Y4.577
N9960G1X-7.228Y4.414
N9970G1X-7.539Y4.276
N9980G1X-7.863Y4.165
N9990G1X-8.242Y4.070
N10000G3X-9.000Y3.100I0.242J-0.970
N10010G1X-9.000Y1.000
N10020G3X-8.000Y0.000I1.000J0.000
N10030G1X-3.475Y0.000
N10040G1X-3.143Y0.017
N10050G1X-2.796Y0.070
N10060G1X-2.459Y0.156
N10070G1X-2.137Y0.274
N10080G1X-1.831Y0.422
N10090G1X-1.542Y0.597
N10100G1X-1.273Y0.799
N10110G1X-1.024Y1.024
N10120G1Z-2.000F1200.0
N10130G1X-0.799Y1.273F3600.0
N10140G1X-0.597Y1.542
N10150G1X-0.422Y1.831
N10160G1X-0.274Y2.137
N10170G1X-0.156Y2.459
N10180G1X-0.070Y2.796
N10190G1X-0.017Y3.143
N10200G1X0.000Y3.475
N10210G1Y16.525
N10220G1X-0.017Y16.857
N10230G1X-0.070Y17.204
N10240G1X-0.156Y17.541
N10250G1X-0.274Y17.863
N10260G1X-0.422Y18.169
N10270G1X-0.597Y18.458
N10280G1X-0.799Y18.727
N10290G1X-1.024Y18.976
N10300G1X-1.273Y19.201
N10310G1X-1.542Y19.403
N10320G1X-1.831Y19.578
N10330G1X-2.137Y19.726
N10340G1X-2.459Y19.844
N10350G1X-2.796Y19.930
N10360G1X-3.143Y19.983
N10370G1X-3.475Y20.000
N10380G1X-14.525
N10390G1X-14.857Y19.983
N10400G1X-15.204Y19.930
N10410G1X-15.541Y19.844
N10420G1X-15.863Y19.726
N10430G1X-16.169Y19.578
N10440G1X-16.458Y19.403
N10450G1X-16.727Y19.201
N10460G1X-16.976Y18.976
N10470G1X-17.201Y18.727
N10480G1X-17.403Y18.458
N10490G1X-17.578Y18.169
N10500G1X-17.726Y17.863
N10510G1X-17.844Y17.541
N10520G1X-17.930Y17.204
N10530G1X-17.983Y16.857
N10540G1X-18.000Y16.525
N10550G1Y3.475
N10560G1X-17.983Y3.143
N10570G1X-17.930Y2.796
N10580G1X-17.844Y2.459
N10590G1X-17.726Y2.137
N10600G1X-17.578Y1.831
N10610G1X-17.403Y1.542
N10620G1X-17.201Y1.273
N10630G1X-16.976Y1.024
N10640G1X-16.727Y0.799
N10650G1X-16.458Y0.597
N10660G1X-16.169Y0.422
N10670G1X-15.863Y0.274
N10680G1X-15.541Y0.156
N10690G1X-15.204Y0.070
N10700G1X-14.857Y0.017
N10710G1X-14.525Y0.000
N10720G1X-10.000
N10730G3X-9.000Y1.000I0.000J1.000
N10740G1X-9.001Y3.101
N10750G3X-9.759Y4.071I-1.000J0.000
N10760G1X-10.138Y4.165
N10770G1X-10.462Y4.276
N10780G1X-10.773Y4.414
N10790G1X-11.070Y4.577
N10800G1X-11.351Y4.764
N10810G1X-11.614Y4.974
N10820G1X-11.859Y5.204
N10830G1X-12.085Y5.455
N10840G1X-12.288Y5.723
N10850G1X-12.469Y6.008
N10860G1X-12.625Y6.309
N10870G1X-12.756Y6.624
N10880G1X-12.860Y6.951
N10890G1X-12.936Y7.290
N10900G1X-12.983Y7.640
N10910G1X-12.999Y7.997
N10920G1X-12.978Y8.410
N10930G1X-12.917Y8.807
N10940G1X-12.819Y9.190
N10950G1X-12.685Y9.556
N10960G1X-12.517Y9.906
N10970G1X-12.316Y10.235
N10980G1X-12.086Y10.543
N10990G1X-11.828Y10.828
N11000G1X-11.543Y11.086
N11010G1X-11.235Y11.316
N11020G1X-10.906Y11.517
N11030G1X-10.556Y11.685
N11040G1X-10.190Y11.819
N11050G1X-9.807Y11.917
N11060G1X-9.410Y11.978
N11070G1X-9.000Y11.999
N11080G1X-8.590Y11.978
N11090G1X-8.193Y11.917
N11100G1X-7.810Y11.819
N11110G1X-7.444Y11.685
N11120G1X-7.094Y11.517
N11130G1X-6.765Y11.316
N11140G1X-6.457Y11.086
N11150G1X-6.172Y10.828
N11160G1X-5.914Y10.543
N11170G1X-5.684Y10.235
N11180G1X-5.483Y9.906
N11190G1X-5.315Y9.556
N11200G1X-5.181Y9.190
N11210G1X-5.083Y8.807
N11220G1X-5.022Y8.410
N11230G1X-5.001Y7.997
N11240G1X-5.017Y7.640
N11250G1X-5.064Y7.290
N11260G1X-5.140Y6.951
N11270G1X-5.244Y6.623
N11280G1X-5.375Y6.309
N11290G1X-5.531Y6.008
N11300G1X-5.712Y5.723
N11310G1X-5.916Y5.454
N11320G1X-6.141Y5.204
N11330G1X-6.386Y4.973
N11340G1X-6.650Y4.764
N11350G1X-6.931Y4.577
N11360G1X-7.228Y4.414
N11370G1X-7.539Y4.276
N11380G1X-7.863Y4.165
N11390G1X-8.242Y4.070
N11400G3X-9.000Y3.100I0.242J-0.970
N11410G1X-9.000Y1.000
N11420G3X-8.000Y0.000I1.000J0.000
N11430G1X-3.475Y0.000
N11440G1X-3.143Y0.017
N11450G1X-2.796Y0.070
N11460G1X-2.459Y0.156
N11470G1X-2.137Y0.274
N11480G1X-1.831Y0.422
N11490G1X-1.542Y0.597
N11500G1X-1.273Y0.799
N11510G1X-1.024Y1.024
N11520G00Z6.000
N11530S12000M03
(Profile 3)
()
N11560G00X1.024Y1.024Z6.000
N11570G1Z-0.500F1200.0
N11580G1X1.273Y0.799F3600.0
N11590G1X1.542Y0.597
N11600G1X1.831Y0.422
N11610G1X2.137Y0.274
N11620G1X2.459Y0.156
N11630G1X2.796Y0.070
N11640G1X3.143Y0.017
N11650G1X3.475Y0.000
N11660G1X8.000
N11670G3X9.000Y1.000I0.000J1.000
N11680G1X8.999Y3.101
N11690G3X8.241Y4.071I-1.000J0.000
N11700G1X7.862Y4.165
N11710G1X7.538Y4.276
N11720G1X7.227Y4.414
N11730G1X6.930Y4.577
N11740G1X6.649Y4.764
N11750G1X6.386Y4.974
N11760G1X6.141Y5.204
N11770G1X5.915Y5.455
N11780G1X5.712Y5.723
N11790G1X5.531Y6.008
N11800G1X5.375Y6.309
N11810G1X5.244Y6.624
N11820G1X5.140Y6.951
N11830G1X5.064Y7.290
N11840G1X5.017Y7.640
N11850G1X5.001Y7.997
N11860G1X5.022Y8.410
N11870G1X5.083Y8.807
N11880G1X5.181Y9.190
N11890G1X5.315Y9.556
N11900G1X5.483Y9.906
N11910G1X5.684Y10.235
N11920G1X5.914Y10.543
N11930G1X6.172Y10.828
N11940G1X6.457Y11.086
N11950G1X6.765Y11.316
N11960G1X7.094Y11.517
N11970G1X7.444Y11.685
N11980G1X7.810Y11.819
N11990G1X8.193Y11.917
N12000G1X8.590Y11.978
N12010G1X9.000Y11.999
N12020G1X9.410Y11.978
N12030G1X9.807Y11.917
N12040G1X10.190Y11.819
N12050G1X10.556Y11.685
N12060G1X10.906Y11.517
N12070G1X11.235Y11.316
N12080G1X11.543Y11.086
N12090G1X11.828Y10.828
N12100G1X12.086Y10.543
N12110G1X12.316Y10.235
N12120G1X12.517Y9.906
N12130G1X12.685Y9.556
N12140G1X12.819Y9.190
N12150G1X12.917Y8.807
N12160G1X12.978Y8.410
N12170G1X12.999Y7.997
N12180G1X12.983Y7.640
N12190G1X12.936Y7.290
N12200G1X12.860Y6.951
N12210G1X12.756Y6.623
N12220G1X12.625Y6.309
N12230G1X12.469Y6.008
N12240G1X12.288Y5.723
N12250G1X12.084Y5.454
N12260G1X11.859Y5.204
N12270G1X11.614Y4.973
N12280G1X11.350Y4.764
N12290G1X11.069Y4.577
N12300G1X10.772Y4.414
N12310G1X10.461Y4.276
N12320G1X10.137Y4.165
N12330G1X9.758Y4.070
N12340G3X9.000Y3.100I0.242J-0.970
N12350G1X9.000Y1.000
N12360G3X10.000Y0.000I1.000J0.000
N12370G1X14.525Y0.000
N12380G1X14.857Y0.017
N12390G1X15.204Y0.070
N12400G1X15.541Y0.156
N12410G1X15.863Y0.274
N12420G1X16.169Y0.422
N12430G1X16.458Y0.597
N12440G1X16.727Y0.799
N12450G1X16.976Y1.024
N12460G1X17.201Y1.273
N12470G1X17.403Y1.542
N12480G1X17.578Y1.831
N12490G1X17.726Y2.137
N12500G1X17.844Y2.459
N12510G1X17.930Y2.796
N12520G1X17.983Y3.143
N12530G1X18.000Y3.475
N12540G1Y16.525
N12550G1X17.983Y16.857
N12560G1X17.930Y17.204
N12570G1X17.844Y17.541
N12580G1X17.726Y17.863
N12590G1X17.578Y18.169
N12600G1X17.403Y18.458
N12610G1X17.201Y18.727
N12620G1X16.976Y18.976
N12630G1X16.727Y19.201
N12640G1X16.458Y19.403
N12650G1X16.169Y19.578
N12660G1X15.863Y19.726
N12670G1X15.541Y19.844
N12680G1X15.204Y19.930
N12690G1X14.857Y19.983
N12700G1X14.525Y20.000
N12710G1X3.475
N12720G1X3.143Y19.983
N12730G1X2.796Y19.930
N12740G1X2.459Y19.844
N12750G1X2.137Y19.726
N12760G1X1.831Y19.578
N12770G1X1.542Y19.403
N12780G1X1.273Y19.201
N12790G1X1.024Y18.976
N12800G1X0.799Y18.727
N12810G1X0.597Y18.458
N12820G1X0.422Y18.169
N12830G1X0.274Y17.863
N12840G1X0.156Y17.541
N12850G1X0.070Y17.204
N12860G1X0.017Y16.857
N12870G1X0.000Y16.525
N12880G1Y3.475
N12890G1X0.017Y3.143
N12900G1X0.070Y2.796
N12910G1X0.156Y2.459
N12920G1X0.274Y2.137
N12930G1X0.422Y1.831
N12940G1X0.597Y1.542
N12950G1X0.799Y1.273
N12960G1X1.024Y1.024
N12970G1Z-1.000F1200.0
N12980G1X1.273Y0.799F3600.0
N12990G1X1.542Y0.597
N13000G1X1.831Y0.422
N13010G1X2.137Y0.274
N13020G1X2.459Y0.156
N13030G1X2.796Y0.070
N13040G1X3.143Y0.017
N13050G1X3.475Y0.000
N13060G1X8.000
N13070G3X9.000Y1.000I0.000J1.000
N13080G1X8.999Y3.101
N13090G3X8.241Y4.071I-1.000J0.000
N13100G1X7.862Y4.165
N13110G1X7.538Y4.276
N13120G1X7.227Y4.414
N13130G1X6.930Y4.577
N13140G1X6.649Y4.764
N13150G1X6.386Y4.974
N13160G1X6.141Y5.204
N13170G1X5.915Y5.455
N13180G1X5.712Y5.723
N13190G1X5.531Y6.008
N13200G1X5.375Y6.309
N13210G1X5.244Y6.624
N13220G1X5.140Y6.951
N13230G1X5.064Y7.290
N13240G1X5.017Y7.640
N13250G1X5.001Y7.997
N13260G1X5.022Y8.410
N13270G1X5.083Y8.807
N13280G1X5.181Y9.190
N13290G1X5.315Y9.556
N13300G1X5.483Y9.906
N13310G1X5.684Y10.235
N13320G1X5.914Y10.543
N13330G1X6.172Y10.828
N13340G1X6.457Y11.086
N13350G1X6.765Y11.316
N13360G1X7.094Y11.517
N13370G1X7.444Y11.685
N13380G1X7.810Y11.819
N13390G1X8.193Y11.917
N13400G1X8.590Y11.978
N13410G1X9.000Y11.999
N13420G1X9.410Y11.978
N13430G1X9.807Y11.917
N13440G1X10.190Y11.819
N13450G1X10.556Y11.685
N13460G1X10.906Y11.517
N13470G1X11.235Y11.316
N13480G1X11.543Y11.086
N13490G1X11.828Y10.828
N13500G1X12.086Y10.543
N13510G1X12.316Y10.235
N13520G1X12.517Y9.906
N13530G1X12.685Y9.556
N13540G1X12.819Y9.190
N13550G1X12.917Y8.807
N13560G1X12.978Y8.410
N13570G1X12.999Y7.997
N13580G1X12.983Y7.640
N13590G1X12.936Y7.290
N13600G1X12.860Y6.951
N13610G1X12.756Y6.623
N13620G1X12.625Y6.309
N13630G1X12.469Y6.008
N13640G1X12.288Y5.723
N13650G1X12.084Y5.454
N13660G1X11.859Y5.204
N13670G1X11.614Y4.973
N13680G1X11.350Y4.764
N13690G1X11.069Y4.577
N13700G1X10.772Y4.414
N13710G1X10.461Y4.276
N13720G1X10.137Y4.165
N13730G1X9.758Y4.070
N13740G3X9.000Y3.100I0.242J-0.970
N13750G1X9.000Y1.000
N13760G3X10.000Y0.000I1.000J0.000
N13770G1X14.525Y0.000
N13780G1X14.857Y0.017
N13790G1X15.204Y0.070
N13800G1X15.541Y0.156
N13810G1X15.863Y0.274
N13820G1X16.169Y0.422
N13830G1X16.458Y0.597
N13840G1X16.727Y0.799
N13850G1X16.976Y1.024
N13860G1X17.201Y1.273
N13870G1X17.403Y1.542
N13880G1X17.578Y1.831
N13890G1X17.726Y2.137
N13900G1X17.844Y2.459
N13910G1X17.930Y2.796
N13920G1X17.983Y3.143
N13930G1X18.000Y3.475
N13940G1Y16.525
N13950G1X17.983Y16.857
N13960G1X17.930Y17.204
N13970G1X17.844Y17.541
N13980G1X17.726Y17.863
N13990G1X17.578Y18.169
N14000G1X17.403Y18.458
N14010G1X17.201Y18.727
N14020G1X16.976Y18.976
N14030G1X16.727Y19.201
N14040G1X16.458Y19.403
N14050G1X16.169Y19.578
N14060G1X15.863Y19.726
N14070G1X15.541Y19.844
N14080G1X15.204Y19.930
N14090G1X14.857Y19.983
N14100G1X14.525Y20.000
N14110G1X3.475
N14120G1X3.143Y19.983
N14130G1X2.796Y19.930
N14140G1X2.459Y19.844
N14150G1X2.137Y19.726
N14160G1X1.831Y19.578
N14170G1X1.542Y19.403
N14180G1X1.273Y19.201
N14190G1X1.024Y18.976
N14200G1X0.799Y18.727
N14210G1X0.597Y18.458
N14220G1X0.422Y18.169
N14230G1X0.274Y17.863
N14240G1X0.156Y17.541
N14250G1X0.070Y17.204
N14260G1X0.017Y16.857
N14270G1X0.000Y16.525
N14280G1Y3.475
N14290G1X0.017Y3.143
N14300G1X0.070Y2.796
N14310G1X0.156Y2.459
N14320G1X0.274Y2.137
N14330G1X0.422Y1.831
N14340G1X0.597Y1.542
N14350G1X0.799Y1.273
N14360G1X1.024Y1.024
N14370G1Z-1.500F1200.0
N14380G1X1.273Y0.799F3600.0
N14390G1X1.542Y0.597
N14400G1X1.831Y0.422
N14410G1X2.137Y0.274
N14420G1X2.459Y0.156
N14430G1X2.796Y0.070
N14440G1X3.143Y0.017
N14450G1X3.475Y0.000
N14460G1X8.000
N14470G3X9.000Y1.000I0.000J1.000
N14480G1X8.999Y3.101
N14490G3X8.241Y4.071I-1.000J0.000
N14500G1X7.862Y4.165
N14510G1X7.538Y4.276
N14520G1X7.227Y4.414
N14530G1X6.930Y4.577
N14540G1X6.649Y4.764
N14550G1X6.386Y4.974
N14560G1X6.141Y5.204
N14570G1X5.915Y5.455
N14580G1X5.712Y5.723
N14590G1X5.531Y6.008
N14600G1X5.375Y6.309
N14610G1X5.244Y6.624
N14620G1X5.140Y6.951
N14630G1X5.064Y7.290
N14640G1X5.017Y7.640
N14650G1X5.001Y7.997
N14660G1X5.022Y8.410
N14670G1X5.083Y8.807
N14680G1X5.181Y9.190
N14690G1X5.315Y9.556
N14700G1X5.483Y9.906
N14710G1X5.684Y10.235
N14720G1X5.914Y10.543
N14730G1X6.172Y10.828
N14740G1X6.457Y11.086
N14750G1X6.765Y11.316
N14760G1X7.094Y11.517
N14770G1X7.444Y11.685
N14780G1X7.810Y11.819
N14790G1X8.193Y11.917
N14800G1X8.590Y11.978
N14810G1X9.000Y11.999
N14820G1X9.410Y11.978
N14830G1X9.807Y11.917
N14840G1X10.190Y11.819
N14850G1X10.556Y11.685
N14860G1X10.906Y11.517
N14870G1X11.235Y11.316
N14880G1X11.543Y11.086
N14890G1X11.828Y10.828
N14900G1X12.086Y10.543
N14910G1X12.316Y10.235
N14920G1X12.517Y9.906
N14930G1X12.685Y9.556
N14940G1X12.819Y9.190
N14950G1X12.917Y8.807
N14960G1X12.978Y8.410
N14970G1X12.999Y7.997
N14980G1X12.983Y7.640
N14990G1X12.936Y7.290
N15000G1X12.860Y6.951
N15010G1X12.756Y6.623
N15020G1X12.625Y6.309
N15030G1X12.469Y6.008
N15040G1X12.288Y5.723
N15050G1X12.084Y5.454
N15060G1X11.859Y5.204
N15070G1X11.614Y4.973
N15080G1X11.350Y4.764
N15090G1X11.069Y4.577
N15100G1X10.772Y4.414
N15110G1X10.461Y4.276
N15120G1X10.137Y4.165
N15130G1X9.758Y4.070
N15140G3X9.000Y3.100I0.242J-0.970
N15150G1X9.000Y1.000
N15160G3X10.000Y0.000I1.000J0.000
N15170G1X14.525Y0.000
N15180G1X14.857Y0.017
N15190G1X15.204Y0.070
N15200G1X15.541Y0.156
N15210G1X15.863Y0.274
N15220G1X16.169Y0.422
N15230G1X16.458Y0.597
N15240G1X16.727Y0.799
N15250G1X16.976Y1.024
N15260G1X17.201Y1.273
N15270G1X17.403Y1.542
N15280G1X17.578Y1.831
N15290G1X17.726Y2.137
N15300G1X17.844Y2.459
N15310G1X17.930Y2.796
N15320G1X17.983Y3.143
N15330G1X18.000Y3.475
N15340G1Y16.525
N15350G1X17.983Y16.857
N15360G1X17.930Y17.204
N15370G1X17.844Y17.541
N15380G1X17.726Y17.863
N15390G1X17.578Y18.169
N15400G1X17.403Y18.458
N15410G1X17.201Y18.727
N15420G1X16.976Y18.976
N15430G1X16.727Y19.201
N15440G1X16.458Y19.403
N15450G1X16.169Y19.578
N15460G1X15.863Y19.726
N15470G1X15.541Y19.844
N15480G1X15.204Y19.930
N15490G1X14.857Y19.983
N15500G1X14.525Y20.000
N15510G1X3.475
N15520G1X3.143Y19.983
N15530G1X2.796Y19.930
N15540G1X2.459Y19.844
N15550G1X2.137Y19.726
N15560G1X1.831Y19.578
N15570G1X1.542Y19.403
N15580G1X1.273Y19.201
N15590G1X1.024Y18.976
N15600G1X0.799Y18.727
N15610G1X0.597Y18.458
N15620G1X0.422Y18.169
N15630G1X0.274Y17.863
N15640G1X0.156Y17.541
N15650G1X0.070Y17.204
N15660G1X0.017Y16.857
N15670G1X0.000Y16.525
N15680G1Y3.475
N15690G1X0.017Y3.143
N15700G1X0.070Y2.796
N15710G1X0.156Y2.459
N15720G1X0.274Y2.137
N15730G1X0.422Y1.831
N15740G1X0.597Y1.542
N15750G1X0.799Y1.273
N15760G1X1.024Y1.024
N15770G1Z-2.000F1200.0
N15780G1X1.273Y0.799F3600.0
N15790G1X1.542Y0.597
N15800G1X1.831Y0.422
N15810G1X2.137Y0.274
N15820G1X2.459Y0.156
N15830G1X2.796Y0.070
N15840G1X3.143Y0.017
N15850G1X3.475Y0.000
N15860G1X8.000
N15870G3X9.000Y1.000I0.000J1.000
N15880G1X8.999Y3.101
N15890G3X8.241Y4.071I-1.000J0.000
N15900G1X7.862Y4.165
N15910G1X7.538Y4.276
N15920G1X7.227Y4.414
N15930G1X6.930Y4.577
N15940G1X6.649Y4.764
N15950G1X6.386Y4.974
N15960G1X6.141Y5.204
N15970G1X5.915Y5.455
N15980G1X5.712Y5.723
N15990G1X5.531Y6.008
N16000G1X5.375Y6.309
N16010G1X5.244Y6.624
N16020G1X5.140Y6.951
N16030G1X5.064Y7.290
N16040G1X5.017Y7.640
N16050G1X5.001Y7.997
N16060G1X5.022Y8.410
N16070G1X5.083Y8.807
N16080G1X5.181Y9.190
N16090G1X5.315Y9.556
N16100G1X5.483Y9.906
N16110G1X5.684Y10.235
N16120G1X5.914Y10.543
N16130G1X6.172Y10.828
N16140G1X6.457Y11.086
N16150G1X6.765Y11.316
N16160G1X7.094Y11.517
N16170G1X7.444Y11.685
N16180G1X7.810Y11.819
N16190G1X8.193Y11.917
N16200G1X8.590Y11.978
N16210G1X9.000Y11.999
N16220G1X9.410Y11.978
N16230G1X9.807Y11.917
N16240G1X10.190Y11.819
N16250G1X10.556Y11.685
N16260G1X10.906Y11.517
N16270G1X11.235Y11.316
N16280G1X11.543Y11.086
N16290G1X11.828Y10.828
N16300G1X12.086Y10.543
N16310G1X12.316Y10.235
N16320G1X12.517Y9.906
N16330G1X12.685Y9.556
N16340G1X12.819Y9.190
N16350G1X12.917Y8.807
N16360G1X12.978Y8.410
N16370G1X12.999Y7.997
N16380G1X12.983Y7.640
N16390G1X12.936Y7.290
N16400G1X12.860Y6.951
N16410G1X12.756Y6.623
N16420G1X12.625Y6.309
N16430G1X12.469Y6.008
N16440G1X12.288Y5.723
N16450G1X12.084Y5.454
N16460G1X11.859Y5.204
N16470G1X11.614Y4.973
N16480G1X11.350Y4.764
N16490G1X11.069Y4.577
N16500G1X10.772Y4.414
N16510G1X10.461Y4.276
N16520G1X10.137Y4.165
N16530G1X9.758Y4.070
N16540G3X9.000Y3.100I0.242J-0.970
N16550G1X9.000Y1.000
N16560G3X10.000Y0.000I1.000J0.000
N16570G1X14.525Y0.000
N16580G1X14.857Y0.017
N16590G1X15.204Y0.070
N16600G1X15.541Y0.156
N16610G1X15.863Y0.274
N16620G1X16.169Y0.422
N16630G1X16.458Y0.597
N16640G1X16.727Y0.799
N16650G1X16.976Y1.024
N16660G1X17.201Y1.273
N16670G1X17.403Y1.542
N16680G1X17.578Y1.831
N16690G1X17.726Y2.137
N16700G1X17.844Y2.459
N16710G1X17.930Y2.796
N16720G1X17.983Y3.143
N16730G1X18.000Y3.475
N16740G1Y16.525
N16750G1X17.983Y16.857
N16760G1X17.930Y17.204
N16770G1X17.844Y17.541
N16780G1X17.726Y17.863
N16790G1X17.578Y18.169
N16800G1X17.403Y18.458
N16810G1X17.201Y18.727
N16820G1X16.976Y18.976
N16830G1X16.727Y19.201
N16840G1X16.458Y19.403
N16850G1X16.169Y19.578
N16860G1X15.863Y19.726
N16870G1X15.541Y19.844
N16880G1X15.204Y19.930
N16890G1X14.857Y19.983
N16900G1X14.525Y20.000
N16910G1X3.475
N16920G1X3.143Y19.983
N16930G1X2.796Y19.930
N16940G1X2.459Y19.844
N16950G1X2.137Y19.726
N16960G1X1.831Y19.578
N16970G1X1.542Y19.403
N16980G1X1.273Y19.201
N16990G1X1.024Y18.976
N17000G1X0.799Y18.727
N17010G1X0.597Y18.458
N17020G1X0.422Y18.169
N17030G1X0.274Y17.863
N17040G1X0.156Y17.541
N17050G1X0.070Y17.204
N17060G1X0.017Y16.857
N17070G1X0.000Y16.525
N17080G1Y3.475
N17090G1X0.017Y3.143
N17100G1X0.070Y2.796
N17110G1X0.156Y2.459
N17120G1X0.274Y2.137
N17130G1X0.422Y1.831
N17140G1X0.597Y1.542
N17150G1X0.799Y1.273
N17160G1X1.024Y1.024
N17170G00Z6.000
N17180S12000M03
(Profile 4)
()
N17210G00X18.070Y2.796Z6.000
N17220G1Z-0.500F1200.0
N17230G1X18.156Y2.459F3600.0
N17240G1X18.274Y2.137
N17250G1X18.422Y1.831
N17260G1X18.597Y1.542
N17270G1X18.799Y1.273
N17280G1X19.024Y1.024
N17290G1X19.273Y0.799
N17300G1X19.542Y0.597
N17310G1X19.831Y0.422
N17320G1X20.137Y0.274
N17330G1X20.459Y0.156
N17340G1X20.796Y0.070
N17350G1X21.143Y0.017
N17360G1X21.475Y0.000
N17370G1X26.000
N17380G3X27.000Y1.000I0.000J1.000
N17390G1X26.999Y3.101
N17400G3X26.241Y4.071I-1.000J0.000
N17410G1X25.862Y4.165
N17420G1X25.538Y4.276
N17430G1X25.227Y4.414
N17440G1X24.930Y4.577
N17450G1X24.649Y4.764
N17460G1X24.386Y4.974
N17470G1X24.140Y5.204
N17480G1X23.915Y5.455
N17490G1X23.712Y5.723
N17500G1X23.531Y6.008
N17510G1X23.375Y6.309
N17520G1X23.244Y6.624
N17530G1X23.140Y6.951
N17540G1X23.064Y7.290
N17550G1X23.017Y7.640
N17560G1X23.001Y7.997
N17570G1X23.022Y8.410
N17580G1X23.083Y8.807
N17590G1X23.181Y9.190
N17600G1X23.315Y9.556
N17610G1X23.483Y9.906
N17620G1X23.684Y10.235
N17630G1X23.914Y10.543
N17640G1X24.172Y10.828
N17650G1X24.457Y11.086
N17660G1X24.765Y11.316
N17670G1X25.094Y11.517
N17680G1X25.444Y11.685
N17690G1X25.810Y11.819
N17700G1X26.193Y11.917
N17710G1X26.590Y11.978
N17720G1X27.000Y11.999
N17730G1X27.410Y11.978
N17740G1X27.807Y11.917
N17750G1X28.190Y11.819
N17760G1X28.556Y11.685
N17770G1X28.906Y11.517
N17780G1X29.235Y11.316
N17790G1X29.543Y11.086
N17800G1X29.828Y10.828
N17810G1X30.086Y10.543
N17820G1X30.316Y10.235
N17830G1X30.517Y9.906
N17840G1X30.685Y9.556
N17850G1X30.819Y9.190
N17860G1X30.917Y8.807
N17870G1X30.978Y8.410
N17880G1X30.999Y7.997
N17890G1X30.983Y7.640
N17900G1X30.936Y7.290
N17910G1X30.860Y6.951
N17920G1X30.756Y6.623
N17930G1X30.625Y6.309
N17940G1X30.469Y6.008
N17950G1X30.288Y5.723
N17960G1X30.084Y5.454
N17970G1X29.859Y5.204
N17980G1X29.614Y4.973
N17990G1X29.350Y4.764
N18000G1X29.069Y4.577
N18010G1X28.772Y4.414
N18020G1X28.461Y4.276
N18030G1X28.137Y4.165
N18040G1X27.758Y4.070
N18050G3X27.000Y3.100I0.242J-0.970
N18060G1X27.000Y1.000
N18070G3X28.000Y0.000I1.000J0.000
N18080G1X32.525Y0.000
N18090G1X32.857Y0.017
N18100G1X33.204Y0.070
N18110G1X33.541Y0.156
N18120G1X33.863Y0.274
N18130G1X34.169Y0.422
N18140G1X34.458Y0.597
N18150G1X34.727Y0.799
N18160G1X34.976Y1.024
N18170G1X35.201Y1.273
N18180G1X35.403Y1.542
N18190G1X35.578Y1.831
N18200G1X35.726Y2.137
N18210G1X35.844Y2.459
N18220G1X35.930Y2.796
N18230G1X35.983Y3.143
N18240G1X36.000Y3.475
N18250G1Y16.525
N18260G1X35.983Y16.857
N18270G1X35.930Y17.204
N18280G1X35.844Y17.541
N18290G1X35.726Y17.863
N18300G1X35.578Y18.169
N18310G1X35.403Y18.458
N18320G1X35.201Y18.727
N18330G1X34.976Y18.976
N18340G1X34.727Y19.201
N18350G1X34.458Y19.403
N18360G1X34.169Y19.578
N18370G1X33.863Y19.726
N18380G1X33.541Y19.844
N18390G1X33.204Y19.930
N18400G1X32.857Y19.983
N18410G1X32.525Y20.000
N18420G1X21.475
N18430G1X21.143Y19.983
N18440G1X20.796Y19.930
N18450G1X20.459Y19.844
N18460G1X20.137Y19.726
N18470G1X19.831Y19.578
N18480G1X19.542Y19.403
N18490G1X19.273Y19.201
N18500G1X19.024Y18.976
N18510G1X18.799Y18.727
N18520G1X18.597Y18.458
N18530G1X18.422Y18.169
N18540G1X18.274Y17.863
N18550G1X18.156Y17.541
N18560G1X18.070Y17.204
N18570G1X18.017Y16.857
N18580G1X18.000Y16.525
N18590G1Y3.475
N18600G1X18.017Y3.143
N18610G1X18.070Y2.796
N18620G1Z-1.000F1200.0
N18630G1X18.156Y2.459F3600.0
N18640G1X18.274Y2.137
N18650G1X18.422Y1.831
N18660G1X18.597Y1.542
N18670G1X18.799Y1.273
N18680G1X19.024Y1.024
N18690G1X19.273Y0.799
N18700G1X19.542Y0.597
N18710G1X19.831Y0.422
N18720G1X20.137Y0.274
N18730G1X20.459Y0.156
N18740G1X20.796Y0.070
N18750G1X21.143Y0.017
N18760G1X21.475Y0.000
N18770G1X26.000
N18780G3X27.000Y1.000I0.000J1.000
N18790G1X26.999Y3.101
N18800G3X26.241Y4.071I-1.000J0.000
N18810G1X25.862Y4.165
N18820G1X25.538Y4.276
N18830G1X25.227Y4.414
N18840G1X24.930Y4.577
N18850G1X24.649Y4.764
N18860G1X24.386Y4.974
N18870G1X24.140Y5.204
N18880G1X23.915Y5.455
N18890G1X23.712Y5.723
N18900G1X23.531Y6.008
N18910G1X23.375Y6.309
N18920G1X23.244Y6.624
N18930G1X23.140Y6.951
N18940G1X23.064Y7.290
N18950G1X23.017Y7.640
N18960G1X23.001Y7.997
N18970G1X23.022Y8.410
N18980G1X23.083Y8.807
N18990G1X23.181Y9.190
N19000G1X23.315Y9.556
N19010G1X23.483Y9.906
N19020G1X23.684Y10.235
N19030G1X23.914Y10.543
N19040G1X24.172Y10.828
N19050G1X24.457Y11.086
N19060G1X24.765Y11.316
N19070G1X25.094Y11.517
N19080G1X25.444Y11.685
N19090G1X25.810Y11.819
N19100G1X26.193Y11.917
N19110G1X26.590Y11.978
N19120G1X27.000Y11.999
N19130G1X27.410Y11.978
N19140G1X27.807Y11.917
N19150G1X28.190Y11.819
N19160G1X28.556Y11.685
N19170G1X28.906Y11.517
N19180G1X29.235Y11.316
N19190G1X29.543Y11.086
N19200G1X29.828Y10.828
N19210G1X30.086Y10.543
N19220G1X30.316Y10.235
N19230G1X30.517Y9.906
N19240G1X30.685Y9.556
N19250G1X30.819Y9.190
N19260G1X30.917Y8.807
N19270G1X30.978Y8.410
N19280G1X30.999Y7.997
N19290G1X30.983Y7.640
N19300G1X30.936Y7.290
N19310G1X30.860Y6.951
N19320G1X30.756Y6.623
N19330G1X30.625Y6.309
N19340G1X30.469Y6.008
N19350G1X30.288Y5.723
N19360G1X30.084Y5.454
N19370G1X29.859Y5.204
N19380G1X29.614Y4.973
N19390G1X29.350Y4.764
N19400G1X29.069Y4.577
N19410G1X28.772Y4.414
N19420G1X28.461Y4.276
N19430G1X28.137Y4.165
N19440G1X27.758Y4.070
N19450G3X27.000Y3.100I0.242J-0.970
N19460G1X27.000Y1.000
N19470G3X28.000Y0.000I1.000J0.000
N19480G1X32.525Y0.000
N19490G1X32.857Y0.017
N19500G1X33.204Y0.070
N19510G1X33.541Y0.156
N19520G1X33.863Y0.274
N19530G1X34.169Y0.422
N19540G1X34.458Y0.597
N19550G1X34.727Y0.799
N19560G1X34.976Y1.024
N19570G1X35.201Y1.273
N19580G1X35.403Y1.542
N19590G1X35.578Y1.831
N19600G1X35.726Y2.137
N19610G1X35.844Y2.459
N19620G1X35.930Y2.796
N19630G1X35.983Y3.143
N19640G1X36.000Y3.475
N19650G1Y16.525
N19660G1X35.983Y16.857
N19670G1X35.930Y17.204
N19680G1X35.844Y17.541
N19690G1X35.726Y17.863
N19700G1X35.578Y18.169
N19710G1X35.403Y18.458
N19720G1X35.201Y18.727
N19730G1X34.976Y18.976
N19740G1X34.727Y19.201
N19750G1X34.458Y19.403
N19760G1X34.169Y19.578
N19770G1X33.863Y19.726
N19780G1X33.541Y19.844
N19790G1X33.204Y19.930
N19800G1X32.857Y19.983
N19810G1X32.525Y20.000
N19820G1X21.475
N19830G1X21.143Y19.983
N19840G1X20.796Y19.930
N19850G1X20.459Y19.844
N19860G1X20.137Y19.726
N19870G1X19.831Y19.578
N19880G1X19.542Y19.403
N19890G1X19.273Y19.201
N19900G1X19.024Y18.976
N19910G1X18.799Y18.727
N19920G1X18.597Y18.458
N19930G1X18.422Y18.169
N19940G1X18.274Y17.863
N19950G1X18.156Y17.541
N19960G1X18.070Y17.204
N19970G1X18.017Y16.857
N19980G1X18.000Y16.525
N19990G1Y3.475
N20000G1X18.017Y3.143
N20010G1X18.070Y2.796
N20020G1Z-1.500F1200.0
N20030G1X18.156Y2.459F3600.0
N20040G1X18.274Y2.137
N20050G1X18.422Y1.831
N20060G1X18.597Y1.542
N20070G1X18.799Y1.273
N20080G1X19.024Y1.024
N20090G1X19.273Y0.799
N20100G1X19.542Y0.597
N20110G1X19.831Y0.422
N20120G1X20.137Y0.274
N20130G1X20.459Y0.156
N20140G1X20.796Y0.070
N20150G1X21.143Y0.017
N20160G1X21.475Y0.000
N20170G1X26.000
N20180G3X27.000Y1.000I0.000J1.000
N20190G1X26.999Y3.101
N20200G3X26.241Y4.071I-1.000J0.000
N20210G1X25.862Y4.165
N20220G1X25.538Y4.276
N20230G1X25.227Y4.414
N20240G1X24.930Y4.577
N20250G1X24.649Y4.764
N20260G1X24.386Y4.974
N20270G1X24.140Y5.204
N20280G1X23.915Y5.455
N20290G1X23.712Y5.723
N20300G1X23.531Y6.008
N20310G1X23.375Y6.309
N20320G1X23.244Y6.624
N20330G1X23.140Y6.951
N20340G1X23.064Y7.290
N20350G1X23.017Y7.640
N20360G1X23.001Y7.997
N20370G1X23.022Y8.410
N20380G1X23.083Y8.807
N20390G1X23.181Y9.190
N20400G1X23.315Y9.556
N20410G1X23.483Y9.906
N20420G1X23.684Y10.235
N20430G1X23.914Y10.543
N20440G1X24.172Y10.828
N20450G1X24.457Y11.086
N20460G1X24.765Y11.316
N20470G1X25.094Y11.517
N20480G1X25.444Y11.685
N20490G1X25.810Y11.819
N20500G1X26.193Y11.917
N20510G1X26.590Y11.978
N20520G1X27.000Y11.999
N20530G1X27.410Y11.978
N20540G1X27.807Y11.917
N20550G1X28.190Y11.819
N20560G1X28.556Y11.685
N20570G1X28.906Y11.517
N20580G1X29.235Y11.316
N20590G1X29.543Y11.086
N20600G1X29.828Y10.828
N20610G1X30.086Y10.543
N20620G1X30.316Y10.235
N20630G1X30.517Y9.906
N20640G1X30.685Y9.556
N20650G1X30.819Y9.190
N20660G1X30.917Y8.807
N20670G1X30.978Y8.410
N20680G1X30.999Y7.997
N20690G1X30.983Y7.640
N20700G1X30.936Y7.290
N20710G1X30.860Y6.951
N20720G1X30.756Y6.623
N20730G1X30.625Y6.309
N20740G1X30.469Y6.008
N20750G1X30.288Y5.723
N20760G1X30.084Y5.454
N20770G1X29.859Y5.204
N20780G1X29.614Y4.973
N20790G1X29.350Y4.764
N20800G1X29.069Y4.577
N20810G1X28.772Y4.414
N20820G1X28.461Y4.276
N20830G1X28.137Y4.165
N20840G1X27.758Y4.070
N20850G3X27.000Y3.100I0.242J-0.970
N20860G1X27.000Y1.000
N20870G3X28.000Y0.000I1.000J0.000
N20880G1X32.525Y0.000
N20890G1X32.857Y0.017
N20900G1X33.204Y0.070
N20910G1X33.541Y0.156
N20920G1X33.863Y0.274
N20930G1X34.169Y0.422
N20940G1X34.458Y0.597
N20950G1X34.727Y0.799
N20960G1X34.976Y1.024
N20970G1X35.201Y1.273
N20980G1X35.403Y1.542
N20990G1X35.578Y1.831
N21000G1X35.726Y2.137
N21010G1X35.844Y2.459
N21020G1X35.930Y2.796
N21030G1X35.983Y3.143
N21040G1X36.000Y3.475
N21050G1Y16.525
N21060G1X35.983Y16.857
N21070G1X35.930Y17.204
N21080G1X35.844Y17.541
N21090G1X35.726Y17.863
N21100G1X35.578Y18.169
N21110G1X35.403Y18.458
N21120G1X35.201Y18.727
N21130G1X34.976Y18.976
N21140G1X34.727Y19.201
N21150G1X34.458Y19.403
N21160G1X34.169Y19.578
N21170G1X33.863Y19.726
N21180G1X33.541Y19.844
N21190G1X33.204Y19.930
N21200G1X32.857Y19.983
N21210G1X32.525Y20.000
N21220G1X21.475
N21230G1X21.143Y19.983
N21240G1X20.796Y19.930
N21250G1X20.459Y19.844
N21260G1X20.137Y19.726
N21270G1X19.831Y19.578
N21280G1X19.542Y19.403
N21290G1X19.273Y19.201
N21300G1X19.024Y18.976
N21310G1X18.799Y18.727
N21320G1X18.597Y18.458
N21330G1X18.422Y18.169
N21340G1X18.274Y17.863
N21350G1X18.156Y17.541
N21360G1X18.070Y17.204
N21370G1X18.017Y16.857
N21380G1X18.000Y16.525
N21390G1Y3.475
N21400G1X18.017Y3.143
N21410G1X18.070Y2.796
N21420G1Z-2.000F1200.0
N21430G1X18.156Y2.459F3600.0
N21440G1X18.274Y2.137
N21450G1X18.422Y1.831
N21460G1X18.597Y1.542
N21470G1X18.799Y1.273
N21480G1X19.024Y1.024
N21490G1X19.273Y0.799
N21500G1X19.542Y0.597
N21510G1X19.831Y0.422
N21520G1X20.137Y0.274
N21530G1X20.459Y0.156
N21540G1X20.796Y0.070
N21550G1X21.143Y0.017
N21560G1X21.475Y0.000
N21570G1X26.000
N21580G3X27.000Y1.000I0.000J1.000
N21590G1X26.999Y3.101
N21600G3X26.241Y4.071I-1.000J0.000
N21610G1X25.862Y4.165
N21620G1X25.538Y4.276
N21630G1X25.227Y4.414
N21640G1X24.930Y4.577
N21650G1X24.649Y4.764
N21660G1X24.386Y4.974
N21670G1X24.140Y5.204
N21680G1X23.915Y5.455
N21690G1X23.712Y5.723
N21700G1X23.531Y6.008
N21710G1X23.375Y6.309
N21720G1X23.244Y6.624
N21730G1X23.140Y6.951
N21740G1X23.064Y7.290
N21750G1X23.017Y7.640
N21760G1X23.001Y7.997
N21770G1X23.022Y8.410
N21780G1X23.083Y8.807
N21790G1X23.181Y9.190
N21800G1X23.315Y9.556
N21810G1X23.483Y9.906
N21820G1X23.684Y10.235
N21830G1X23.914Y10.543
N21840G1X24.172Y10.828
N21850G1X24.457Y11.086
N21860G1X24.765Y11.316
N21870G1X25.094Y11.517
N21880G1X25.444Y11.685
N21890G1X25.810Y11.819
N21900G1X26.193Y11.917
N21910G1X26.590Y11.978
N21920G1X27.000Y11.999
N21930G1X27.410Y11.978
N21940G1X27.807Y11.917
N21950G1X28.190Y11.819
N21960G1X28.556Y11.685
N21970G1X28.906Y11.517
N21980G1X29.235Y11.316
N21990G1X29.543Y11.086
N22000G1X29.828Y10.828
N22010G1X30.086Y10.543
N22020G1X30.316Y10.235
N22030G1X30.517Y9.906
N22040G1X30.685Y9.556
N22050G1X30.819Y9.190
N22060G1X30.917Y8.807
N22070G1X30.978Y8.410
N22080G1X30.999Y7.997
N22090G1X30.983Y7.640
N22100G1X30.936Y7.290
N22110G1X30.860Y6.951
N22120G1X30.756Y6.623
N22130G1X30.625Y6.309
N22140G1X30.469Y6.008
N22150G1X30.288Y5.723
N22160G1X30.084Y5.454
N22170G1X29.859Y5.204
N22180G1X29.614Y4.973
N22190G1X29.350Y4.764
N22200G1X29.069Y4.577
N22210G1X28.772Y4.414
N22220G1X28.461Y4.276
N22230G1X28.137Y4.165
N22240G1X27.758Y4.070
N22250G3X27.000Y3.100I0.242J-0.970
N22260G1X27.000Y1.000
N22270G3X28.000Y0.000I1.000J0.000
N22280G1X32.525Y0.000
N22290G1X32.857Y0.017
N22300G1X33.204Y0.070
N22310G1X33.541Y0.156
N22320G1X33.863Y0.274
N22330G1X34.169Y0.422
N22340G1X34.458Y0.597
N22350G1X34.727Y0.799
N22360G1X34.976Y1.024
N22370G1X35.201Y1.273
N22380G1X35.403Y1.542
N22390G1X35.578Y1.831
N22400G1X35.726Y2.137
N22410G1X35.844Y2.459
N22420G1X35.930Y2.796
N22430G1X35.983Y3.143
N22440G1X36.000Y3.475
N22450G1Y16.525
N22460G1X35.983Y16.857
N22470G1X35.930Y17.204
N22480G1X35.844Y17.541
N22490G1X35.726Y17.863
N22500G1X35.578Y18.169
N22510G1X35.403Y18.458
N22520G1X35.201Y18.727
N22530G1X34.976Y18.976
N22540G1X34.727Y19.201
N22550G1X34.458Y19.403
N22560G1X34.169Y19.578
N22570G1X33.863Y19.726
N22580G1X33.541Y19.844
N22590G1X33.204Y19.930
N22600G1X32.857Y19.983
N22610G1X32.525Y20.000
N22620G1X21.475
N22630G1X21.143Y19.983
N22640G1X20.796Y19.930
N22650G1X20.459Y19.844
N22660G1X20.137Y19.726
N22670G1X19.831Y19.578
N22680G1X19.542Y19.403
N22690G1X19.273Y19.201
N22700G1X19.024Y18.976
N22710G1X18.799Y18.727
N22720G1X18.597Y18.458
N22730G1X18.422Y18.169
N22740G1X18.274Y17.863
N22750G1X18.156Y17.541
N22760G1X18.070Y17.204
N22770G1X18.017Y16.857
N22780G1X18.000Y16.525
N22790G1Y3.475
N22800G1X18.017Y3.143
N22810G1X18.070Y2.796
N22820G00Z6.000
N22830S12000M03
(Profile 5)
()
N22860G00X-18.070Y-2.796Z6.000
N22870G1Z-0.500F1200.0
N22880G1X-18.156Y-2.459F3600.0
N22890G1X-18.274Y-2.137
N22900G1X-18.422Y-1.831
N22910G1X-18.597Y-1.542
N22920G1X-18.799Y-1.273
N22930G1X-19.024Y-1.024
N22940G1X-19.273Y-0.799
N22950G1X-19.542Y-0.597
N22960G1X-19.831Y-0.422
N22970G1X-20.137Y-0.274
N22980G1X-20.459Y-0.156
N22990G1X-20.796Y-0.070
N23000G1X-21.143Y-0.017
N23010G1X-21.475Y0.000
N23020G1X-32.525
N23030G1X-32.857Y-0.017
N23040G1X-33.204Y-0.070
N23050G1X-33.541Y-0.156
N23060G1X-33.863Y-0.274
N23070G1X-34.169Y-0.422
N23080G1X-34.458Y-0.597
N23090G1X-34.727Y-0.799
N23100G1X-34.976Y-1.024
N23110G1X-35.201Y-1.273
N23120G1X-35.403Y-1.542
N23130G1X-35.578Y-1.831
N23140G1X-35.726Y-2.137
N23150G1X-35.844Y-2.459
N23160G1X-35.930Y-2.796
N23170G1X-35.983Y-3.143
N23180G1X-36.000Y-3.475
N23190G1Y-16.525
N23200G1X-35.983Y-16.857
N23210G1X-35.930Y-17.204
N23220G1X-35.844Y-17.541
N23230G1X-35.726Y-17.863
N23240G1X-35.578Y-18.169
N23250G1X-35.403Y-18.458
N23260G1X-35.201Y-18.727
N23270G1X-34.976Y-18.976
N23280G1X-34.727Y-19.201
N23290G1X-34.458Y-19.403
N23300G1X-34.169Y-19.578
N23310G1X-33.863Y-19.726
N23320G1X-33.541Y-19.844
N23330G1X-33.204Y-19.930
N23340G1X-32.857Y-19.983
N23350G1X-32.525Y-20.000
N23360G1X-28.000
N23370G3X-27.000Y-19.000I0.000J1.000
N23380G1X-27.001Y-16.899
N23390G3X-27.759Y-15.929I-1.000J0.000
N23400G1X-28.138Y-15.835
N23410G1X-28.462Y-15.724
N23420G1X-28.773Y-15.586
N23430G1X-29.070Y-15.423
N23440G1X-29.351Y-15.236
N23450G1X-29.614Y-15.026
N23460G1X-29.860Y-14.796
N23470G1X-30.085Y-14.545
N23480G1X-30.288Y-14.277
N23490G1X-30.469Y-13.992
N23500G1X-30.625Y-13.691
N23510G1X-30.756Y-13.376
N23520G1X-30.860Y-13.049
N23530G1X-30.936Y-12.710
N23540G1X-30.983Y-12.360
N23550G1X-30.999Y-12.003
N23560G1X-30.978Y-11.590
N23570G1X-30.917Y-11.193
N23580G1X-30.819Y-10.810
N23590G1X-30.685Y-10.444
N23600G1X-30.517Y-10.094
N23610G1X-30.316Y-9.765
N23620G1X-30.086Y-9.457
N23630G1X-29.828Y-9.172
N23640G1X-29.543Y-8.914
N23650G1X-29.235Y-8.684
N23660G1X-28.906Y-8.483
N23670G1X-28.556Y-8.315
N23680G1X-28.190Y-8.181
N23690G1X-27.807Y-8.083
N23700G1X-27.410Y-8.022
N23710G1X-27.000Y-8.001
N23720G1X-26.590Y-8.022
N23730G1X-26.193Y-8.083
N23740G1X-25.810Y-8.181
N23750G1X-25.444Y-8.315
N23760G1X-25.094Y-8.483
N23770G1X-24.765Y-8.684
N23780G1X-24.457Y-8.914
N23790G1X-24.172Y-9.172
N23800G1X-23.914Y-9.457
N23810G1X-23.684Y-9.765
N23820G1X-23.483Y-10.094
N23830G1X-23.315Y-10.444
N23840G1X-23.181Y-10.810
N23850G1X-23.083Y-11.193
N23860G1X-23.022Y-11.590
N23870G1X-23.001Y-12.003
N23880G1X-23.017Y-12.360
N23890G1X-23.064Y-12.710
N23900G1X-23.140Y-13.049
N23910G1X-23.244Y-13.377
N23920G1X-23.375Y-13.691
N23930G1X-23.531Y-13.992
N23940G1X-23.712Y-14.277
N23950G1X-23.916Y-14.546
N23960G1X-24.141Y-14.796
N23970G1X-24.386Y-15.027
N23980G1X-24.650Y-15.236
N23990G1X-24.931Y-15.423
N24000G1X-25.228Y-15.586
N24010G1X-25.539Y-15.724
N24020G1X-25.863Y-15.835
N24030G1X-26.242Y-15.930
N24040G3X-27.000Y-16.900I0.242J-0.970
N24050G1X-27.000Y-19.000
N24060G3X-26.000Y-20.000I1.000J0.000
N24070G1X-21.475
N24080G1X-21.143Y-19.983
N24090G1X-20.796Y-19.930
N24100G1X-20.459Y-19.844
N24110G1X-20.137Y-19.726
N24120G1X-19.831Y-19.578
N24130G1X-19.542Y-19.403
N24140G1X-19.273Y-19.201
N24150G1X-19.024Y-18.976
N24160G1X-18.799Y-18.727
N24170G1X-18.597Y-18.458
N24180G1X-18.422Y-18.169
N24190G1X-18.274Y-17.863
N24200G1X-18.156Y-17.541
N24210G1X-18.070Y-17.204
N24220G1X-18.017Y-16.857
N24230G1X-18.000Y-16.525
N24240G1Y-3.475
N24250G1X-18.017Y-3.143
N24260G1X-18.070Y-2.796
N24270G1Z-1.000F1200.0
N24280G1X-18.156Y-2.459F3600.0
N24290G1X-18.274Y-2.137
N24300G1X-18.422Y-1.831
N24310G1X-18.597Y-1.542
N24320G1X-18.799Y-1.273
N24330G1X-19.024Y-1.024
N24340G1X-19.273Y-0.799
N24350G1X-19.542Y-0.597
N24360G1X-19.831Y-0.422
N24370G1X-20.137Y-0.274
N24380G1X-20.459Y-0.156
N24390G1X-20.796Y-0.070
N24400G1X-21.143Y-0.017
N24410G1X-21.475Y0.000
N24420G1X-32.525
N24430G1X-32.857Y-0.017
N24440G1X-33.204Y-0.070
N24450G1X-33.541Y-0.156
N24460G1X-33.863Y-0.274
N24470G1X-34.169Y-0.422
N24480G1X-34.458Y-0.597
N24490G1X-34.727Y-0.799
N24500G1X-34.976Y-1.024
N24510G1X-35.201Y-1.273
N24520G1X-35.403Y-1.542
N24530G1X-35.578Y-1.831
N24540G1X-35.726Y-2.137
N24550G1X-35.844Y-2.459
N24560G1X-35.930Y-2.796
N24570G1X-35.983Y-3.143
N24580G1X-36.000Y-3.475
N24590G1Y-16.525
N24600G1X-35.983Y-16.857
N24610G1X-35.930Y-17.204
N24620G1X-35.844Y-17.541
N24630G1X-35.726Y-17.863
N24640G1X-35.578Y-18.169
N24650G1X-35.403Y-18.458
N24660G1X-35.201Y-18.727
N24670G1X-34.976Y-18.976
N24680G1X-34.727Y-19.201
N24690G1X-34.458Y-19.403
N24700G1X-34.169Y-19.578
N24710G1X-33.863Y-19.726
N24720G1X-33.541Y-19.844
N24730G1X-33.204Y-19.930
N24740G1X-32.857Y-19.983
N24750G1X-32.525Y-20.000
N24760G1X-28.000
N24770G3X-27.000Y-19.000I0.000J1.000
N24780G1X-27.001Y-16.899
N24790G3X-27.759Y-15.929I-1.000J0.000
N24800G1X-28.138Y-15.835
N24810G1X-28.462Y-15.724
N24820G1X-28.773Y-15.586
N24830G1X-29.070Y-15.423
N24840G1X-29.351Y-15.236
N24850G1X-29.614Y-15.026
N24860G1X-29.860Y-14.796
N24870G1X-30.085Y-14.545
N24880G1X-30.288Y-14.277
N24890G1X-30.469Y-13.992
N24900G1X-30.625Y-13.691
N24910G1X-30.756Y-13.376
N24920G1X-30.860Y-13.049
N24930G1X-30.936Y-12.710
N24940G1X-30.983Y-12.360
N24950G1X-30.999Y-12.003
N24960G1X-30.978Y-11.590
N24970G1X-30.917Y-11.193
N24980G1X-30.819Y-10.810
N24990G1X-30.685Y-10.444
N25000G1X-30.517Y-10.094
N25010G1X-30.316Y-9.765
N25020G1X-30.086Y-9.457
N25030G1X-29.828Y-9.172
N25040G1X-29.543Y-8.914
N25050G1X-29.235Y-8.684
N25060G1X-28.906Y-8.483
N25070G1X-28.556Y-8.315
N25080G1X-28.190Y-8.181
N25090G1X-27.807Y-8.083
N25100G1X-27.410Y-8.022
N25110G1X-27.000Y-8.001
N25120G1X-26.590Y-8.022
N25130G1X-26.193Y-8.083
N25140G1X-25.810Y-8.181
N25150G1X-25.444Y-8.315
N25160G1X-25.094Y-8.483
N25170G1X-24.765Y-8.684
N25180G1X-24.457Y-8.914
N25190G1X-24.172Y-9.172
N25200G1X-23.914Y-9.457
N25210G1X-23.684Y-9.765
N25220G1X-23.483Y-10.094
N25230G1X-23.315Y-10.444
N25240G1X-23.181Y-10.810
N25250G1X-23.083Y-11.193
N25260G1X-23.022Y-11.590
N25270G1X-23.001Y-12.003
N25280G1X-23.017Y-12.360
N25290G1X-23.064Y-12.710
N25300G1X-23.140Y-13.049
N25310G1X-23.244Y-13.377
N25320G1X-23.375Y-13.691
N25330G1X-23.531Y-13.992
N25340G1X-23.712Y-14.277
N25350G1X-23.916Y-14.546
N25360G1X-24.141Y-14.796
N25370G1X-24.386Y-15.027
N25380G1X-24.650Y-15.236
N25390G1X-24.931Y-15.423
N25400G1X-25.228Y-15.586
N25410G1X-25.539Y-15.724
N25420G1X-25.863Y-15.835
N25430G1X-26.242Y-15.930
N25440G3X-27.000Y-16.900I0.242J-0.970
N25450G1X-27.000Y-19.000
N25460G3X-26.000Y-20.000I1.000J0.000
N25470G1X-21.475
N25480G1X-21.143Y-19.983
N25490G1X-20.796Y-19.930
N25500G1X-20.459Y-19.844
N25510G1X-20.137Y-19.726
N25520G1X-19.831Y-19.578
N25530G1X-19.542Y-19.403
N25540G1X-19.273Y-19.201
N25550G1X-19.024Y-18.976
N25560G1X-18.799Y-18.727
N25570G1X-18.597Y-18.458
N25580G1X-18.422Y-18.169
N25590G1X-18.274Y-17.863
N25600G1X-18.156Y-17.541
N25610G1X-18.070Y-17.204
N25620G1X-18.017Y-16.857
N25630G1X-18.000Y-16.525
N25640G1Y-3.475
N25650G1X-18.017Y-3.143
N25660G1X-18.070Y-2.796
N25670G1Z-1.500F1200.0
N25680G1X-18.156Y-2.459F3600.0
N25690G1X-18.274Y-2.137
N25700G1X-18.422Y-1.831
N25710G1X-18.597Y-1.542
N25720G1X-18.799Y-1.273
N25730G1X-19.024Y-1.024
N25740G1X-19.273Y-0.799
N25750G1X-19.542Y-0.597
N25760G1X-19.831Y-0.422
N25770G1X-20.137Y-0.274
N25780G1X-20.459Y-0.156
N25790G1X-20.796Y-0.070
N25800G1X-21.143Y-0.017
N25810G1X-21.475Y0.000
N25820G1X-32.525
N25830G1X-32.857Y-0.017
N25840G1X-33.204Y-0.070
N25850G1X-33.541Y-0.156
N25860G1X-33.863Y-0.274
N25870G1X-34.169Y-0.422
N25880G1X-34.458Y-0.597
N25890G1X-34.727Y-0.799
N25900G1X-34.976Y-1.024
N25910G1X-35.201Y-1.273
N25920G1X-35.403Y-1.542
N25930G1X-35.578Y-1.831
N25940G1X-35.726Y-2.137
N25950G1X-35.844Y-2.459
N25960G1X-35.930Y-2.796
N25970G1X-35.983Y-3.143
N25980G1X-36.000Y-3.475
N25990G1Y-16.525
N26000G1X-35.983Y-16.857
N26010G1X-35.930Y-17.204
N26020G1X-35.844Y-17.541
N26030G1X-35.726Y-17.863
N26040G1X-35.578Y-18.169
N26050G1X-35.403Y-18.458
N26060G1X-35.201Y-18.727
N26070G1X-34.976Y-18.976
N26080G1X-34.727Y-19.201
N26090G1X-34.458Y-19.403
N26100G1X-34.169Y-19.578
N26110G1X-33.863Y-19.726
N26120G1X-33.541Y-19.844
N26130G1X-33.204Y-19.930
N26140G1X-32.857Y-19.983
N26150G1X-32.525Y-20.000
N26160G1X-28.000
N26170G3X-27.000Y-19.000I0.000J1.000
N26180G1X-27.001Y-16.899
N26190G3X-27.759Y-15.929I-1.000J0.000
N26200G1X-28.138Y-15.835
N26210G1X-28.462Y-15.724
N26220G1X-28.773Y-15.586
N26230G1X-29.070Y-15.423
N26240G1X-29.351Y-15.236
N26250G1X-29.614Y-15.026
N26260G1X-29.860Y-14.796
N26270G1X-30.085Y-14.545
N26280G1X-30.288Y-14.277
N26290G1X-30.469Y-13.992
N26300G1X-30.625Y-13.691
N26310G1X-30.756Y-13.376
N26320G1X-30.860Y-13.049
N26330G1X-30.936Y-12.710
N26340G1X-30.983Y-12.360
N26350G1X-30.999Y-12.003
N26360G1X-30.978Y-11.590
N26370G1X-30.917Y-11.193
N26380G1X-30.819Y-10.810
N26390G1X-30.685Y-10.444
N26400G1X-30.517Y-10.094
N26410G1X-30.316Y-9.765
N26420G1X-30.086Y-9.457
N26430G1X-29.828Y-9.172
N26440G1X-29.543Y-8.914
N26450G1X-29.235Y-8.684
N26460G1X-28.906Y-8.483
N26470G1X-28.556Y-8.315
N26480G1X-28.190Y-8.181
N26490G1X-27.807Y-8.083
N26500G1X-27.410Y-8.022
N26510G1X-27.000Y-8.001
N26520G1X-26.590Y-8.022
N26530G1X-26.193Y-8.083
N26540G1X-25.810Y-8.181
N26550G1X-25.444Y-8.315
N26560G1X-25.094Y-8.483
N26570G1X-24.765Y-8.684
N26580G1X-24.457Y-8.914
N26590G1X-24.172Y-9.172
N26600G1X-23.914Y-9.457
N26610G1X-23.684Y-9.765
N26620G1X-23.483Y-10.094
N26630G1X-23.315Y-10.444
N26640G1X-23.181Y-10.810
N26650G1X-23.083Y-11.193
N26660G1X-23.022Y-11.590
N26670G1X-23.001Y-12.003
N26680G1X-23.017Y-12.360
N26690G1X-23.064Y-12.710
N26700G1X-23.140Y-13.049
N26710G1X-23.244Y-13.377
N26720G1X-23.375Y-13.691
N26730G1X-23.531Y-13.992
N26740G1X-23.712Y-14.277
N26750G1X-23.916Y-14.546
N26760G1X-24.141Y-14.796
N26770G1X-24.386Y-15.027
N26780G1X-24.650Y-15.236
N26790G1X-24.931Y-15.423
N26800G1X-25.228Y-15.586
N26810G1X-25.539Y-15.724
N26820G1X-25.863Y-15.835
N26830G1X-26.242Y-15.930
N26840G3X-27.000Y-16.900I0.242J-0.970
N26850G1X-27.000Y-19.000
N26860G3X-26.000Y-20.000I1.000J0.000
N26870G1X-21.475
N26880G1X-21.143Y-19.983
N26890G1X-20.796Y-19.930
N26900G1X-20.459Y-19.844
N26910G1X-20.137Y-19.726
N26920G1X-19.831Y-19.578
N26930G1X-19.542Y-19.403
N26940G1X-19.273Y-19.201
N26950G1X-19.024Y-18.976
N26960G1X-18.799Y-18.727
N26970G1X-18.597Y-18.458
N26980G1X-18.422Y-18.169
N26990G1X-18.274Y-17.863
N27000G1X-18.156Y-17.541
N27010G1X-18.070Y-17.204
N27020G1X-18.017Y-16.857
N27030G1X-18.000Y-16.525
N27040G1Y-3.475
N27050G1X-18.017Y-3.143
N27060G1X-18.070Y-2.796
N27070G1Z-2.000F1200.0
N27080G1X-18.156Y-2.459F3600.0
N27090G1X-18.274Y-2.137
N27100G1X-18.422Y-1.831
N27110G1X-18.597Y-1.542
N27120G1X-18.799Y-1.273
N27130G1X-19.024Y-1.024
N27140G1X-19.273Y-0.799
N27150G1X-19.542Y-0.597
N27160G1X-19.831Y-0.422
N27170G1X-20.137Y-0.274
N27180G1X-20.459Y-0.156
N27190G1X-20.796Y-0.070
N27200G1X-21.143Y-0.017
N27210G1X-21.475Y0.000
N27220G1X-32.525
N27230G1X-32.857Y-0.017
N27240G1X-33.204Y-0.070
N27250G1X-33.541Y-0.156
N27260G1X-33.863Y-0.274
N27270G1X-34.169Y-0.422
N27280G1X-34.458Y-0.597
N27290G1X-34.727Y-0.799
N27300G1X-34.976Y-1.024
N27310G1X-35.201Y-1.273
N27320G1X-35.403Y-1.542
N27330G1X-35.578Y-1.831
N27340G1X-35.726Y-2.137
N27350G1X-35.844Y-2.459
N27360G1X-35.930Y-2.796
N27370G1X-35.983Y-3.143
N27380G1X-36.000Y-3.475
N27390G1Y-16.525
N27400G1X-35.983Y-16.857
N27410G1X-35.930Y-17.204
N27420G1X-35.844Y-17.541
N27430G1X-35.726Y-17.863
N27440G1X-35.578Y-18.169
N27450G1X-35.403Y-18.458
N27460G1X-35.201Y-18.727
N27470G1X-34.976Y-18.976
N27480G1X-34.727Y-19.201
N27490G1X-34.458Y-19.403
N27500G1X-34.169Y-19.578
N27510G1X-33.863Y-19.726
N27520G1X-33.541Y-19.844
N27530G1X-33.204Y-19.930
N27540G1X-32.857Y-19.983
N27550G1X-32.525Y-20.000
N27560G1X-28.000
N27570G3X-27.000Y-19.000I0.000J1.000
N27580G1X-27.001Y-16.899
N27590G3X-27.759Y-15.929I-1.000J0.000
N27600G1X-28.138Y-15.835
N27610G1X-28.462Y-15.724
N27620G1X-28.773Y-15.586
N27630G1X-29.070Y-15.423
N27640G1X-29.351Y-15.236
N27650G1X-29.614Y-15.026
N27660G1X-29.860Y-14.796
N27670G1X-30.085Y-14.545
N27680G1X-30.288Y-14.277
N27690G1X-30.469Y-13.992
N27700G1X-30.625Y-13.691
N27710G1X-30.756Y-13.376
N27720G1X-30.860Y-13.049
N27730G1X-30.936Y-12.710
N27740G1X-30.983Y-12.360
N27750G1X-30.999Y-12.003
N27760G1X-30.978Y-11.590
N27770G1X-30.917Y-11.193
N27780G1X-30.819Y-10.810
N27790G1X-30.685Y-10.444
N27800G1X-30.517Y-10.094
N27810G1X-30.316Y-9.765
N27820G1X-30.086Y-9.457
N27830G1X-29.828Y-9.172
N27840G1X-29.543Y-8.914
N27850G1X-29.235Y-8.684
N27860G1X-28.906Y-8.483
N27870G1X-28.556Y-8.315
N27880G1X-28.190Y-8.181
N27890G1X-27.807Y-8.083
N27900G1X-27.410Y-8.022
N27910G1X-27.000Y-8.001
N27920G1X-26.590Y-8.022
N27930G1X-26.193Y-8.083
N27940G1X-25.810Y-8.181
N27950G1X-25.444Y-8.315
N27960G1X-25.094Y-8.483
N27970G1X-24.765Y-8.684
N27980G1X-24.457Y-8.914
N27990G1X-24.172Y-9.172
N28000G1X-23.914Y-9.457
N28010G1X-23.684Y-9.765
N28020G1X-23.483Y-10.094
N28030G1X-23.315Y-10.444
N28040G1X-23.181Y-10.810
N28050G1X-23.083Y-11.193
N28060G1X-23.022Y-11.590
N28070G1X-23.001Y-12.003
N28080G1X-23.017Y-12.360
N28090G1X-23.064Y-12.710
N28100G1X-23.140Y-13.049
N28110G1X-23.244Y-13.377
N28120G1X-23.375Y-13.691
N28130G1X-23.531Y-13.992
N28140G1X-23.712Y-14.277
N28150G1X-23.916Y-14.546
N28160G1X-24.141Y-14.796
N28170G1X-24.386Y-15.027
N28180G1X-24.650Y-15.236
N28190G1X-24.931Y-15.423
N28200G1X-25.228Y-15.586
N28210G1X-25.539Y-15.724
N28220G1X-25.863Y-15.835
N28230G1X-26.242Y-15.930
N28240G3X-27.000Y-16.900I0.242J-0.970
N28250G1X-27.000Y-19.000
N28260G3X-26.000Y-20.000I1.000J0.000
N28270G1X-21.475
N28280G1X-21.143Y-19.983
N28290G1X-20.796Y-19.930
N28300G1X-20.459Y-19.844
N28310G1X-20.137Y-19.726
N28320G1X-19.831Y-19.578
N28330G1X-19.542Y-19.403
N28340G1X-19.273Y-19.201
N28350G1X-19.024Y-18.976
N28360G1X-18.799Y-18.727
N28370G1X-18.597Y-18.458
N28380G1X-18.422Y-18.169
N28390G1X-18.274Y-17.863
N28400G1X-18.156Y-17.541
N28410G1X-18.070Y-17.204
N28420G1X-18.017Y-16.857
N28430G1X-18.000Y-16.525
N28440G1Y-3.475
N28450G1X-18.017Y-3.143
N28460G1X-18.070Y-2.796
N28470G00Z6.000
N28480S12000M03
(Profile 6)
()
N28510G00X-1.024Y-1.024Z6.000
N28520G1Z-0.500F1200.0
N28530G1X-1.273Y-0.799F3600.0
N28540G1X-1.542Y-0.597
N28550G1X-1.831Y-0.422
N28560G1X-2.137Y-0.274
N28570G1X-2.459Y-0.156
N28580G1X-2.796Y-0.070
N28590G1X-3.143Y-0.017
N28600G1X-3.475Y0.000
N28610G1X-14.525
N28620G1X-14.857Y-0.017
N28630G1X-15.204Y-0.070
N28640G1X-15.541Y-0.156
N28650G1X-15.863Y-0.274
N28660G1X-16.169Y-0.422
N28670G1X-16.458Y-0.597
N28680G1X-16.727Y-0.799
N28690G1X-16.976Y-1.024
N28700G1X-17.201Y-1.273
N28710G1X-17.403Y-1.542
N28720G1X-17.578Y-1.831
N28730G1X-17.726Y-2.137
N28740G1X-17.844Y-2.459
N28750G1X-17.930Y-2.796
N28760G1X-17.983Y-3.143
N28770G1X-18.000Y-3.475
N28780G1Y-16.525
N28790G1X-17.983Y-16.857
N28800G1X-17.930Y-17.204
N28810G1X-17.844Y-17.541
N28820G1X-17.726Y-17.863
N28830G1X-17.578Y-18.169
N28840G1X-17.403Y-18.458
N28850G1X-17.201Y-18.727
N28860G1X-16.976Y-18.976
N28870G1X-16.727Y-19.201
N28880G1X-16.458Y-19.403
N28890G1X-16.169Y-19.578
N28900G1X-15.863Y-19.726
N28910G1X-15.541Y-19.844
N28920G1X-15.204Y-19.930
N28930G1X-14.857Y-19.983
N28940G1X-14.525Y-20.000
N28950G1X-10.000
N28960G3X-9.000Y-19.000I0.000J1.000
N28970G1X-9.001Y-16.899
N28980G3X-9.759Y-15.929I-1.000J0.000
N28990G1X-10.138Y-15.835
N29000G1X-10.462Y-15.724
N29010G1X-10.773Y-15.586
N29020G1X-11.070Y-15.423
N29030G1X-11.351Y-15.236
N29040G1X-11.614Y-15.026
N29050G1X-11.859Y-14.796
N29060G1X-12.085Y-14.545
N29070G1X-12.288Y-14.277
N29080G1X-12.469Y-13.992
N29090G1X-12.625Y-13.691
N29100G1X-12.756Y-13.376
N29110G1X-12.860Y-13.049
N29120G1X-12.936Y-12.710
N29130G1X-12.983Y-12.360
N29140G1X-12.999Y-12.003
N29150G1X-12.978Y-11.590
N29160G1X-12.917Y-11.193
N29170G1X-12.819Y-10.810
N29180G1X-12.685Y-10.444
N29190G1X-12.517Y-10.094
N29200G1X-12.316Y-9.765
N29210G1X-12.086Y-9.457
N29220G1X-11.828Y-9.172
N29230G1X-11.543Y-8.914
N29240G1X-11.235Y-8.684
N29250G1X-10.906Y-8.483
N29260G1X-10.556Y-8.315
N29270G1X-10.190Y-8.181
N29280G1X-9.807Y-8.083
N29290G1X-9.410Y-8.022
N29300G1X-9.000Y-8.001
N29310G1X-8.590Y-8.022
N29320G1X-8.193Y-8.083
N29330G1X-7.810Y-8.181
N29340G1X-7.444Y-8.315
N29350G1X-7.094Y-8.483
N29360G1X-6.765Y-8.684
N29370G1X-6.457Y-8.914
N29380G1X-6.172Y-9.172
N29390G1X-5.914Y-9.457
N29400G1X-5.684Y-9.765
N29410G1X-5.483Y-10.094
N29420G1X-5.315Y-10.444
N29430G1X-5.181Y-10.810
N29440G1X-5.083Y-11.193
N29450G1X-5.022Y-11.590
N29460G1X-5.001Y-12.003
N29470G1X-5.017Y-12.360
N29480G1X-5.064Y-12.710
N29490G1X-5.140Y-13.049
N29500G1X-5.244Y-13.377
N29510G1X-5.375Y-13.691
N29520G1X-5.531Y-13.992
N29530G1X-5.712Y-14.277
N29540G1X-5.916Y-14.546
N29550G1X-6.141Y-14.796
N29560G1X-6.386Y-15.027
N29570G1X-6.650Y-15.236
N29580G1X-6.931Y-15.423
N29590G1X-7.228Y-15.586
N29600G1X-7.539Y-15.724
N29610G1X-7.863Y-15.835
N29620G1X-8.242Y-15.930
N29630G3X-9.000Y-16.900I0.242J-0.970
N29640G1X-9.000Y-19.000
N29650G3X-8.000Y-20.000I1.000J0.000
N29660G1X-3.475
N29670G1X-3.143Y-19.983
N29680G1X-2.796Y-19.930
N29690G1X-2.459Y-19.844
N29700G1X-2.137Y-19.726
N29710G1X-1.831Y-19.578
N29720G1X-1.542Y-19.403
N29730G1X-1.273Y-19.201
N29740G1X-1.024Y-18.976
N29750G1X-0.799Y-18.727
N29760G1X-0.597Y-18.458
N29770G1X-0.422Y-18.169
N29780G1X-0.274Y-17.863
N29790G1X-0.156Y-17.541
N29800G1X-0.070Y-17.204
N29810G1X-0.017Y-16.857
N29820G1X0.000Y-16.525
N29830G1Y-3.475
N29840G1X-0.017Y-3.143
N29850G1X-0.070Y-2.796
N29860G1X-0.156Y-2.459
N29870G1X-0.274Y-2.137
N29880G1X-0.422Y-1.831
N29890G1X-0.597Y-1.542
N29900G1X-0.799Y-1.273
N29910G1X-1.024Y-1.024
N29920G1Z-1.000F1200.0
N29930G1X-1.273Y-0.799F3600.0
N29940G1X-1.542Y-0.597
N29950G1X-1.831Y-0.422
N29960G1X-2.137Y-0.274
N29970G1X-2.459Y-0.156
N29980G1X-2.796Y-0.070
N29990G1X-3.143Y-0.017
N30000G1X-3.475Y0.000
N30010G1X-14.525
N30020G1X-14.857Y-0.017
N30030G1X-15.204Y-0.070
N30040G1X-15.541Y-0.156
N30050G1X-15.863Y-0.274
N30060G1X-16.169Y-0.422
N30070G1X-16.458Y-0.597
N30080G1X-16.727Y-0.799
N30090G1X-16.976Y-1.024
N30100G1X-17.201Y-1.273
N30110G1X-17.403Y-1.542
N30120G1X-17.578Y-1.831
N30130G1X-17.726Y-2.137
N30140G1X-17.844Y-2.459
N30150G1X-17.930Y-2.796
N30160G1X-17.983Y-3.143
N30170G1X-18.000Y-3.475
N30180G1Y-16.525
N30190G1X-17.983Y-16.857
N30200G1X-17.930Y-17.204
N30210G1X-17.844Y-17.541
N30220G1X-17.726Y-17.863
N30230G1X-17.578Y-18.169
N30240G1X-17.403Y-18.458
N30250G1X-17.201Y-18.727
N30260G1X-16.976Y-18.976
N30270G1X-16.727Y-19.201
N30280G1X-16.458Y-19.403
N30290G1X-16.169Y-19.578
N30300G1X-15.863Y-19.726
N30310G1X-15.541Y-19.844
N30320G1X-15.204Y-19.930
N30330G1X-14.857Y-19.983
N30340G1X-14.525Y-20.000
N30350G1X-10.000
N30360G3X-9.000Y-19.000I0.000J1.000
N30370G1X-9.001Y-16.899
N30380G3X-9.759Y-15.929I-1.000J0.000
N30390G1X-10.138Y-15.835
N30400G1X-10.462Y-15.724
N30410G1X-10.773Y-15.586
N30420G1X-11.070Y-15.423
N30430G1X-11.351Y-15.236
N30440G1X-11.614Y-15.026
N30450G1X-11.859Y-14.796
N30460G1X-12.085Y-14.545
N30470G1X-12.288Y-14.277
N30480G1X-12.469Y-13.992
N30490G1X-12.625Y-13.691
N30500G1X-12.756Y-13.376
N30510G1X-12.860Y-13.049
N30520G1X-12.936Y-12.710
N30530G1X-12.983Y-12.360
N30540G1X-12.999Y-12.003
N30550G1X-12.978Y-11.590
N30560G1X-12.917Y-11.193
N30570G1X-12.819Y-10.810
N30580G1X-12.685Y-10.444
N30590G1X-12.517Y-10.094
N30600G1X-12.316Y-9.765
N30610G1X-12.086Y-9.457
N30620G1X-11.828Y-9.172
N30630G1X-11.543Y-8.914
N30640G1X-11.235Y-8.684
N30650G1X-10.906Y-8.483
N30660G1X-10.556Y-8.315
N30670G1X-10.190Y-8.181
N30680G1X-9.807Y-8.083
N30690G1X-9.410Y-8.022
N30700G1X-9.000Y-8.001
N30710G1X-8.590Y-8.022
N30720G1X-8.193Y-8.083
N30730G1X-7.810Y-8.181
N30740G1X-7.444Y-8.315
N30750G1X-7.094Y-8.483
N30760G1X-6.765Y-8.684
N30770G1X-6.457Y-8.914
N30780G1X-6.172Y-9.172
N30790G1X-5.914Y-9.457
N30800G1X-5.684Y-9.765
N30810G1X-5.483Y-10.094
N30820G1X-5.315Y-10.444
N30830G1X-5.181Y-10.810
N30840G1X-5.083Y-11.193
N30850G1X-5.022Y-11.590
N30860G1X-5.001Y-12.003
N30870G1X-5.017Y-12.360
N30880G1X-5.064Y-12.710
N30890G1X-5.140Y-13.049
N30900G1X-5.244Y-13.377
N30910G1X-5.375Y-13.691
N30920G1X-5.531Y-13.992
N30930G1X-5.712Y-14.277
N30940G1X-5.916Y-14.546
N30950G1X-6.141Y-14.796
N30960G1X-6.386Y-15.027
N30970G1X-6.650Y-15.236
N30980G1X-6.931Y-15.423
N30990G1X-7.228Y-15.586
N31000G1X-7.539Y-15.724
N31010G1X-7.863Y-15.835
N31020G1X-8.242Y-15.930
N31030G3X-9.000Y-16.900I0.242J-0.970
N31040G1X-9.000Y-19.000
N31050G3X-8.000Y-20.000I1.000J0.000
N31060G1X-3.475
N31070G1X-3.143Y-19.983
N31080G1X-2.796Y-19.930
N31090G1X-2.459Y-19.844
N31100G1X-2.137Y-19.726
N31110G1X-1.831Y-19.578
N31120G1X-1.542Y-19.403
N31130G1X-1.273Y-19.201
N31140G1X-1.024Y-18.976
N31150G1X-0.799Y-18.727
N31160G1X-0.597Y-18.458
N31170G1X-0.422Y-18.169
N31180G1X-0.274Y-17.863
N31190G1X-0.156Y-17.541
N31200G1X-0.070Y-17.204
N31210G1X-0.017Y-16.857
N31220G1X0.000Y-16.525
N31230G1Y-3.475
N31240G1X-0.017Y-3.143
N31250G1X-0.070Y-2.796
N31260G1X-0.156Y-2.459
N31270G1X-0.274Y-2.137
N31280G1X-0.422Y-1.831
N31290G1X-0.597Y-1.542
N31300G1X-0.799Y-1.273
N31310G1X-1.024Y-1.024
N31320G1Z-1.500F1200.0
N31330G1X-1.273Y-0.799F3600.0
N31340G1X-1.542Y-0.597
N31350G1X-1.831Y-0.422
N31360G1X-2.137Y-0.274
N31370G1X-2.459Y-0.156
N31380G1X-2.796Y-0.070
N31390G1X-3.143Y-0.017
N31400G1X-3.475Y0.000
N31410G1X-14.525
N31420G1X-14.857Y-0.017
N31430G1X-15.204Y-0.070
N31440G1X-15.541Y-0.156
N31450G1X-15.863Y-0.274
N31460G1X-16.169Y-0.422
N31470G1X-16.458Y-0.597
N31480G1X-16.727Y-0.799
N31490G1X-16.976Y-1.024
N31500G1X-17.201Y-1.273
N31510G1X-17.403Y-1.542
N31520G1X-17.578Y-1.831
N31530G1X-17.726Y-2.137
N31540G1X-17.844Y-2.459
N31550G1X-17.930Y-2.796
N31560G1X-17.983Y-3.143
N31570G1X-18.000Y-3.475
N31580G1Y-16.525
N31590G1X-17.983Y-16.857
N31600G1X-17.930Y-17.204
N31610G1X-17.844Y-17.541
N31620G1X-17.726Y-17.863
N31630G1X-17.578Y-18.169
N31640G1X-17.403Y-18.458
N31650G1X-17.201Y-18.727
N31660G1X-16.976Y-18.976
N31670G1X-16.727Y-19.201
N31680G1X-16.458Y-19.403
N31690G1X-16.169Y-19.578
N31700G1X-15.863Y-19.726
N31710G1X-15.541Y-19.844
N31720G1X-15.204Y-19.930
N31730G1X-14.857Y-19.983
N31740G1X-14.525Y-20.000
N31750G1X-10.000
N31760G3X-9.000Y-19.000I0.000J1.000
N31770G1X-9.001Y-16.899
N31780G3X-9.759Y-15.929I-1.000J0.000
N31790G1X-10.138Y-15.835
N31800G1X-10.462Y-15.724
N31810G1X-10.773Y-15.586
N31820G1X-11.070Y-15.423
N31830G1X-11.351Y-15.236
N31840G1X-11.614Y-15.026
N31850G1X-11.859Y-14.796
N31860G1X-12.085Y-14.545
N31870G1X-12.288Y-14.277
N31880G1X-12.469Y-13.992
N31890G1X-12.625Y-13.691
N31900G1X-12.756Y-13.376
N31910G1X-12.860Y-13.049
N31920G1X-12.936Y-12.710
N31930G1X-12.983Y-12.360
N31940G1X-12.999Y-12.003
N31950G1X-12.978Y-11.590
N31960G1X-12.917Y-11.193
N31970G1X-12.819Y-10.810
N31980G1X-12.685Y-10.444
N31990G1X-12.517Y-10.094
N32000G1X-12.316Y-9.765
N32010G1X-12.086Y-9.457
N32020G1X-11.828Y-9.172
N32030G1X-11.543Y-8.914
N32040G1X-11.235Y-8.684
N32050G1X-10.906Y-8.483
N32060G1X-10.556Y-8.315
N32070G1X-10.190Y-8.181
N32080G1X-9.807Y-8.083
N32090G1X-9.410Y-8.022
N32100G1X-9.000Y-8.001
N32110G1X-8.590Y-8.022
N32120G1X-8.193Y-8.083
N32130G1X-7.810Y-8.181
N32140G1X-7.444Y-8.315
N32150G1X-7.094Y-8.483
N32160G1X-6.765Y-8.684
N32170G1X-6.457Y-8.914
N32180G1X-6.172Y-9.172
N32190G1X-5.914Y-9.457
N32200G1X-5.684Y-9.765
N32210G1X-5.483Y-10.094
N32220G1X-5.315Y-10.444
N32230G1X-5.181Y-10.810
N32240G1X-5.083Y-11.193
N32250G1X-5.022Y-11.590
N32260G1X-5.001Y-12.003
N32270G1X-5.017Y-12.360
N32280G1X-5.064Y-12.710
N32290G1X-5.140Y-13.049
N32300G1X-5.244Y-13.377
N32310G1X-5.375Y-13.691
N32320G1X-5.531Y-13.992
N32330G1X-5.712Y-14.277
N32340G1X-5.916Y-14.546
N32350G1X-6.141Y-14.796
N32360G1X-6.386Y-15.027
N32370G1X-6.650Y-15.236
N32380G1X-6.931Y-15.423
N32390G1X-7.228Y-15.586
N32400G1X-7.539Y-15.724
N32410G1X-7.863Y-15.835
N32420G1X-8.242Y-15.930
N32430G3X-9.000Y-16.900I0.242J-0.970
N32440G1X-9.000Y-19.000
N32450G3X-8.000Y-20.000I1.000J0.000
N32460G1X-3.475
N32470G1X-3.143Y-19.983
N32480G1X-2.796Y-19.930
N32490G1X-2.459Y-19.844
N32500G1X-2.137Y-19.726
N32510G1X-1.831Y-19.578
N32520G1X-1.542Y-19.403
N32530G1X-1.273Y-19.201
N32540G1X-1.024Y-18.976
N32550G1X-0.799Y-18.727
N32560G1X-0.597Y-18.458
N32570G1X-0.422Y-18.169
N32580G1X-0.274Y-17.863
N32590G1X-0.156Y-17.541
N32600G1X-0.070Y-17.204
N32610G1X-0.017Y-16.857
N32620G1X0.000Y-16.525
N32630G1Y-3.475
N32640G1X-0.017Y-3.143
N32650G1X-0.070Y-2.796
N32660G1X-0.156Y-2.459
N32670G1X-0.274Y-2.137
N32680G1X-0.422Y-1.831
N32690G1X-0.597Y-1.542
N32700G1X-0.799Y-1.273
N32710G1X-1.024Y-1.024
N32720G1Z-2.000F1200.0
N32730G1X-1.273Y-0.799F3600.0
N32740G1X-1.542Y-0.597
N32750G1X-1.831Y-0.422
N32760G1X-2.137Y-0.274
N32770G1X-2.459Y-0.156
N32780G1X-2.796Y-0.070
N32790G1X-3.143Y-0.017
N32800G1X-3.475Y0.000
N32810G1X-14.525
N32820G1X-14.857Y-0.017
N32830G1X-15.204Y-0.070
N32840G1X-15.541Y-0.156
N32850G1X-15.863Y-0.274
N32860G1X-16.169Y-0.422
N32870G1X-16.458Y-0.597
N32880G1X-16.727Y-0.799
N32890G1X-16.976Y-1.024
N32900G1X-17.201Y-1.273
N32910G1X-17.403Y-1.542
N32920G1X-17.578Y-1.831
N32930G1X-17.726Y-2.137
N32940G1X-17.844Y-2.459
N32950G1X-17.930Y-2.796
N32960G1X-17.983Y-3.143
N32970G1X-18.000Y-3.475
N32980G1Y-16.525
N32990G1X-17.983Y-16.857
N33000G1X-17.930Y-17.204
N33010G1X-17.844Y-17.541
N33020G1X-17.726Y-17.863
N33030G1X-17.578Y-18.169
N33040G1X-17.403Y-18.458
N33050G1X-17.201Y-18.727
N33060G1X-16.976Y-18.976
N33070G1X-16.727Y-19.201
N33080G1X-16.458Y-19.403
N33090G1X-16.169Y-19.578
N33100G1X-15.863Y-19.726
N33110G1X-15.541Y-19.844
N33120G1X-15.204Y-19.930
N33130G1X-14.857Y-19.983
N33140G1X-14.525Y-20.000
N33150G1X-10.000
N33160G3X-9.000Y-19.000I0.000J1.000
N33170G1X-9.001Y-16.899
N33180G3X-9.759Y-15.929I-1.000J0.000
N33190G1X-10.138Y-15.835
N33200G1X-10.462Y-15.724
N33210G1X-10.773Y-15.586
N33220G1X-11.070Y-15.423
N33230G1X-11.351Y-15.236
N33240G1X-11.614Y-15.026
N33250G1X-11.859Y-14.796
N33260G1X-12.085Y-14.545
N33270G1X-12.288Y-14.277
N33280G1X-12.469Y-13.992
N33290G1X-12.625Y-13.691
N33300G1X-12.756Y-13.376
N33310G1X-12.860Y-13.049
N33320G1X-12.936Y-12.710
N33330G1X-12.983Y-12.360
N33340G1X-12.999Y-12.003
N33350G1X-12.978Y-11.590
N33360G1X-12.917Y-11.193
N33370G1X-12.819Y-10.810
N33380G1X-12.685Y-10.444
N33390G1X-12.517Y-10.094
N33400G1X-12.316Y-9.765
N33410G1X-12.086Y-9.457
N33420G1X-11.828Y-9.172
N33430G1X-11.543Y-8.914
N33440G1X-11.235Y-8.684
N33450G1X-10.906Y-8.483
N33460G1X-10.556Y-8.315
N33470G1X-10.190Y-8.181
N33480G1X-9.807Y-8.083
N33490G1X-9.410Y-8.022
N33500G1X-9.000Y-8.001
N33510G1X-8.590Y-8.022
N33520G1X-8.193Y-8.083
N33530G1X-7.810Y-8.181
N33540G1X-7.444Y-8.315
N33550G1X-7.094Y-8.483
N33560G1X-6.765Y-8.684
N33570G1X-6.457Y-8.914
N33580G1X-6.172Y-9.172
N33590G1X-5.914Y-9.457
N33600G1X-5.684Y-9.765
N33610G1X-5.483Y-10.094
N33620G1X-5.315Y-10.444
N33630G1X-5.181Y-10.810
N33640G1X-5.083Y-11.193
N33650G1X-5.022Y-11.590
N33660G1X-5.001Y-12.003
N33670G1X-5.017Y-12.360
N33680G1X-5.064Y-12.710
N33690G1X-5.140Y-13.049
N33700G1X-5.244Y-13.377
N33710G1X-5.375Y-13.691
N33720G1X-5.531Y-13.992
N33730G1X-5.712Y-14.277
N33740G1X-5.916Y-14.546
N33750G1X-6.141Y-14.796
N33760G1X-6.386Y-15.027
N33770G1X-6.650Y-15.236
N33780G1X-6.931Y-15.423
N33790G1X-7.228Y-15.586
N33800G1X-7.539Y-15.724
N33810G1X-7.863Y-15.835
N33820G1X-8.242Y-15.930
N33830G3X-9.000Y-16.900I0.242J-0.970
N33840G1X-9.000Y-19.000
N33850G3X-8.000Y-20.000I1.000J0.000
N33860G1X-3.475
N33870G1X-3.143Y-19.983
N33880G1X-2.796Y-19.930
N33890G1X-2.459Y-19.844
N33900G1X-2.137Y-19.726
N33910G1X-1.831Y-19.578
N33920G1X-1.542Y-19.403
N33930G1X-1.273Y-19.201
N33940G1X-1.024Y-18.976
N33950G1X-0.799Y-18.727
N33960G1X-0.597Y-18.458
N33970G1X-0.422Y-18.169
N33980G1X-0.274Y-17.863
N33990G1X-0.156Y-17.541
N34000G1X-0.070Y-17.204
N34010G1X-0.017Y-16.857
N34020G1X0.000Y-16.525
N34030G1Y-3.475
N34040G1X-0.017Y-3.143
N34050G1X-0.070Y-2.796
N34060G1X-0.156Y-2.459
N34070G1X-0.274Y-2.137
N34080G1X-0.422Y-1.831
N34090G1X-0.597Y-1.542
N34100G1X-0.799Y-1.273
N34110G1X-1.024Y-1.024
N34120G00Z6.000
N34130S12000M03
(Profile 7)
()
N34160G00X1.024Y-1.024Z6.000
N34170G1Z-0.500F1200.0
N34180G1X0.799Y-1.273F3600.0
N34190G1X0.597Y-1.542
N34200G1X0.422Y-1.831
N34210G1X0.274Y-2.137
N34220G1X0.156Y-2.459
N34230G1X0.070Y-2.796
N34240G1X0.017Y-3.143
N34250G1X0.000Y-3.475
N34260G1Y-16.525
N34270G1X0.017Y-16.857
N34280G1X0.070Y-17.204
N34290G1X0.156Y-17.541
N34300G1X0.274Y-17.863
N34310G1X0.422Y-18.169
N34320G1X0.597Y-18.458
N34330G1X0.799Y-18.727
N34340G1X1.024Y-18.976
N34350G1X1.273Y-19.201
N34360G1X1.542Y-19.403
N34370G1X1.831Y-19.578
N34380G1X2.137Y-19.726
N34390G1X2.459Y-19.844
N34400G1X2.796Y-19.930
N34410G1X3.143Y-19.983
N34420G1X3.475Y-20.000
N34430G1X8.000
N34440G3X9.000Y-19.000I0.000J1.000
N34450G1X8.999Y-16.899
N34460G3X8.241Y-15.929I-1.000J0.000
N34470G1X7.862Y-15.835
N34480G1X7.538Y-15.724
N34490G1X7.227Y-15.586
N34500G1X6.930Y-15.423
N34510G1X6.649Y-15.236
N34520G1X6.386Y-15.026
N34530G1X6.141Y-14.796
N34540G1X5.915Y-14.545
N34550G1X5.712Y-14.277
N34560G1X5.531Y-13.992
N34570G1X5.375Y-13.691
N34580G1X5.244Y-13.376
N34590G1X5.140Y-13.049
N34600G1X5.064Y-12.710
N34610G1X5.017Y-12.360
N34620G1X5.001Y-12.003
N34630G1X5.022Y-11.590
N34640G1X5.083Y-11.193
N34650G1X5.181Y-10.810
N34660G1X5.315Y-10.444
N34670G1X5.483Y-10.094
N34680G1X5.684Y-9.765
N34690G1X5.914Y-9.457
N34700G1X6.172Y-9.172
N34710G1X6.457Y-8.914
N34720G1X6.765Y-8.684
N34730G1X7.094Y-8.483
N34740G1X7.444Y-8.315
N34750G1X7.810Y-8.181
N34760G1X8.193Y-8.083
N34770G1X8.590Y-8.022
N34780G1X9.000Y-8.001
N34790G1X9.410Y-8.022
N34800G1X9.807Y-8.083
N34810G1X10.190Y-8.181
N34820G1X10.556Y-8.315
N34830G1X10.906Y-8.483
N34840G1X11.235Y-8.684
N34850G1X11.543Y-8.914
N34860G1X11.828Y-9.172
N34870G1X12.086Y-9.457
N34880G1X12.316Y-9.765
N34890G1X12.517Y-10.094
N34900G1X12.685Y-10.444
N34910G1X12.819Y-10.810
N34920G1X12.917Y-11.193
N34930G1X12.978Y-11.590
N34940G1X12.999Y-12.003
N34950G1X12.983Y-12.360
N34960G1X12.936Y-12.710
N34970G1X12.860Y-13.049
N34980G1X12.756Y-13.377
N34990G1X12.625Y-13.691
N35000G1X12.469Y-13.992
N35010G1X12.288Y-14.277
N35020G1X12.084Y-14.546
N35030G1X11.859Y-14.796
N35040G1X11.614Y-15.027
N35050G1X11.350Y-15.236
N35060G1X11.069Y-15.423
N35070G1X10.772Y-15.586
N35080G1X10.461Y-15.724
N35090G1X10.137Y-15.835
N35100G1X9.758Y-15.930
N35110G3X9.000Y-16.900I0.242J-0.970
N35120G1X9.000Y-19.000
N35130G3X10.000Y-20.000I1.000J0.000
N35140G1X14.525
N35150G1X14.857Y-19.983
N35160G1X15.204Y-19.930
N35170G1X15.541Y-19.844
N35180G1X15.863Y-19.726
N35190G1X16.169Y-19.578
N35200G1X16.458Y-19.403
N35210G1X16.727Y-19.201
N35220G1X16.976Y-18.976
N35230G1X17.201Y-18.727
N35240G1X17.403Y-18.458
N35250G1X17.578Y-18.169
N35260G1X17.726Y-17.863
N35270G1X17.844Y-17.541
N35280G1X17.930Y-17.204
N35290G1X17.983Y-16.857
N35300G1X18.000Y-16.525
N35310G1Y-3.475
N35320G1X17.983Y-3.143
N35330G1X17.930Y-2.796
N35340G1X17.844Y-2.459
N35350G1X17.726Y-2.137
N35360G1X17.578Y-1.831
N35370G1X17.403Y-1.542
N35380G1X17.201Y-1.273
N35390G1X16.976Y-1.024
N35400G1X16.727Y-0.799
N35410G1X16.458Y-0.597
N35420G1X16.169Y-0.422
N35430G1X15.863Y-0.274
N35440G1X15.541Y-0.156
N35450G1X15.204Y-0.070
N35460G1X14.857Y-0.017
N35470G1X14.525Y0.000
N35480G1X3.475
N35490G1X3.143Y-0.017
N35500G1X2.796Y-0.070
N35510G1X2.459Y-0.156
N35520G1X2.137Y-0.274
N35530G1X1.831Y-0.422
N35540G1X1.542Y-0.597
N35550G1X1.273Y-0.799
N35560G1X1.024Y-1.024
N35570G1Z-1.000F1200.0
N35580G1X0.799Y-1.273F3600.0
N35590G1X0.597Y-1.542
N35600G1X0.422Y-1.831
N35610G1X0.274Y-2.137
N35620G1X0.156Y-2.459
N35630G1X0.070Y-2.796
N35640G1X0.017Y-3.143
N35650G1X0.000Y-3.475
N35660G1Y-16.525
N35670G1X0.017Y-16.857
N35680G1X0.070Y-17.204
N35690G1X0.156Y-17.541
N35700G1X0.274Y-17.863
N35710G1X0.422Y-18.169
N35720G1X0.597Y-18.458
N35730G1X0.799Y-18.727
N35740G1X1.024Y-18.976
N35750G1X1.273Y-19.201
N35760G1X1.542Y-19.403
N35770G1X1.831Y-19.578
N35780G1X2.137Y-19.726
N35790G1X2.459Y-19.844
N35800G1X2.796Y-19.930
N35810G1X3.143Y-19.983
N35820G1X3.475Y-20.000
N35830G1X8.000
N35840G3X9.000Y-19.000I0.000J1.000
N35850G1X8.999Y-16.899
N35860G3X8.241Y-15.929I-1.000J0.000
N35870G1X7.862Y-15.835
N35880G1X7.538Y-15.724
N35890G1X7.227Y-15.586
N35900G1X6.930Y-15.423
N35910G1X6.649Y-15.236
N35920G1X6.386Y-15.026
N35930G1X6.141Y-14.796
N35940G1X5.915Y-14.545
N35950G1X5.712Y-14.277
N35960G1X5.531Y-13.992
N35970G1X5.375Y-13.691
N35980G1X5.244Y-13.376
N35990G1X5.140Y-13.049
N36000G1X5.064Y-12.710
N36010G1X5.017Y-12.360
N36020G1X5.001Y-12.003
N36030G1X5.022Y-11.590
N36040G1X5.083Y-11.193
N36050G1X5.181Y-10.810
N36060G1X5.315Y-10.444
N36070G1X5.483Y-10.094
N36080G1X5.684Y-9.765
N36090G1X5.914Y-9.457
N36100G1X6.172Y-9.172
N36110G1X6.457Y-8.914
N36120G1X6.765Y-8.684
N36130G1X7.094Y-8.483
N36140G1X7.444Y-8.315
N36150G1X7.810Y-8.181
N36160G1X8.193Y-8.083
N36170G1X8.590Y-8.022
N36180G1X9.000Y-8.001
N36190G1X9.410Y-8.022
N36200G1X9.807Y-8.083
N36210G1X10.190Y-8.181
N36220G1X10.556Y-8.315
N36230G1X10.906Y-8.483
N36240G1X11.235Y-8.684
N36250G1X11.543Y-8.914
N36260G1X11.828Y-9.172
N36270G1X12.086Y-9.457
N36280G1X12.316Y-9.765
N36290G1X12.517Y-10.094
N36300G1X12.685Y-10.444
N36310G1X12.819Y-10.810
N36320G1X12.917Y-11.193
N36330G1X12.978Y-11.590
N36340G1X12.999Y-12.003
N36350G1X12.983Y-12.360
N36360G1X12.936Y-12.710
N36370G1X12.860Y-13.049
N36380G1X12.756Y-13.377
N36390G1X12.625Y-13.691
N36400G1X12.469Y-13.992
N36410G1X12.288Y-14.277
N36420G1X12.084Y-14.546
N36430G1X11.859Y-14.796
N36440G1X11.614Y-15.027
N36450G1X11.350Y-15.236
N36460G1X11.069Y-15.423
N36470G1X10.772Y-15.586
N36480G1X10.461Y-15.724
N36490G1X10.137Y-15.835
N36500G1X9.758Y-15.930
N36510G3X9.000Y-16.900I0.242J-0.970
N36520G1X9.000Y-19.000
N36530G3X10.000Y-20.000I1.000J0.000
N36540G1X14.525
N36550G1X14.857Y-19.983
N36560G1X15.204Y-19.930
N36570G1X15.541Y-19.844
N36580G1X15.863Y-19.726
N36590G1X16.169Y-19.578
N36600G1X16.458Y-19.403
N36610G1X16.727Y-19.201
N36620G1X16.976Y-18.976
N36630G1X17.201Y-18.727
N36640G1X17.403Y-18.458
N36650G1X17.578Y-18.169
N36660G1X17.726Y-17.863
N36670G1X17.844Y-17.541
N36680G1X17.930Y-17.204
N36690G1X17.983Y-16.857
N36700G1X18.000Y-16.525
N36710G1Y-3.475
N36720G1X17.983Y-3.143
N36730G1X17.930Y-2.796
N36740G1X17.844Y-2.459
N36750G1X17.726Y-2.137
N36760G1X17.578Y-1.831
N36770G1X17.403Y-1.542
N36780G1X17.201Y-1.273
N36790G1X16.976Y-1.024
N36800G1X16.727Y-0.799
N36810G1X16.458Y-0.597
N36820G1X16.169Y-0.422
N36830G1X15.863Y-0.274
N36840G1X15.541Y-0.156
N36850G1X15.204Y-0.070
N36860G1X14.857Y-0.017
N36870G1X14.525Y0.000
N36880G1X3.475
N36890G1X3.143Y-0.017
N36900G1X2.796Y-0.070
N36910G1X2.459Y-0.156
N36920G1X2.137Y-0.274
N36930G1X1.831Y-0.422
N36940G1X1.542Y-0.597
N36950G1X1.273Y-0.799
N36960G1X1.024Y-1.024
N36970G1Z-1.500F1200.0
N36980G1X0.799Y-1.273F3600.0
N36990G1X0.597Y-1.542
N37000G1X0.422Y-1.831
N37010G1X0.274Y-2.137
N37020G1X0.156Y-2.459
N37030G1X0.070Y-2.796
N37040G1X0.017Y-3.143
N37050G1X0.000Y-3.475
N37060G1Y-16.525
N37070G1X0.017Y-16.857
N37080G1X0.070Y-17.204
N37090G1X0.156Y-17.541
N37100G1X0.274Y-17.863
N37110G1X0.422Y-18.169
N37120G1X0.597Y-18.458
N37130G1X0.799Y-18.727
N37140G1X1.024Y-18.976
N37150G1X1.273Y-19.201
N37160G1X1.542Y-19.403
N37170G1X1.831Y-19.578
N37180G1X2.137Y-19.726
N37190G1X2.459Y-19.844
N37200G1X2.796Y-19.930
N37210G1X3.143Y-19.983
N37220G1X3.475Y-20.000
N37230G1X8.000
N37240G3X9.000Y-19.000I0.000J1.000
N37250G1X8.999Y-16.899
N37260G3X8.241Y-15.929I-1.000J0.000
N37270G1X7.862Y-15.835
N37280G1X7.538Y-15.724
N37290G1X7.227Y-15.586
N37300G1X6.930Y-15.423
N37310G1X6.649Y-15.236
N37320G1X6.386Y-15.026
N37330G1X6.141Y-14.796
N37340G1X5.915Y-14.545
N37350G1X5.712Y-14.277
N37360G1X5.531Y-13.992
N37370G1X5.375Y-13.691
N37380G1X5.244Y-13.376
N37390G1X5.140Y-13.049
N37400G1X5.064Y-12.710
N37410G1X5.017Y-12.360
N37420G1X5.001Y-12.003
N37430G1X5.022Y-11.590
N37440G1X5.083Y-11.193
N37450G1X5.181Y-10.810
N37460G1X5.315Y-10.444
N37470G1X5.483Y-10.094
N37480G1X5.684Y-9.765
N37490G1X5.914Y-9.457
N37500G1X6.172Y-9.172
N37510G1X6.457Y-8.914
N37520G1X6.765Y-8.684
N37530G1X7.094Y-8.483
N37540G1X7.444Y-8.315
N37550G1X7.810Y-8.181
N37560G1X8.193Y-8.083
N37570G1X8.590Y-8.022
N37580G1X9.000Y-8.001
N37590G1X9.410Y-8.022
N37600G1X9.807Y-8.083
N37610G1X10.190Y-8.181
N37620G1X10.556Y-8.315
N37630G1X10.906Y-8.483
N37640G1X11.235Y-8.684
N37650G1X11.543Y-8.914
N37660G1X11.828Y-9.172
N37670G1X12.086Y-9.457
N37680G1X12.316Y-9.765
N37690G1X12.517Y-10.094
N37700G1X12.685Y-10.444
N37710G1X12.819Y-10.810
N37720G1X12.917Y-11.193
N37730G1X12.978Y-11.590
N37740G1X12.999Y-12.003
N37750G1X12.983Y-12.360
N37760G1X12.936Y-12.710
N37770G1X12.860Y-13.049
N37780G1X12.756Y-13.377
N37790G1X12.625Y-13.691
N37800G1X12.469Y-13.992
N37810G1X12.288Y-14.277
N37820G1X12.084Y-14.546
N37830G1X11.859Y-14.796
N37840G1X11.614Y-15.027
N37850G1X11.350Y-15.236
N37860G1X11.069Y-15.423
N37870G1X10.772Y-15.586
N37880G1X10.461Y-15.724
N37890G1X10.137Y-15.835
N37900G1X9.758Y-15.930
N37910G3X9.000Y-16.900I0.242J-0.970
N37920G1X9.000Y-19.000
N37930G3X10.000Y-20.000I1.000J0.000
N37940G1X14.525
N37950G1X14.857Y-19.983
N37960G1X15.204Y-19.930
N37970G1X15.541Y-19.844
N37980G1X15.863Y-19.726
N37990G1X16.169Y-19.578
N38000G1X16.458Y-19.403
N38010G1X16.727Y-19.201
N38020G1X16.976Y-18.976
N38030G1X17.201Y-18.727
N38040G1X17.403Y-18.458
N38050G1X17.578Y-18.169
N38060G1X17.726Y-17.863
N38070G1X17.844Y-17.541
N38080G1X17.930Y-17.204
N38090G1X17.983Y-16.857
N38100G1X18.000Y-16.525
N38110G1Y-3.475
N38120G1X17.983Y-3.143
N38130G1X17.930Y-2.796
N38140G1X17.844Y-2.459
N38150G1X17.726Y-2.137
N38160G1X17.578Y-1.831
N38170G1X17.403Y-1.542
N38180G1X17.201Y-1.273
N38190G1X16.976Y-1.024
N38200G1X16.727Y-0.799
N38210G1X16.458Y-0.597
N38220G1X16.169Y-0.422
N38230G1X15.863Y-0.274
N38240G1X15.541Y-0.156
N38250G1X15.204Y-0.070
N38260G1X14.857Y-0.017
N38270G1X14.525Y0.000
N38280G1X3.475
N38290G1X3.143Y-0.017
N38300G1X2.796Y-0.070
N38310G1X2.459Y-0.156
N38320G1X2.137Y-0.274
N38330G1X1.831Y-0.422
N38340G1X1.542Y-0.597
N38350G1X1.273Y-0.799
N38360G1X1.024Y-1.024
N38370G1Z-2.000F1200.0
N38380G1X0.799Y-1.273F3600.0
N38390G1X0.597Y-1.542
N38400G1X0.422Y-1.831
N38410G1X0.274Y-2.137
N38420G1X0.156Y-2.459
N38430G1X0.070Y-2.796
N38440G1X0.017Y-3.143
N38450G1X0.000Y-3.475
N38460G1Y-16.525
N38470G1X0.017Y-16.857
N38480G1X0.070Y-17.204
N38490G1X0.156Y-17.541
N38500G1X0.274Y-17.863
N38510G1X0.422Y-18.169
N38520G1X0.597Y-18.458
N38530G1X0.799Y-18.727
N38540G1X1.024Y-18.976
N38550G1X1.273Y-19.201
N38560G1X1.542Y-19.403
N38570G1X1.831Y-19.578
N38580G1X2.137Y-19.726
N38590G1X2.459Y-19.844
N38600G1X2.796Y-19.930
N38610G1X3.143Y-19.983
N38620G1X3.475Y-20.000
N38630G1X8.000
N38640G3X9.000Y-19.000I0.000J1.000
N38650G1X8.999Y-16.899
N38660G3X8.241Y-15.929I-1.000J0.000
N38670G1X7.862Y-15.835
N38680G1X7.538Y-15.724
N38690G1X7.227Y-15.586
N38700G1X6.930Y-15.423
N38710G1X6.649Y-15.236
N38720G1X6.386Y-15.026
N38730G1X6.141Y-14.796
N38740G1X5.915Y-14.545
N38750G1X5.712Y-14.277
N38760G1X5.531Y-13.992
N38770G1X5.375Y-13.691
N38780G1X5.244Y-13.376
N38790G1X5.140Y-13.049
N38800G1X5.064Y-12.710
N38810G1X5.017Y-12.360
N38820G1X5.001Y-12.003
N38830G1X5.022Y-11.590
N38840G1X5.083Y-11.193
N38850G1X5.181Y-10.810
N38860G1X5.315Y-10.444
N38870G1X5.483Y-10.094
N38880G1X5.684Y-9.765
N38890G1X5.914Y-9.457
N38900G1X6.172Y-9.172
N38910G1X6.457Y-8.914
N38920G1X6.765Y-8.684
N38930G1X7.094Y-8.483
N38940G1X7.444Y-8.315
N38950G1X7.810Y-8.181
N38960G1X8.193Y-8.083
N38970G1X8.590Y-8.022
N38980G1X9.000Y-8.001
N38990G1X9.410Y-8.022
N39000G1X9.807Y-8.083
N39010G1X10.190Y-8.181
N39020G1X10.556Y-8.315
N39030G1X10.906Y-8.483
N39040G1X11.235Y-8.684
N39050G1X11.543Y-8.914
N39060G1X11.828Y-9.172
N39070G1X12.086Y-9.457
N39080G1X12.316Y-9.765
N39090G1X12.517Y-10.094
N39100G1X12.685Y-10.444
N39110G1X12.819Y-10.810
N39120G1X12.917Y-11.193
N39130G1X12.978Y-11.590
N39140G1X12.999Y-12.003
N39150G1X12.983Y-12.360
N39160G1X12.936Y-12.710
N39170G1X12.860Y-13.049
N39180G1X12.756Y-13.377
N39190G1X12.625Y-13.691
N39200G1X12.469Y-13.992
N39210G1X12.288Y-14.277
N39220G1X12.084Y-14.546
N39230G1X11.859Y-14.796
N39240G1X11.614Y-15.027
N39250G1X11.350Y-15.236
N39260G1X11.069Y-15.423
N39270G1X10.772Y-15.586
N39280G1X10.461Y-15.724
N39290G1X10.137Y-15.835
N39300G1X9.758Y-15.930
N39310G3X9.000Y-16.900I0.242J-0.970
N39320G1X9.000Y-19.000
N39330G3X10.000Y-20.000I1.000J0.000
N39340G1X14.525
N39350G1X14.857Y-19.983
N39360G1X15.204Y-19.930
N39370G1X15.541Y-19.844
N39380G1X15.863Y-19.726
N39390G1X16.169Y-19.578
N39400G1X16.458Y-19.403
N39410G1X16.727Y-19.201
N39420G1X16.976Y-18.976
N39430G1X17.201Y-18.727
N39440G1X17.403Y-18.458
N39450G1X17.578Y-18.169
N39460G1X17.726Y-17.863
N39470G1X17.844Y-17.541
N39480G1X17.930Y-17.204
N39490G1X17.983Y-16.857
N39500G1X18.000Y-16.525
N39510G1Y-3.475
N39520G1X17.983Y-3.143
N39530G1X17.930Y-2.796
N39540G1X17.844Y-2.459
N39550G1X17.726Y-2.137
N39560G1X17.578Y-1.831
N39570G1X17.403Y-1.542
N39580G1X17.201Y-1.273
N39590G1X16.976Y-1.024
N39600G1X16.727Y-0.799
N39610G1X16.458Y-0.597
N39620G1X16.169Y-0.422
N39630G1X15.863Y-0.274
N39640G1X15.541Y-0.156
N39650G1X15.204Y-0.070
N39660G1X14.857Y-0.017
N39670G1X14.525Y0.000
N39680G1X3.475
N39690G1X3.143Y-0.017
N39700G1X2.796Y-0.070
N39710G1X2.459Y-0.156
N39720G1X2.137Y-0.274
N39730G1X1.831Y-0.422
N39740G1X1.542Y-0.597
N39750G1X1.273Y-0.799
N39760G1X1.024Y-1.024
N39770G00Z6.000
N39780S12000M03
(Profile 8)
()
N39810G00X18.070Y-2.796Z6.000
N39820G1Z-0.500F1200.0
N39830G1X18.017Y-3.143F3600.0
N39840G1X18.000Y-3.475
N39850G1Y-16.525
N39860G1X18.017Y-16.857
N39870G1X18.070Y-17.204
N39880G1X18.156Y-17.541
N39890G1X18.274Y-17.863
N39900G1X18.422Y-18.169
N39910G1X18.597Y-18.458
N39920G1X18.799Y-18.727
N39930G1X19.024Y-18.976
N39940G1X19.273Y-19.201
N39950G1X19.542Y-19.403
N39960G1X19.831Y-19.578
N39970G1X20.137Y-19.726
N39980G1X20.459Y-19.844
N39990G1X20.796Y-19.930
N40000G1X21.143Y-19.983
N40010G1X21.475Y-20.000
N40020G1X26.000
N40030G3X27.000Y-19.000I0.000J1.000
N40040G1X26.999Y-16.899
N40050G3X26.241Y-15.929I-1.000J0.000
N40060G1X25.862Y-15.835
N40070G1X25.538Y-15.724
N40080G1X25.227Y-15.586
N40090G1X24.930Y-15.423
N40100G1X24.649Y-15.236
N40110G1X24.386Y-15.026
N40120G1X24.140Y-14.796
N40130G1X23.915Y-14.545
N40140G1X23.712Y-14.277
N40150G1X23.531Y-13.992
N40160G1X23.375Y-13.691
N40170G1X23.244Y-13.376
N40180G1X23.140Y-13.049
N40190G1X23.064Y-12.710
N40200G1X23.017Y-12.360
N40210G1X23.001Y-12.003
N40220G1X23.022Y-11.590
N40230G1X23.083Y-11.193
N40240G1X23.181Y-10.810
N40250G1X23.315Y-10.444
N40260G1X23.483Y-10.094
N40270G1X23.684Y-9.765
N40280G1X23.914Y-9.457
N40290G1X24.172Y-9.172
N40300G1X24.457Y-8.914
N40310G1X24.765Y-8.684
N40320G1X25.094Y-8.483
N40330G1X25.444Y-8.315
N40340G1X25.810Y-8.181
N40350G1X26.193Y-8.083
N40360G1X26.590Y-8.022
N40370G1X27.000Y-8.001
N40380G1X27.410Y-8.022
N40390G1X27.807Y-8.083
N40400G1X28.190Y-8.181
N40410G1X28.556Y-8.315
N40420G1X28.906Y-8.483
N40430G1X29.235Y-8.684
N40440G1X29.543Y-8.914
N40450G1X29.828Y-9.172
N40460G1X30.086Y-9.457
N40470G1X30.316Y-9.765
N40480G1X30.517Y-10.094
N40490G1X30.685Y-10.444
N40500G1X30.819Y-10.810
N40510G1X30.917Y-11.193
N40520G1X30.978Y-11.590
N40530G1X30.999Y-12.003
N40540G1X30.983Y-12.360
N40550G1X30.936Y-12.710
N40560G1X30.860Y-13.049
N40570G1X30.756Y-13.377
N40580G1X30.625Y-13.691
N40590G1X30.469Y-13.992
N40600G1X30.288Y-14.277
N40610G1X30.084Y-14.546
N40620G1X29.859Y-14.796
N40630G1X29.614Y-15.027
N40640G1X29.350Y-15.236
N40650G1X29.069Y-15.423
N40660G1X28.772Y-15.586
N40670G1X28.461Y-15.724
N40680G1X28.137Y-15.835
N40690G1X27.758Y-15.930
N40700G3X27.000Y-16.900I0.242J-0.970
N40710G1X27.000Y-19.000
N40720G3X28.000Y-20.000I1.000J0.000
N40730G1X32.525
N40740G1X32.857Y-19.983
N40750G1X33.204Y-19.930
N40760G1X33.541Y-19.844
N40770G1X33.863Y-19.726
N40780G1X34.169Y-19.578
N40790G1X34.458Y-19.403
N40800G1X34.727Y-19.201
N40810G1X34.976Y-18.976
N40820G1X35.201Y-18.727
N40830G1X35.403Y-18.458
N40840G1X35.578Y-18.169
N40850G1X35.726Y-17.863
N40860G1X35.844Y-17.541
N40870G1X35.930Y-17.204
N40880G1X35.983Y-16.857
N40890G1X36.000Y-16.525
N40900G1Y-3.475
N40910G1X35.983Y-3.143
N40920G1X35.930Y-2.796
N40930G1X35.844Y-2.459
N40940G1X35.726Y-2.137
N40950G1X35.578Y-1.831
N40960G1X35.403Y-1.542
N40970G1X35.201Y-1.273
N40980G1X34.976Y-1.024
N40990G1X34.727Y-0.799
N41000G1X34.458Y-0.597
N41010G1X34.169Y-0.422
N41020G1X33.863Y-0.274
N41030G1X33.541Y-0.156
N41040G1X33.204Y-0.070
N41050G1X32.857Y-0.017
N41060G1X32.525Y0.000
N41070G1X21.475
N41080G1X21.143Y-0.017
N41090G1X20.796Y-0.070
N41100G1X20.459Y-0.156
N41110G1X20.137Y-0.274
N41120G1X19.831Y-0.422
N41130G1X19.542Y-0.597
N41140G1X19.273Y-0.799
N41150G1X19.024Y-1.024
N41160G1X18.799Y-1.273
N41170G1X18.597Y-1.542
N41180G1X18.422Y-1.831
N41190G1X18.274Y-2.137
N41200G1X18.156Y-2.459
N41210G1X18.070Y-2.796
N41220G1Z-1.000F1200.0
N41230G1X18.017Y-3.143F3600.0
N41240G1X18.000Y-3.475
N41250G1Y-16.525
N41260G1X18.017Y-16.857
N41270G1X18.070Y-17.204
N41280G1X18.156Y-17.541
N41290G1X18.274Y-17.863
N41300G1X18.422Y-18.169
N41310G1X18.597Y-18.458
N41320G1X18.799Y-18.727
N41330G1X19.024Y-18.976
N41340G1X19.273Y-19.201
N41350G1X19.542Y-19.403
N41360G1X19.831Y-19.578
N41370G1X20.137Y-19.726
N41380G1X20.459Y-19.844
N41390G1X20.796Y-19.930
N41400G1X21.143Y-19.983
N41410G1X21.475Y-20.000
N41420G1X26.000
N41430G3X27.000Y-19.000I0.000J1.000
N41440G1X26.999Y-16.899
N41450G3X26.241Y-15.929I-1.000J0.000
N41460G1X25.862Y-15.835
N41470G1X25.538Y-15.724
N41480G1X25.227Y-15.586
N41490G1X24.930Y-15.423
N41500G1X24.649Y-15.236
N41510G1X24.386Y-15.026
N41520G1X24.140Y-14.796
N41530G1X23.915Y-14.545
N41540G1X23.712Y-14.277
N41550G1X23.531Y-13.992
N41560G1X23.375Y-13.691
N41570G1X23.244Y-13.376
N41580G1X23.140Y-13.049
N41590G1X23.064Y-12.710
N41600G1X23.017Y-12.360
N41610G1X23.001Y-12.003
