( LIGHTS_PANEL_CUTOUT )
( File created: Monday December 23 2019 - 12:21 PM)
( USBCNC Postprocessor )
( Material Size)
( X= 250.000, Y= 250.000, Z= 2.000)
()
(Toolpaths used in this file:)
(Profile 1)
(Profile 2)
(Tools used in this file: )
(1 = End Mill {2 mm})
N110G00G21G17G90G40G49
N120G80
N130 (End Mill {2 mm})
N140G00G43Z20.000H1
N150S12000M03
N160(Toolpath:- Profile 1)
N170()
N180G94
N190X0.000Y0.000F3600.0
N200G00X-8.810Y23.681Z6.000
N210G1Z-0.500F1200.0
N220G1X-9.193Y23.583F3600.0
N230G1X-9.590Y23.522
N240G1X-10.000Y23.501
N250G1X-10.410Y23.522
N260G1X-10.807Y23.583
N270G1X-11.190Y23.681
N280G1X-11.556Y23.815
N290G1X-11.906Y23.983
N300G1X-12.235Y24.184
N310G1X-12.543Y24.414
N320G1X-12.828Y24.672
N330G1X-13.086Y24.957
N340G1X-13.316Y25.265
N350G1X-13.517Y25.594
N360G1X-13.685Y25.944
N370G1X-13.819Y26.310
N380G1X-13.917Y26.693
N390G1X-13.978Y27.090
N400G1X-13.999Y27.500
N410G1X-13.978Y27.910
N420G1X-13.917Y28.307
N430G1X-13.819Y28.690
N440G1X-13.685Y29.056
N450G1X-13.517Y29.406
N460G1X-13.316Y29.735
N470G1X-13.086Y30.043
N480G1X-12.828Y30.328
N490G1X-12.543Y30.586
N500G1X-12.235Y30.816
N510G1X-11.906Y31.017
N520G1X-11.556Y31.185
N530G1X-11.190Y31.319
N540G1X-10.807Y31.417
N550G1X-10.410Y31.478
N560G1X-10.000Y31.499
N570G1X-9.590Y31.478
N580G1X-9.193Y31.417
N590G1X-8.810Y31.319
N600G1X-8.444Y31.185
N610G1X-8.094Y31.017
N620G1X-7.765Y30.816
N630G1X-7.457Y30.586
N640G1X-7.172Y30.328
N650G1X-6.914Y30.043
N660G1X-6.684Y29.735
N670G1X-6.483Y29.406
N680G1X-6.315Y29.056
N690G1X-6.181Y28.690
N700G1X-6.083Y28.307
N710G1X-6.022Y27.910
N720G1X-6.001Y27.500
N730G1X-6.022Y27.090
N740G1X-6.083Y26.693
N750G1X-6.181Y26.310
N760G1X-6.315Y25.944
N770G1X-6.483Y25.594
N780G1X-6.684Y25.265
N790G1X-6.914Y24.957
N800G1X-7.172Y24.672
N810G1X-7.457Y24.414
N820G1X-7.765Y24.184
N830G1X-8.094Y23.983
N840G1X-8.444Y23.815
N850G1X-8.810Y23.681
N860G1Z-1.000F1200.0
N870G1X-9.193Y23.583F3600.0
N880G1X-9.590Y23.522
N890G1X-10.000Y23.501
N900G1X-10.410Y23.522
N910G1X-10.807Y23.583
N920G1X-11.190Y23.681
N930G1X-11.556Y23.815
N940G1X-11.906Y23.983
N950G1X-12.235Y24.184
N960G1X-12.543Y24.414
N970G1X-12.828Y24.672
N980G1X-13.086Y24.957
N990G1X-13.316Y25.265
N1000G1X-13.517Y25.594
N1010G1X-13.685Y25.944
N1020G1X-13.819Y26.310
N1030G1X-13.917Y26.693
N1040G1X-13.978Y27.090
N1050G1X-13.999Y27.500
N1060G1X-13.978Y27.910
N1070G1X-13.917Y28.307
N1080G1X-13.819Y28.690
N1090G1X-13.685Y29.056
N1100G1X-13.517Y29.406
N1110G1X-13.316Y29.735
N1120G1X-13.086Y30.043
N1130G1X-12.828Y30.328
N1140G1X-12.543Y30.586
N1150G1X-12.235Y30.816
N1160G1X-11.906Y31.017
N1170G1X-11.556Y31.185
N1180G1X-11.190Y31.319
N1190G1X-10.807Y31.417
N1200G1X-10.410Y31.478
N1210G1X-10.000Y31.499
N1220G1X-9.590Y31.478
N1230G1X-9.193Y31.417
N1240G1X-8.810Y31.319
N1250G1X-8.444Y31.185
N1260G1X-8.094Y31.017
N1270G1X-7.765Y30.816
N1280G1X-7.457Y30.586
N1290G1X-7.172Y30.328
N1300G1X-6.914Y30.043
N1310G1X-6.684Y29.735
N1320G1X-6.483Y29.406
N1330G1X-6.315Y29.056
N1340G1X-6.181Y28.690
N1350G1X-6.083Y28.307
N1360G1X-6.022Y27.910
N1370G1X-6.001Y27.500
N1380G1X-6.022Y27.090
N1390G1X-6.083Y26.693
N1400G1X-6.181Y26.310
N1410G1X-6.315Y25.944
N1420G1X-6.483Y25.594
N1430G1X-6.684Y25.265
N1440G1X-6.914Y24.957
N1450G1X-7.172Y24.672
N1460G1X-7.457Y24.414
N1470G1X-7.765Y24.184
N1480G1X-8.094Y23.983
N1490G1X-8.444Y23.815
N1500G1X-8.810Y23.681
N1510G1Z-1.500F1200.0
N1520G1X-9.193Y23.583F3600.0
N1530G1X-9.590Y23.522
N1540G1X-10.000Y23.501
N1550G1X-10.410Y23.522
N1560G1X-10.807Y23.583
N1570G1X-11.190Y23.681
N1580G1X-11.556Y23.815
N1590G1X-11.906Y23.983
N1600G1X-12.235Y24.184
N1610G1X-12.543Y24.414
N1620G1X-12.828Y24.672
N1630G1X-13.086Y24.957
N1640G1X-13.316Y25.265
N1650G1X-13.517Y25.594
N1660G1X-13.685Y25.944
N1670G1X-13.819Y26.310
N1680G1X-13.917Y26.693
N1690G1X-13.978Y27.090
N1700G1X-13.999Y27.500
N1710G1X-13.978Y27.910
N1720G1X-13.917Y28.307
N1730G1X-13.819Y28.690
N1740G1X-13.685Y29.056
N1750G1X-13.517Y29.406
N1760G1X-13.316Y29.735
N1770G1X-13.086Y30.043
N1780G1X-12.828Y30.328
N1790G1X-12.543Y30.586
N1800G1X-12.235Y30.816
N1810G1X-11.906Y31.017
N1820G1X-11.556Y31.185
N1830G1X-11.190Y31.319
N1840G1X-10.807Y31.417
N1850G1X-10.410Y31.478
N1860G1X-10.000Y31.499
N1870G1X-9.590Y31.478
N1880G1X-9.193Y31.417
N1890G1X-8.810Y31.319
N1900G1X-8.444Y31.185
N1910G1X-8.094Y31.017
N1920G1X-7.765Y30.816
N1930G1X-7.457Y30.586
N1940G1X-7.172Y30.328
N1950G1X-6.914Y30.043
N1960G1X-6.684Y29.735
N1970G1X-6.483Y29.406
N1980G1X-6.315Y29.056
N1990G1X-6.181Y28.690
N2000G1X-6.083Y28.307
N2010G1X-6.022Y27.910
N2020G1X-6.001Y27.500
N2030G1X-6.022Y27.090
N2040G1X-6.083Y26.693
N2050G1X-6.181Y26.310
N2060G1X-6.315Y25.944
N2070G1X-6.483Y25.594
N2080G1X-6.684Y25.265
N2090G1X-6.914Y24.957
N2100G1X-7.172Y24.672
N2110G1X-7.457Y24.414
N2120G1X-7.765Y24.184
N2130G1X-8.094Y23.983
N2140G1X-8.444Y23.815
N2150G1X-8.810Y23.681
N2160G1Z-2.000F1200.0
N2170G1X-9.193Y23.583F3600.0
N2180G1X-9.590Y23.522
N2190G1X-10.000Y23.501
N2200G1X-10.410Y23.522
N2210G1X-10.807Y23.583
N2220G1X-11.190Y23.681
N2230G1X-11.556Y23.815
N2240G1X-11.906Y23.983
N2250G1X-12.235Y24.184
N2260G1X-12.543Y24.414
N2270G1X-12.828Y24.672
N2280G1X-13.086Y24.957
N2290G1X-13.316Y25.265
N2300G1X-13.517Y25.594
N2310G1X-13.685Y25.944
N2320G1X-13.819Y26.310
N2330G1X-13.917Y26.693
N2340G1X-13.978Y27.090
N2350G1X-13.999Y27.500
N2360G1X-13.978Y27.910
N2370G1X-13.917Y28.307
N2380G1X-13.819Y28.690
N2390G1X-13.685Y29.056
N2400G1X-13.517Y29.406
N2410G1X-13.316Y29.735
N2420G1X-13.086Y30.043
N2430G1X-12.828Y30.328
N2440G1X-12.543Y30.586
N2450G1X-12.235Y30.816
N2460G1X-11.906Y31.017
N2470G1X-11.556Y31.185
N2480G1X-11.190Y31.319
N2490G1X-10.807Y31.417
N2500G1X-10.410Y31.478
N2510G1X-10.000Y31.499
N2520G1X-9.590Y31.478
N2530G1X-9.193Y31.417
N2540G1X-8.810Y31.319
N2550G1X-8.444Y31.185
N2560G1X-8.094Y31.017
N2570G1X-7.765Y30.816
N2580G1X-7.457Y30.586
N2590G1X-7.172Y30.328
N2600G1X-6.914Y30.043
N2610G1X-6.684Y29.735
N2620G1X-6.483Y29.406
N2630G1X-6.315Y29.056
N2640G1X-6.181Y28.690
N2650G1X-6.083Y28.307
N2660G1X-6.022Y27.910
N2670G1X-6.001Y27.500
N2680G1X-6.022Y27.090
N2690G1X-6.083Y26.693
N2700G1X-6.181Y26.310
N2710G1X-6.315Y25.944
N2720G1X-6.483Y25.594
N2730G1X-6.684Y25.265
N2740G1X-6.914Y24.957
N2750G1X-7.172Y24.672
N2760G1X-7.457Y24.414
N2770G1X-7.765Y24.184
N2780G1X-8.094Y23.983
N2790G1X-8.444Y23.815
N2800G1X-8.810Y23.681
N2810G00Z6.000
N2820G00X6.083Y26.693
N2830G1Z-0.500F1200.0
N2840G1X6.022Y27.090F3600.0
N2850G1X6.001Y27.500
N2860G1X6.022Y27.910
N2870G1X6.083Y28.307
N2880G1X6.181Y28.690
N2890G1X6.315Y29.056
N2900G1X6.483Y29.406
N2910G1X6.684Y29.735
N2920G1X6.914Y30.043
N2930G1X7.172Y30.328
N2940G1X7.457Y30.586
N2950G1X7.765Y30.816
N2960G1X8.094Y31.017
N2970G1X8.444Y31.185
N2980G1X8.810Y31.319
N2990G1X9.193Y31.417
N3000G1X9.590Y31.478
N3010G1X10.000Y31.499
N3020G1X10.410Y31.478
N3030G1X10.807Y31.417
N3040G1X11.190Y31.319
N3050G1X11.556Y31.185
N3060G1X11.906Y31.017
N3070G1X12.235Y30.816
N3080G1X12.543Y30.586
N3090G1X12.828Y30.328
N3100G1X13.086Y30.043
N3110G1X13.316Y29.735
N3120G1X13.517Y29.406
N3130G1X13.685Y29.056
N3140G1X13.819Y28.690
N3150G1X13.917Y28.307
N3160G1X13.978Y27.910
N3170G1X13.999Y27.500
N3180G1X13.978Y27.090
N3190G1X13.917Y26.693
N3200G1X13.819Y26.310
N3210G1X13.685Y25.944
N3220G1X13.517Y25.594
N3230G1X13.316Y25.265
N3240G1X13.086Y24.957
N3250G1X12.828Y24.672
N3260G1X12.543Y24.414
N3270G1X12.235Y24.184
N3280G1X11.906Y23.983
N3290G1X11.556Y23.815
N3300G1X11.190Y23.681
N3310G1X10.807Y23.583
N3320G1X10.410Y23.522
N3330G1X10.000Y23.501
N3340G1X9.590Y23.522
N3350G1X9.193Y23.583
N3360G1X8.810Y23.681
N3370G1X8.444Y23.815
N3380G1X8.094Y23.983
N3390G1X7.765Y24.184
N3400G1X7.457Y24.414
N3410G1X7.172Y24.672
N3420G1X6.914Y24.957
N3430G1X6.684Y25.265
N3440G1X6.483Y25.594
N3450G1X6.315Y25.944
N3460G1X6.181Y26.310
N3470G1X6.083Y26.693
N3480G1Z-1.000F1200.0
N3490G1X6.022Y27.090F3600.0
N3500G1X6.001Y27.500
N3510G1X6.022Y27.910
N3520G1X6.083Y28.307
N3530G1X6.181Y28.690
N3540G1X6.315Y29.056
N3550G1X6.483Y29.406
N3560G1X6.684Y29.735
N3570G1X6.914Y30.043
N3580G1X7.172Y30.328
N3590G1X7.457Y30.586
N3600G1X7.765Y30.816
N3610G1X8.094Y31.017
N3620G1X8.444Y31.185
N3630G1X8.810Y31.319
N3640G1X9.193Y31.417
N3650G1X9.590Y31.478
N3660G1X10.000Y31.499
N3670G1X10.410Y31.478
N3680G1X10.807Y31.417
N3690G1X11.190Y31.319
N3700G1X11.556Y31.185
N3710G1X11.906Y31.017
N3720G1X12.235Y30.816
N3730G1X12.543Y30.586
N3740G1X12.828Y30.328
N3750G1X13.086Y30.043
N3760G1X13.316Y29.735
N3770G1X13.517Y29.406
N3780G1X13.685Y29.056
N3790G1X13.819Y28.690
N3800G1X13.917Y28.307
N3810G1X13.978Y27.910
N3820G1X13.999Y27.500
N3830G1X13.978Y27.090
N3840G1X13.917Y26.693
N3850G1X13.819Y26.310
N3860G1X13.685Y25.944
N3870G1X13.517Y25.594
N3880G1X13.316Y25.265
N3890G1X13.086Y24.957
N3900G1X12.828Y24.672
N3910G1X12.543Y24.414
N3920G1X12.235Y24.184
N3930G1X11.906Y23.983
N3940G1X11.556Y23.815
N3950G1X11.190Y23.681
N3960G1X10.807Y23.583
N3970G1X10.410Y23.522
N3980G1X10.000Y23.501
N3990G1X9.590Y23.522
N4000G1X9.193Y23.583
N4010G1X8.810Y23.681
N4020G1X8.444Y23.815
N4030G1X8.094Y23.983
N4040G1X7.765Y24.184
N4050G1X7.457Y24.414
N4060G1X7.172Y24.672
N4070G1X6.914Y24.957
N4080G1X6.684Y25.265
N4090G1X6.483Y25.594
N4100G1X6.315Y25.944
N4110G1X6.181Y26.310
N4120G1X6.083Y26.693
N4130G1Z-1.500F1200.0
N4140G1X6.022Y27.090F3600.0
N4150G1X6.001Y27.500
N4160G1X6.022Y27.910
N4170G1X6.083Y28.307
N4180G1X6.181Y28.690
N4190G1X6.315Y29.056
N4200G1X6.483Y29.406
N4210G1X6.684Y29.735
N4220G1X6.914Y30.043
N4230G1X7.172Y30.328
N4240G1X7.457Y30.586
N4250G1X7.765Y30.816
N4260G1X8.094Y31.017
N4270G1X8.444Y31.185
N4280G1X8.810Y31.319
N4290G1X9.193Y31.417
N4300G1X9.590Y31.478
N4310G1X10.000Y31.499
N4320G1X10.410Y31.478
N4330G1X10.807Y31.417
N4340G1X11.190Y31.319
N4350G1X11.556Y31.185
N4360G1X11.906Y31.017
N4370G1X12.235Y30.816
N4380G1X12.543Y30.586
N4390G1X12.828Y30.328
N4400G1X13.086Y30.043
N4410G1X13.316Y29.735
N4420G1X13.517Y29.406
N4430G1X13.685Y29.056
N4440G1X13.819Y28.690
N4450G1X13.917Y28.307
N4460G1X13.978Y27.910
N4470G1X13.999Y27.500
N4480G1X13.978Y27.090
N4490G1X13.917Y26.693
N4500G1X13.819Y26.310
N4510G1X13.685Y25.944
N4520G1X13.517Y25.594
N4530G1X13.316Y25.265
N4540G1X13.086Y24.957
N4550G1X12.828Y24.672
N4560G1X12.543Y24.414
N4570G1X12.235Y24.184
N4580G1X11.906Y23.983
N4590G1X11.556Y23.815
N4600G1X11.190Y23.681
N4610G1X10.807Y23.583
N4620G1X10.410Y23.522
N4630G1X10.000Y23.501
N4640G1X9.590Y23.522
N4650G1X9.193Y23.583
N4660G1X8.810Y23.681
N4670G1X8.444Y23.815
N4680G1X8.094Y23.983
N4690G1X7.765Y24.184
N4700G1X7.457Y24.414
N4710G1X7.172Y24.672
N4720G1X6.914Y24.957
N4730G1X6.684Y25.265
N4740G1X6.483Y25.594
N4750G1X6.315Y25.944
N4760G1X6.181Y26.310
N4770G1X6.083Y26.693
N4780G1Z-2.000F1200.0
N4790G1X6.022Y27.090F3600.0
N4800G1X6.001Y27.500
N4810G1X6.022Y27.910
N4820G1X6.083Y28.307
N4830G1X6.181Y28.690
N4840G1X6.315Y29.056
N4850G1X6.483Y29.406
N4860G1X6.684Y29.735
N4870G1X6.914Y30.043
N4880G1X7.172Y30.328
N4890G1X7.457Y30.586
N4900G1X7.765Y30.816
N4910G1X8.094Y31.017
N4920G1X8.444Y31.185
N4930G1X8.810Y31.319
N4940G1X9.193Y31.417
N4950G1X9.590Y31.478
N4960G1X10.000Y31.499
N4970G1X10.410Y31.478
N4980G1X10.807Y31.417
N4990G1X11.190Y31.319
N5000G1X11.556Y31.185
N5010G1X11.906Y31.017
N5020G1X12.235Y30.816
N5030G1X12.543Y30.586
N5040G1X12.828Y30.328
N5050G1X13.086Y30.043
N5060G1X13.316Y29.735
N5070G1X13.517Y29.406
N5080G1X13.685Y29.056
N5090G1X13.819Y28.690
N5100G1X13.917Y28.307
N5110G1X13.978Y27.910
N5120G1X13.999Y27.500
N5130G1X13.978Y27.090
N5140G1X13.917Y26.693
N5150G1X13.819Y26.310
N5160G1X13.685Y25.944
N5170G1X13.517Y25.594
N5180G1X13.316Y25.265
N5190G1X13.086Y24.957
N5200G1X12.828Y24.672
N5210G1X12.543Y24.414
N5220G1X12.235Y24.184
N5230G1X11.906Y23.983
N5240G1X11.556Y23.815
N5250G1X11.190Y23.681
N5260G1X10.807Y23.583
N5270G1X10.410Y23.522
N5280G1X10.000Y23.501
N5290G1X9.590Y23.522
N5300G1X9.193Y23.583
N5310G1X8.810Y23.681
N5320G1X8.444Y23.815
N5330G1X8.094Y23.983
N5340G1X7.765Y24.184
N5350G1X7.457Y24.414
N5360G1X7.172Y24.672
N5370G1X6.914Y24.957
N5380G1X6.684Y25.265
N5390G1X6.483Y25.594
N5400G1X6.315Y25.944
N5410G1X6.181Y26.310
N5420G1X6.083Y26.693
N5430G00Z6.000
N5440G00X-7.457Y10.586
N5450G1Z-0.500F1200.0
N5460G1X-7.172Y10.328F3600.0
N5470G1X-6.914Y10.043
N5480G1X-6.684Y9.735
N5490G1X-6.483Y9.406
N5500G1X-6.315Y9.056
N5510G1X-6.181Y8.690
N5520G1X-6.083Y8.307
N5530G1X-6.022Y7.910
N5540G1X-6.001Y7.500
N5550G1X-6.022Y7.090
N5560G1X-6.083Y6.693
N5570G1X-6.181Y6.310
N5580G1X-6.315Y5.944
N5590G1X-6.483Y5.594
N5600G1X-6.684Y5.265
N5610G1X-6.914Y4.957
N5620G1X-7.172Y4.672
N5630G1X-7.457Y4.414
N5640G1X-7.765Y4.184
N5650G1X-8.094Y3.983
N5660G1X-8.444Y3.815
N5670G1X-8.810Y3.681
N5680G1X-9.193Y3.583
N5690G1X-9.590Y3.522
N5700G1X-10.000Y3.501
N5710G1X-10.410Y3.522
N5720G1X-10.807Y3.583
N5730G1X-11.190Y3.681
N5740G1X-11.556Y3.815
N5750G1X-11.906Y3.983
N5760G1X-12.235Y4.184
N5770G1X-12.543Y4.414
N5780G1X-12.828Y4.672
N5790G1X-13.086Y4.957
N5800G1X-13.316Y5.265
N5810G1X-13.517Y5.594
N5820G1X-13.685Y5.944
N5830G1X-13.819Y6.310
N5840G1X-13.917Y6.693
N5850G1X-13.978Y7.090
N5860G1X-13.999Y7.500
N5870G1X-13.978Y7.910
N5880G1X-13.917Y8.307
N5890G1X-13.819Y8.690
N5900G1X-13.685Y9.056
N5910G1X-13.517Y9.406
N5920G1X-13.316Y9.735
N5930G1X-13.086Y10.043
N5940G1X-12.828Y10.328
N5950G1X-12.543Y10.586
N5960G1X-12.235Y10.816
N5970G1X-11.906Y11.017
N5980G1X-11.556Y11.185
N5990G1X-11.190Y11.319
N6000G1X-10.807Y11.417
N6010G1X-10.410Y11.478
N6020G1X-10.000Y11.499
N6030G1X-9.590Y11.478
N6040G1X-9.193Y11.417
N6050G1X-8.810Y11.319
N6060G1X-8.444Y11.185
N6070G1X-8.094Y11.017
N6080G1X-7.765Y10.816
N6090G1X-7.457Y10.586
N6100G1Z-1.000F1200.0
N6110G1X-7.172Y10.328F3600.0
N6120G1X-6.914Y10.043
N6130G1X-6.684Y9.735
N6140G1X-6.483Y9.406
N6150G1X-6.315Y9.056
N6160G1X-6.181Y8.690
N6170G1X-6.083Y8.307
N6180G1X-6.022Y7.910
N6190G1X-6.001Y7.500
N6200G1X-6.022Y7.090
N6210G1X-6.083Y6.693
N6220G1X-6.181Y6.310
N6230G1X-6.315Y5.944
N6240G1X-6.483Y5.594
N6250G1X-6.684Y5.265
N6260G1X-6.914Y4.957
N6270G1X-7.172Y4.672
N6280G1X-7.457Y4.414
N6290G1X-7.765Y4.184
N6300G1X-8.094Y3.983
N6310G1X-8.444Y3.815
N6320G1X-8.810Y3.681
N6330G1X-9.193Y3.583
N6340G1X-9.590Y3.522
N6350G1X-10.000Y3.501
N6360G1X-10.410Y3.522
N6370G1X-10.807Y3.583
N6380G1X-11.190Y3.681
N6390G1X-11.556Y3.815
N6400G1X-11.906Y3.983
N6410G1X-12.235Y4.184
N6420G1X-12.543Y4.414
N6430G1X-12.828Y4.672
N6440G1X-13.086Y4.957
N6450G1X-13.316Y5.265
N6460G1X-13.517Y5.594
N6470G1X-13.685Y5.944
N6480G1X-13.819Y6.310
N6490G1X-13.917Y6.693
N6500G1X-13.978Y7.090
N6510G1X-13.999Y7.500
N6520G1X-13.978Y7.910
N6530G1X-13.917Y8.307
N6540G1X-13.819Y8.690
N6550G1X-13.685Y9.056
N6560G1X-13.517Y9.406
N6570G1X-13.316Y9.735
N6580G1X-13.086Y10.043
N6590G1X-12.828Y10.328
N6600G1X-12.543Y10.586
N6610G1X-12.235Y10.816
N6620G1X-11.906Y11.017
N6630G1X-11.556Y11.185
N6640G1X-11.190Y11.319
N6650G1X-10.807Y11.417
N6660G1X-10.410Y11.478
N6670G1X-10.000Y11.499
N6680G1X-9.590Y11.478
N6690G1X-9.193Y11.417
N6700G1X-8.810Y11.319
N6710G1X-8.444Y11.185
N6720G1X-8.094Y11.017
N6730G1X-7.765Y10.816
N6740G1X-7.457Y10.586
N6750G1Z-1.500F1200.0
N6760G1X-7.172Y10.328F3600.0
N6770G1X-6.914Y10.043
N6780G1X-6.684Y9.735
N6790G1X-6.483Y9.406
N6800G1X-6.315Y9.056
N6810G1X-6.181Y8.690
N6820G1X-6.083Y8.307
N6830G1X-6.022Y7.910
N6840G1X-6.001Y7.500
N6850G1X-6.022Y7.090
N6860G1X-6.083Y6.693
N6870G1X-6.181Y6.310
N6880G1X-6.315Y5.944
N6890G1X-6.483Y5.594
N6900G1X-6.684Y5.265
N6910G1X-6.914Y4.957
N6920G1X-7.172Y4.672
N6930G1X-7.457Y4.414
N6940G1X-7.765Y4.184
N6950G1X-8.094Y3.983
N6960G1X-8.444Y3.815
N6970G1X-8.810Y3.681
N6980G1X-9.193Y3.583
N6990G1X-9.590Y3.522
N7000G1X-10.000Y3.501
N7010G1X-10.410Y3.522
N7020G1X-10.807Y3.583
N7030G1X-11.190Y3.681
N7040G1X-11.556Y3.815
N7050G1X-11.906Y3.983
N7060G1X-12.235Y4.184
N7070G1X-12.543Y4.414
N7080G1X-12.828Y4.672
N7090G1X-13.086Y4.957
N7100G1X-13.316Y5.265
N7110G1X-13.517Y5.594
N7120G1X-13.685Y5.944
N7130G1X-13.819Y6.310
N7140G1X-13.917Y6.693
N7150G1X-13.978Y7.090
N7160G1X-13.999Y7.500
N7170G1X-13.978Y7.910
N7180G1X-13.917Y8.307
N7190G1X-13.819Y8.690
N7200G1X-13.685Y9.056
N7210G1X-13.517Y9.406
N7220G1X-13.316Y9.735
N7230G1X-13.086Y10.043
N7240G1X-12.828Y10.328
N7250G1X-12.543Y10.586
N7260G1X-12.235Y10.816
N7270G1X-11.906Y11.017
N7280G1X-11.556Y11.185
N7290G1X-11.190Y11.319
N7300G1X-10.807Y11.417
N7310G1X-10.410Y11.478
N7320G1X-10.000Y11.499
N7330G1X-9.590Y11.478
N7340G1X-9.193Y11.417
N7350G1X-8.810Y11.319
N7360G1X-8.444Y11.185
N7370G1X-8.094Y11.017
N7380G1X-7.765Y10.816
N7390G1X-7.457Y10.586
N7400G1Z-2.000F1200.0
N7410G1X-7.172Y10.328F3600.0
N7420G1X-6.914Y10.043
N7430G1X-6.684Y9.735
N7440G1X-6.483Y9.406
N7450G1X-6.315Y9.056
N7460G1X-6.181Y8.690
N7470G1X-6.083Y8.307
N7480G1X-6.022Y7.910
N7490G1X-6.001Y7.500
N7500G1X-6.022Y7.090
N7510G1X-6.083Y6.693
N7520G1X-6.181Y6.310
N7530G1X-6.315Y5.944
N7540G1X-6.483Y5.594
N7550G1X-6.684Y5.265
N7560G1X-6.914Y4.957
N7570G1X-7.172Y4.672
N7580G1X-7.457Y4.414
N7590G1X-7.765Y4.184
N7600G1X-8.094Y3.983
N7610G1X-8.444Y3.815
N7620G1X-8.810Y3.681
N7630G1X-9.193Y3.583
N7640G1X-9.590Y3.522
N7650G1X-10.000Y3.501
N7660G1X-10.410Y3.522
N7670G1X-10.807Y3.583
N7680G1X-11.190Y3.681
N7690G1X-11.556Y3.815
N7700G1X-11.906Y3.983
N7710G1X-12.235Y4.184
N7720G1X-12.543Y4.414
N7730G1X-12.828Y4.672
N7740G1X-13.086Y4.957
N7750G1X-13.316Y5.265
N7760G1X-13.517Y5.594
N7770G1X-13.685Y5.944
N7780G1X-13.819Y6.310
N7790G1X-13.917Y6.693
N7800G1X-13.978Y7.090
N7810G1X-13.999Y7.500
N7820G1X-13.978Y7.910
N7830G1X-13.917Y8.307
N7840G1X-13.819Y8.690
N7850G1X-13.685Y9.056
N7860G1X-13.517Y9.406
N7870G1X-13.316Y9.735
N7880G1X-13.086Y10.043
N7890G1X-12.828Y10.328
N7900G1X-12.543Y10.586
N7910G1X-12.235Y10.816
N7920G1X-11.906Y11.017
N7930G1X-11.556Y11.185
N7940G1X-11.190Y11.319
N7950G1X-10.807Y11.417
N7960G1X-10.410Y11.478
N7970G1X-10.000Y11.499
N7980G1X-9.590Y11.478
N7990G1X-9.193Y11.417
N8000G1X-8.810Y11.319
N8010G1X-8.444Y11.185
N8020G1X-8.094Y11.017
N8030G1X-7.765Y10.816
N8040G1X-7.457Y10.586
N8050G00Z6.000
N8060G00X6.083Y8.307
N8070G1Z-0.500F1200.0
N8080G1X6.181Y8.690F3600.0
N8090G1X6.315Y9.056
N8100G1X6.483Y9.406
N8110G1X6.684Y9.735
N8120G1X6.914Y10.043
N8130G1X7.172Y10.328
N8140G1X7.457Y10.586
N8150G1X7.765Y10.816
N8160G1X8.094Y11.017
N8170G1X8.444Y11.185
N8180G1X8.810Y11.319
N8190G1X9.193Y11.417
N8200G1X9.590Y11.478
N8210G1X10.000Y11.499
N8220G1X10.410Y11.478
N8230G1X10.807Y11.417
N8240G1X11.190Y11.319
N8250G1X11.556Y11.185
N8260G1X11.906Y11.017
N8270G1X12.235Y10.816
N8280G1X12.543Y10.586
N8290G1X12.828Y10.328
N8300G1X13.086Y10.043
N8310G1X13.316Y9.735
N8320G1X13.517Y9.406
N8330G1X13.685Y9.056
N8340G1X13.819Y8.690
N8350G1X13.917Y8.307
N8360G1X13.978Y7.910
N8370G1X13.999Y7.500
N8380G1X13.978Y7.090
N8390G1X13.917Y6.693
N8400G1X13.819Y6.310
N8410G1X13.685Y5.944
N8420G1X13.517Y5.594
N8430G1X13.316Y5.265
N8440G1X13.086Y4.957
N8450G1X12.828Y4.672
N8460G1X12.543Y4.414
N8470G1X12.235Y4.184
N8480G1X11.906Y3.983
N8490G1X11.556Y3.815
N8500G1X11.190Y3.681
N8510G1X10.807Y3.583
N8520G1X10.410Y3.522
N8530G1X10.000Y3.501
N8540G1X9.590Y3.522
N8550G1X9.193Y3.583
N8560G1X8.810Y3.681
N8570G1X8.444Y3.815
N8580G1X8.094Y3.983
N8590G1X7.765Y4.184
N8600G1X7.457Y4.414
N8610G1X7.172Y4.672
N8620G1X6.914Y4.957
N8630G1X6.684Y5.265
N8640G1X6.483Y5.594
N8650G1X6.315Y5.944
N8660G1X6.181Y6.310
N8670G1X6.083Y6.693
N8680G1X6.022Y7.090
N8690G1X6.001Y7.500
N8700G1X6.022Y7.910
N8710G1X6.083Y8.307
N8720G1Z-1.000F1200.0
N8730G1X6.181Y8.690F3600.0
N8740G1X6.315Y9.056
N8750G1X6.483Y9.406
N8760G1X6.684Y9.735
N8770G1X6.914Y10.043
N8780G1X7.172Y10.328
N8790G1X7.457Y10.586
N8800G1X7.765Y10.816
N8810G1X8.094Y11.017
N8820G1X8.444Y11.185
N8830G1X8.810Y11.319
N8840G1X9.193Y11.417
N8850G1X9.590Y11.478
N8860G1X10.000Y11.499
N8870G1X10.410Y11.478
N8880G1X10.807Y11.417
N8890G1X11.190Y11.319
N8900G1X11.556Y11.185
N8910G1X11.906Y11.017
N8920G1X12.235Y10.816
N8930G1X12.543Y10.586
N8940G1X12.828Y10.328
N8950G1X13.086Y10.043
N8960G1X13.316Y9.735
N8970G1X13.517Y9.406
N8980G1X13.685Y9.056
N8990G1X13.819Y8.690
N9000G1X13.917Y8.307
N9010G1X13.978Y7.910
N9020G1X13.999Y7.500
N9030G1X13.978Y7.090
N9040G1X13.917Y6.693
N9050G1X13.819Y6.310
N9060G1X13.685Y5.944
N9070G1X13.517Y5.594
N9080G1X13.316Y5.265
N9090G1X13.086Y4.957
N9100G1X12.828Y4.672
N9110G1X12.543Y4.414
N9120G1X12.235Y4.184
N9130G1X11.906Y3.983
N9140G1X11.556Y3.815
N9150G1X11.190Y3.681
N9160G1X10.807Y3.583
N9170G1X10.410Y3.522
N9180G1X10.000Y3.501
N9190G1X9.590Y3.522
N9200G1X9.193Y3.583
N9210G1X8.810Y3.681
N9220G1X8.444Y3.815
N9230G1X8.094Y3.983
N9240G1X7.765Y4.184
N9250G1X7.457Y4.414
N9260G1X7.172Y4.672
N9270G1X6.914Y4.957
N9280G1X6.684Y5.265
N9290G1X6.483Y5.594
N9300G1X6.315Y5.944
N9310G1X6.181Y6.310
N9320G1X6.083Y6.693
N9330G1X6.022Y7.090
N9340G1X6.001Y7.500
N9350G1X6.022Y7.910
N9360G1X6.083Y8.307
N9370G1Z-1.500F1200.0
N9380G1X6.181Y8.690F3600.0
N9390G1X6.315Y9.056
N9400G1X6.483Y9.406
N9410G1X6.684Y9.735
N9420G1X6.914Y10.043
N9430G1X7.172Y10.328
N9440G1X7.457Y10.586
N9450G1X7.765Y10.816
N9460G1X8.094Y11.017
N9470G1X8.444Y11.185
N9480G1X8.810Y11.319
N9490G1X9.193Y11.417
N9500G1X9.590Y11.478
N9510G1X10.000Y11.499
N9520G1X10.410Y11.478
N9530G1X10.807Y11.417
N9540G1X11.190Y11.319
N9550G1X11.556Y11.185
N9560G1X11.906Y11.017
N9570G1X12.235Y10.816
N9580G1X12.543Y10.586
N9590G1X12.828Y10.328
N9600G1X13.086Y10.043
N9610G1X13.316Y9.735
N9620G1X13.517Y9.406
N9630G1X13.685Y9.056
N9640G1X13.819Y8.690
N9650G1X13.917Y8.307
N9660G1X13.978Y7.910
N9670G1X13.999Y7.500
N9680G1X13.978Y7.090
N9690G1X13.917Y6.693
N9700G1X13.819Y6.310
N9710G1X13.685Y5.944
N9720G1X13.517Y5.594
N9730G1X13.316Y5.265
N9740G1X13.086Y4.957
N9750G1X12.828Y4.672
N9760G1X12.543Y4.414
N9770G1X12.235Y4.184
N9780G1X11.906Y3.983
N9790G1X11.556Y3.815
N9800G1X11.190Y3.681
N9810G1X10.807Y3.583
N9820G1X10.410Y3.522
N9830G1X10.000Y3.501
N9840G1X9.590Y3.522
N9850G1X9.193Y3.583
N9860G1X8.810Y3.681
N9870G1X8.444Y3.815
N9880G1X8.094Y3.983
N9890G1X7.765Y4.184
N9900G1X7.457Y4.414
N9910G1X7.172Y4.672
N9920G1X6.914Y4.957
N9930G1X6.684Y5.265
N9940G1X6.483Y5.594
N9950G1X6.315Y5.944
N9960G1X6.181Y6.310
N9970G1X6.083Y6.693
N9980G1X6.022Y7.090
N9990G1X6.001Y7.500
N10000G1X6.022Y7.910
N10010G1X6.083Y8.307
N10020G1Z-2.000F1200.0
N10030G1X6.181Y8.690F3600.0
N10040G1X6.315Y9.056
N10050G1X6.483Y9.406
N10060G1X6.684Y9.735
N10070G1X6.914Y10.043
N10080G1X7.172Y10.328
N10090G1X7.457Y10.586
N10100G1X7.765Y10.816
N10110G1X8.094Y11.017
N10120G1X8.444Y11.185
N10130G1X8.810Y11.319
N10140G1X9.193Y11.417
N10150G1X9.590Y11.478
N10160G1X10.000Y11.499
N10170G1X10.410Y11.478
N10180G1X10.807Y11.417
N10190G1X11.190Y11.319
N10200G1X11.556Y11.185
N10210G1X11.906Y11.017
N10220G1X12.235Y10.816
N10230G1X12.543Y10.586
N10240G1X12.828Y10.328
N10250G1X13.086Y10.043
N10260G1X13.316Y9.735
N10270G1X13.517Y9.406
N10280G1X13.685Y9.056
N10290G1X13.819Y8.690
N10300G1X13.917Y8.307
N10310G1X13.978Y7.910
N10320G1X13.999Y7.500
N10330G1X13.978Y7.090
N10340G1X13.917Y6.693
N10350G1X13.819Y6.310
N10360G1X13.685Y5.944
N10370G1X13.517Y5.594
N10380G1X13.316Y5.265
N10390G1X13.086Y4.957
N10400G1X12.828Y4.672
N10410G1X12.543Y4.414
N10420G1X12.235Y4.184
N10430G1X11.906Y3.983
N10440G1X11.556Y3.815
N10450G1X11.190Y3.681
N10460G1X10.807Y3.583
N10470G1X10.410Y3.522
N10480G1X10.000Y3.501
N10490G1X9.590Y3.522
N10500G1X9.193Y3.583
N10510G1X8.810Y3.681
N10520G1X8.444Y3.815
N10530G1X8.094Y3.983
N10540G1X7.765Y4.184
N10550G1X7.457Y4.414
N10560G1X7.172Y4.672
N10570G1X6.914Y4.957
N10580G1X6.684Y5.265
N10590G1X6.483Y5.594
N10600G1X6.315Y5.944
N10610G1X6.181Y6.310
N10620G1X6.083Y6.693
N10630G1X6.022Y7.090
N10640G1X6.001Y7.500
N10650G1X6.022Y7.910
N10660G1X6.083Y8.307
N10670G00Z6.000
N10680G00X-7.457Y-9.414
N10690G1Z-0.500F1200.0
N10700G1X-7.172Y-9.672F3600.0
N10710G1X-6.914Y-9.957
N10720G1X-6.684Y-10.265
N10730G1X-6.483Y-10.594
N10740G1X-6.315Y-10.944
N10750G1X-6.181Y-11.310
N10760G1X-6.083Y-11.693
N10770G1X-6.022Y-12.090
N10780G1X-6.001Y-12.500
N10790G1X-6.022Y-12.910
N10800G1X-6.083Y-13.307
N10810G1X-6.181Y-13.690
N10820G1X-6.315Y-14.056
N10830G1X-6.483Y-14.406
N10840G1X-6.684Y-14.735
N10850G1X-6.914Y-15.043
N10860G1X-7.172Y-15.328
N10870G1X-7.457Y-15.586
N10880G1X-7.765Y-15.816
N10890G1X-8.094Y-16.017
N10900G1X-8.444Y-16.185
N10910G1X-8.810Y-16.319
N10920G1X-9.193Y-16.417
N10930G1X-9.590Y-16.478
N10940G1X-10.000Y-16.499
N10950G1X-10.410Y-16.478
N10960G1X-10.807Y-16.417
N10970G1X-11.190Y-16.319
N10980G1X-11.556Y-16.185
N10990G1X-11.906Y-16.017
N11000G1X-12.235Y-15.816
N11010G1X-12.543Y-15.586
N11020G1X-12.828Y-15.328
N11030G1X-13.086Y-15.043
N11040G1X-13.316Y-14.735
N11050G1X-13.517Y-14.406
N11060G1X-13.685Y-14.056
N11070G1X-13.819Y-13.690
N11080G1X-13.917Y-13.307
N11090G1X-13.978Y-12.910
N11100G1X-13.999Y-12.500
N11110G1X-13.978Y-12.090
N11120G1X-13.917Y-11.693
N11130G1X-13.819Y-11.310
N11140G1X-13.685Y-10.944
N11150G1X-13.517Y-10.594
N11160G1X-13.316Y-10.265
N11170G1X-13.086Y-9.957
N11180G1X-12.828Y-9.672
N11190G1X-12.543Y-9.414
N11200G1X-12.235Y-9.184
N11210G1X-11.906Y-8.983
N11220G1X-11.556Y-8.815
N11230G1X-11.190Y-8.681
N11240G1X-10.807Y-8.583
N11250G1X-10.410Y-8.522
N11260G1X-10.000Y-8.501
N11270G1X-9.590Y-8.522
N11280G1X-9.193Y-8.583
N11290G1X-8.810Y-8.681
N11300G1X-8.444Y-8.815
N11310G1X-8.094Y-8.983
N11320G1X-7.765Y-9.184
N11330G1X-7.457Y-9.414
N11340G1Z-1.000F1200.0
N11350G1X-7.172Y-9.672F3600.0
N11360G1X-6.914Y-9.957
N11370G1X-6.684Y-10.265
N11380G1X-6.483Y-10.594
N11390G1X-6.315Y-10.944
N11400G1X-6.181Y-11.310
N11410G1X-6.083Y-11.693
N11420G1X-6.022Y-12.090
N11430G1X-6.001Y-12.500
N11440G1X-6.022Y-12.910
N11450G1X-6.083Y-13.307
N11460G1X-6.181Y-13.690
N11470G1X-6.315Y-14.056
N11480G1X-6.483Y-14.406
N11490G1X-6.684Y-14.735
N11500G1X-6.914Y-15.043
N11510G1X-7.172Y-15.328
N11520G1X-7.457Y-15.586
N11530G1X-7.765Y-15.816
N11540G1X-8.094Y-16.017
N11550G1X-8.444Y-16.185
N11560G1X-8.810Y-16.319
N11570G1X-9.193Y-16.417
N11580G1X-9.590Y-16.478
N11590G1X-10.000Y-16.499
N11600G1X-10.410Y-16.478
N11610G1X-10.807Y-16.417
N11620G1X-11.190Y-16.319
N11630G1X-11.556Y-16.185
N11640G1X-11.906Y-16.017
N11650G1X-12.235Y-15.816
N11660G1X-12.543Y-15.586
N11670G1X-12.828Y-15.328
N11680G1X-13.086Y-15.043
N11690G1X-13.316Y-14.735
N11700G1X-13.517Y-14.406
N11710G1X-13.685Y-14.056
N11720G1X-13.819Y-13.690
N11730G1X-13.917Y-13.307
N11740G1X-13.978Y-12.910
N11750G1X-13.999Y-12.500
N11760G1X-13.978Y-12.090
N11770G1X-13.917Y-11.693
N11780G1X-13.819Y-11.310
N11790G1X-13.685Y-10.944
N11800G1X-13.517Y-10.594
N11810G1X-13.316Y-10.265
N11820G1X-13.086Y-9.957
N11830G1X-12.828Y-9.672
N11840G1X-12.543Y-9.414
N11850G1X-12.235Y-9.184
N11860G1X-11.906Y-8.983
N11870G1X-11.556Y-8.815
N11880G1X-11.190Y-8.681
N11890G1X-10.807Y-8.583
N11900G1X-10.410Y-8.522
N11910G1X-10.000Y-8.501
N11920G1X-9.590Y-8.522
N11930G1X-9.193Y-8.583
N11940G1X-8.810Y-8.681
N11950G1X-8.444Y-8.815
N11960G1X-8.094Y-8.983
N11970G1X-7.765Y-9.184
N11980G1X-7.457Y-9.414
N11990G1Z-1.500F1200.0
N12000G1X-7.172Y-9.672F3600.0
N12010G1X-6.914Y-9.957
N12020G1X-6.684Y-10.265
N12030G1X-6.483Y-10.594
N12040G1X-6.315Y-10.944
N12050G1X-6.181Y-11.310
N12060G1X-6.083Y-11.693
N12070G1X-6.022Y-12.090
N12080G1X-6.001Y-12.500
N12090G1X-6.022Y-12.910
N12100G1X-6.083Y-13.307
N12110G1X-6.181Y-13.690
N12120G1X-6.315Y-14.056
N12130G1X-6.483Y-14.406
N12140G1X-6.684Y-14.735
N12150G1X-6.914Y-15.043
N12160G1X-7.172Y-15.328
N12170G1X-7.457Y-15.586
N12180G1X-7.765Y-15.816
N12190G1X-8.094Y-16.017
N12200G1X-8.444Y-16.185
N12210G1X-8.810Y-16.319
N12220G1X-9.193Y-16.417
N12230G1X-9.590Y-16.478
N12240G1X-10.000Y-16.499
N12250G1X-10.410Y-16.478
N12260G1X-10.807Y-16.417
N12270G1X-11.190Y-16.319
N12280G1X-11.556Y-16.185
N12290G1X-11.906Y-16.017
N12300G1X-12.235Y-15.816
N12310G1X-12.543Y-15.586
N12320G1X-12.828Y-15.328
N12330G1X-13.086Y-15.043
N12340G1X-13.316Y-14.735
N12350G1X-13.517Y-14.406
N12360G1X-13.685Y-14.056
N12370G1X-13.819Y-13.690
N12380G1X-13.917Y-13.307
N12390G1X-13.978Y-12.910
N12400G1X-13.999Y-12.500
N12410G1X-13.978Y-12.090
N12420G1X-13.917Y-11.693
N12430G1X-13.819Y-11.310
N12440G1X-13.685Y-10.944
N12450G1X-13.517Y-10.594
N12460G1X-13.316Y-10.265
N12470G1X-13.086Y-9.957
N12480G1X-12.828Y-9.672
N12490G1X-12.543Y-9.414
N12500G1X-12.235Y-9.184
N12510G1X-11.906Y-8.983
N12520G1X-11.556Y-8.815
N12530G1X-11.190Y-8.681
N12540G1X-10.807Y-8.583
N12550G1X-10.410Y-8.522
N12560G1X-10.000Y-8.501
N12570G1X-9.590Y-8.522
N12580G1X-9.193Y-8.583
N12590G1X-8.810Y-8.681
N12600G1X-8.444Y-8.815
N12610G1X-8.094Y-8.983
N12620G1X-7.765Y-9.184
N12630G1X-7.457Y-9.414
N12640G1Z-2.000F1200.0
N12650G1X-7.172Y-9.672F3600.0
N12660G1X-6.914Y-9.957
N12670G1X-6.684Y-10.265
N12680G1X-6.483Y-10.594
N12690G1X-6.315Y-10.944
N12700G1X-6.181Y-11.310
N12710G1X-6.083Y-11.693
N12720G1X-6.022Y-12.090
N12730G1X-6.001Y-12.500
N12740G1X-6.022Y-12.910
N12750G1X-6.083Y-13.307
N12760G1X-6.181Y-13.690
N12770G1X-6.315Y-14.056
N12780G1X-6.483Y-14.406
N12790G1X-6.684Y-14.735
N12800G1X-6.914Y-15.043
N12810G1X-7.172Y-15.328
N12820G1X-7.457Y-15.586
N12830G1X-7.765Y-15.816
N12840G1X-8.094Y-16.017
N12850G1X-8.444Y-16.185
N12860G1X-8.810Y-16.319
N12870G1X-9.193Y-16.417
N12880G1X-9.590Y-16.478
N12890G1X-10.000Y-16.499
N12900G1X-10.410Y-16.478
N12910G1X-10.807Y-16.417
N12920G1X-11.190Y-16.319
N12930G1X-11.556Y-16.185
N12940G1X-11.906Y-16.017
N12950G1X-12.235Y-15.816
N12960G1X-12.543Y-15.586
N12970G1X-12.828Y-15.328
N12980G1X-13.086Y-15.043
N12990G1X-13.316Y-14.735
N13000G1X-13.517Y-14.406
N13010G1X-13.685Y-14.056
N13020G1X-13.819Y-13.690
N13030G1X-13.917Y-13.307
N13040G1X-13.978Y-12.910
N13050G1X-13.999Y-12.500
N13060G1X-13.978Y-12.090
N13070G1X-13.917Y-11.693
N13080G1X-13.819Y-11.310
N13090G1X-13.685Y-10.944
N13100G1X-13.517Y-10.594
N13110G1X-13.316Y-10.265
N13120G1X-13.086Y-9.957
N13130G1X-12.828Y-9.672
N13140G1X-12.543Y-9.414
N13150G1X-12.235Y-9.184
N13160G1X-11.906Y-8.983
N13170G1X-11.556Y-8.815
N13180G1X-11.190Y-8.681
N13190G1X-10.807Y-8.583
N13200G1X-10.410Y-8.522
N13210G1X-10.000Y-8.501
N13220G1X-9.590Y-8.522
N13230G1X-9.193Y-8.583
N13240G1X-8.810Y-8.681
N13250G1X-8.444Y-8.815
N13260G1X-8.094Y-8.983
N13270G1X-7.765Y-9.184
N13280G1X-7.457Y-9.414
N13290G00Z6.000
N13300G00X6.083Y-11.693
N13310G1Z-0.500F1200.0
N13320G1X6.181Y-11.310F3600.0
N13330G1X6.315Y-10.944
N13340G1X6.483Y-10.594
N13350G1X6.684Y-10.265
N13360G1X6.914Y-9.957
N13370G1X7.172Y-9.672
N13380G1X7.457Y-9.414
N13390G1X7.765Y-9.184
N13400G1X8.094Y-8.983
N13410G1X8.444Y-8.815
N13420G1X8.810Y-8.681
N13430G1X9.193Y-8.583
N13440G1X9.590Y-8.522
N13450G1X10.000Y-8.501
N13460G1X10.410Y-8.522
N13470G1X10.807Y-8.583
N13480G1X11.190Y-8.681
N13490G1X11.556Y-8.815
N13500G1X11.906Y-8.983
N13510G1X12.235Y-9.184
N13520G1X12.543Y-9.414
N13530G1X12.828Y-9.672
N13540G1X13.086Y-9.957
N13550G1X13.316Y-10.265
N13560G1X13.517Y-10.594
N13570G1X13.685Y-10.944
N13580G1X13.819Y-11.310
N13590G1X13.917Y-11.693
N13600G1X13.978Y-12.090
N13610G1X13.999Y-12.500
N13620G1X13.978Y-12.910
N13630G1X13.917Y-13.307
N13640G1X13.819Y-13.690
N13650G1X13.685Y-14.056
N13660G1X13.517Y-14.406
N13670G1X13.316Y-14.735
N13680G1X13.086Y-15.043
N13690G1X12.828Y-15.328
N13700G1X12.543Y-15.586
N13710G1X12.235Y-15.816
N13720G1X11.906Y-16.017
N13730G1X11.556Y-16.185
N13740G1X11.190Y-16.319
N13750G1X10.807Y-16.417
N13760G1X10.410Y-16.478
N13770G1X10.000Y-16.499
N13780G1X9.590Y-16.478
N13790G1X9.193Y-16.417
N13800G1X8.810Y-16.319
N13810G1X8.444Y-16.185
N13820G1X8.094Y-16.017
N13830G1X7.765Y-15.816
N13840G1X7.457Y-15.586
N13850G1X7.172Y-15.328
N13860G1X6.914Y-15.043
N13870G1X6.684Y-14.735
N13880G1X6.483Y-14.406
N13890G1X6.315Y-14.056
N13900G1X6.181Y-13.690
N13910G1X6.083Y-13.307
N13920G1X6.022Y-12.910
N13930G1X6.001Y-12.500
N13940G1X6.022Y-12.090
N13950G1X6.083Y-11.693
N13960G1Z-1.000F1200.0
N13970G1X6.181Y-11.310F3600.0
N13980G1X6.315Y-10.944
N13990G1X6.483Y-10.594
N14000G1X6.684Y-10.265
N14010G1X6.914Y-9.957
N14020G1X7.172Y-9.672
N14030G1X7.457Y-9.414
N14040G1X7.765Y-9.184
N14050G1X8.094Y-8.983
N14060G1X8.444Y-8.815
N14070G1X8.810Y-8.681
N14080G1X9.193Y-8.583
N14090G1X9.590Y-8.522
N14100G1X10.000Y-8.501
N14110G1X10.410Y-8.522
N14120G1X10.807Y-8.583
N14130G1X11.190Y-8.681
N14140G1X11.556Y-8.815
N14150G1X11.906Y-8.983
N14160G1X12.235Y-9.184
N14170G1X12.543Y-9.414
N14180G1X12.828Y-9.672
N14190G1X13.086Y-9.957
N14200G1X13.316Y-10.265
N14210G1X13.517Y-10.594
N14220G1X13.685Y-10.944
N14230G1X13.819Y-11.310
N14240G1X13.917Y-11.693
N14250G1X13.978Y-12.090
N14260G1X13.999Y-12.500
N14270G1X13.978Y-12.910
N14280G1X13.917Y-13.307
N14290G1X13.819Y-13.690
N14300G1X13.685Y-14.056
N14310G1X13.517Y-14.406
N14320G1X13.316Y-14.735
N14330G1X13.086Y-15.043
N14340G1X12.828Y-15.328
N14350G1X12.543Y-15.586
N14360G1X12.235Y-15.816
N14370G1X11.906Y-16.017
N14380G1X11.556Y-16.185
N14390G1X11.190Y-16.319
N14400G1X10.807Y-16.417
N14410G1X10.410Y-16.478
N14420G1X10.000Y-16.499
N14430G1X9.590Y-16.478
N14440G1X9.193Y-16.417
N14450G1X8.810Y-16.319
N14460G1X8.444Y-16.185
N14470G1X8.094Y-16.017
N14480G1X7.765Y-15.816
N14490G1X7.457Y-15.586
N14500G1X7.172Y-15.328
N14510G1X6.914Y-15.043
N14520G1X6.684Y-14.735
N14530G1X6.483Y-14.406
N14540G1X6.315Y-14.056
N14550G1X6.181Y-13.690
N14560G1X6.083Y-13.307
N14570G1X6.022Y-12.910
N14580G1X6.001Y-12.500
N14590G1X6.022Y-12.090
N14600G1X6.083Y-11.693
N14610G1Z-1.500F1200.0
N14620G1X6.181Y-11.310F3600.0
N14630G1X6.315Y-10.944
N14640G1X6.483Y-10.594
N14650G1X6.684Y-10.265
N14660G1X6.914Y-9.957
N14670G1X7.172Y-9.672
N14680G1X7.457Y-9.414
N14690G1X7.765Y-9.184
N14700G1X8.094Y-8.983
N14710G1X8.444Y-8.815
N14720G1X8.810Y-8.681
N14730G1X9.193Y-8.583
N14740G1X9.590Y-8.522
N14750G1X10.000Y-8.501
N14760G1X10.410Y-8.522
N14770G1X10.807Y-8.583
N14780G1X11.190Y-8.681
N14790G1X11.556Y-8.815
N14800G1X11.906Y-8.983
N14810G1X12.235Y-9.184
N14820G1X12.543Y-9.414
N14830G1X12.828Y-9.672
N14840G1X13.086Y-9.957
N14850G1X13.316Y-10.265
N14860G1X13.517Y-10.594
N14870G1X13.685Y-10.944
N14880G1X13.819Y-11.310
N14890G1X13.917Y-11.693
N14900G1X13.978Y-12.090
N14910G1X13.999Y-12.500
N14920G1X13.978Y-12.910
N14930G1X13.917Y-13.307
N14940G1X13.819Y-13.690
N14950G1X13.685Y-14.056
N14960G1X13.517Y-14.406
N14970G1X13.316Y-14.735
N14980G1X13.086Y-15.043
N14990G1X12.828Y-15.328
N15000G1X12.543Y-15.586
N15010G1X12.235Y-15.816
N15020G1X11.906Y-16.017
N15030G1X11.556Y-16.185
N15040G1X11.190Y-16.319
N15050G1X10.807Y-16.417
N15060G1X10.410Y-16.478
N15070G1X10.000Y-16.499
N15080G1X9.590Y-16.478
N15090G1X9.193Y-16.417
N15100G1X8.810Y-16.319
N15110G1X8.444Y-16.185
N15120G1X8.094Y-16.017
N15130G1X7.765Y-15.816
N15140G1X7.457Y-15.586
N15150G1X7.172Y-15.328
N15160G1X6.914Y-15.043
N15170G1X6.684Y-14.735
N15180G1X6.483Y-14.406
N15190G1X6.315Y-14.056
N15200G1X6.181Y-13.690
N15210G1X6.083Y-13.307
N15220G1X6.022Y-12.910
N15230G1X6.001Y-12.500
N15240G1X6.022Y-12.090
N15250G1X6.083Y-11.693
N15260G1Z-2.000F1200.0
N15270G1X6.181Y-11.310F3600.0
N15280G1X6.315Y-10.944
N15290G1X6.483Y-10.594
N15300G1X6.684Y-10.265
N15310G1X6.914Y-9.957
N15320G1X7.172Y-9.672
N15330G1X7.457Y-9.414
N15340G1X7.765Y-9.184
N15350G1X8.094Y-8.983
N15360G1X8.444Y-8.815
N15370G1X8.810Y-8.681
N15380G1X9.193Y-8.583
N15390G1X9.590Y-8.522
N15400G1X10.000Y-8.501
N15410G1X10.410Y-8.522
N15420G1X10.807Y-8.583
N15430G1X11.190Y-8.681
N15440G1X11.556Y-8.815
N15450G1X11.906Y-8.983
N15460G1X12.235Y-9.184
N15470G1X12.543Y-9.414
N15480G1X12.828Y-9.672
N15490G1X13.086Y-9.957
N15500G1X13.316Y-10.265
N15510G1X13.517Y-10.594
N15520G1X13.685Y-10.944
N15530G1X13.819Y-11.310
N15540G1X13.917Y-11.693
N15550G1X13.978Y-12.090
N15560G1X13.999Y-12.500
N15570G1X13.978Y-12.910
N15580G1X13.917Y-13.307
N15590G1X13.819Y-13.690
N15600G1X13.685Y-14.056
N15610G1X13.517Y-14.406
N15620G1X13.316Y-14.735
N15630G1X13.086Y-15.043
N15640G1X12.828Y-15.328
N15650G1X12.543Y-15.586
N15660G1X12.235Y-15.816
N15670G1X11.906Y-16.017
N15680G1X11.556Y-16.185
N15690G1X11.190Y-16.319
N15700G1X10.807Y-16.417
N15710G1X10.410Y-16.478
N15720G1X10.000Y-16.499
N15730G1X9.590Y-16.478
N15740G1X9.193Y-16.417
N15750G1X8.810Y-16.319
N15760G1X8.444Y-16.185
N15770G1X8.094Y-16.017
N15780G1X7.765Y-15.816
N15790G1X7.457Y-15.586
N15800G1X7.172Y-15.328
N15810G1X6.914Y-15.043
N15820G1X6.684Y-14.735
N15830G1X6.483Y-14.406
N15840G1X6.315Y-14.056
N15850G1X6.181Y-13.690
N15860G1X6.083Y-13.307
N15870G1X6.022Y-12.910
N15880G1X6.001Y-12.500
N15890G1X6.022Y-12.090
N15900G1X6.083Y-11.693
N15910G00Z6.000
N15920G00X-7.457Y-29.414
N15930G1Z-0.500F1200.0
N15940G1X-7.172Y-29.672F3600.0
N15950G1X-6.914Y-29.957
N15960G1X-6.684Y-30.265
N15970G1X-6.483Y-30.594
N15980G1X-6.315Y-30.944
N15990G1X-6.181Y-31.310
N16000G1X-6.083Y-31.693
N16010G1X-6.022Y-32.090
N16020G1X-6.001Y-32.500
N16030G1X-6.022Y-32.910
N16040G1X-6.083Y-33.307
N16050G1X-6.181Y-33.690
N16060G1X-6.315Y-34.056
N16070G1X-6.483Y-34.406
N16080G1X-6.684Y-34.735
N16090G1X-6.914Y-35.043
N16100G1X-7.172Y-35.328
N16110G1X-7.457Y-35.586
N16120G1X-7.765Y-35.816
N16130G1X-8.094Y-36.017
N16140G1X-8.444Y-36.185
N16150G1X-8.810Y-36.319
N16160G1X-9.193Y-36.417
N16170G1X-9.590Y-36.478
N16180G1X-10.000Y-36.499
N16190G1X-10.410Y-36.478
N16200G1X-10.807Y-36.417
N16210G1X-11.190Y-36.319
N16220G1X-11.556Y-36.185
N16230G1X-11.906Y-36.017
N16240G1X-12.235Y-35.816
N16250G1X-12.543Y-35.586
N16260G1X-12.828Y-35.328
N16270G1X-13.086Y-35.043
N16280G1X-13.316Y-34.735
N16290G1X-13.517Y-34.406
N16300G1X-13.685Y-34.056
N16310G1X-13.819Y-33.690
N16320G1X-13.917Y-33.307
N16330G1X-13.978Y-32.910
N16340G1X-13.999Y-32.500
N16350G1X-13.978Y-32.090
N16360G1X-13.917Y-31.693
N16370G1X-13.819Y-31.310
N16380G1X-13.685Y-30.944
N16390G1X-13.517Y-30.594
N16400G1X-13.316Y-30.265
N16410G1X-13.086Y-29.957
N16420G1X-12.828Y-29.672
N16430G1X-12.543Y-29.414
N16440G1X-12.235Y-29.184
N16450G1X-11.906Y-28.983
N16460G1X-11.556Y-28.815
N16470G1X-11.190Y-28.681
N16480G1X-10.807Y-28.583
N16490G1X-10.410Y-28.522
N16500G1X-10.000Y-28.501
N16510G1X-9.590Y-28.522
N16520G1X-9.193Y-28.583
N16530G1X-8.810Y-28.681
N16540G1X-8.444Y-28.815
N16550G1X-8.094Y-28.983
N16560G1X-7.765Y-29.184
N16570G1X-7.457Y-29.414
N16580G1Z-1.000F1200.0
N16590G1X-7.172Y-29.672F3600.0
N16600G1X-6.914Y-29.957
N16610G1X-6.684Y-30.265
N16620G1X-6.483Y-30.594
N16630G1X-6.315Y-30.944
N16640G1X-6.181Y-31.310
N16650G1X-6.083Y-31.693
N16660G1X-6.022Y-32.090
N16670G1X-6.001Y-32.500
N16680G1X-6.022Y-32.910
N16690G1X-6.083Y-33.307
N16700G1X-6.181Y-33.690
N16710G1X-6.315Y-34.056
N16720G1X-6.483Y-34.406
N16730G1X-6.684Y-34.735
N16740G1X-6.914Y-35.043
N16750G1X-7.172Y-35.328
N16760G1X-7.457Y-35.586
N16770G1X-7.765Y-35.816
N16780G1X-8.094Y-36.017
N16790G1X-8.444Y-36.185
N16800G1X-8.810Y-36.319
N16810G1X-9.193Y-36.417
N16820G1X-9.590Y-36.478
N16830G1X-10.000Y-36.499
N16840G1X-10.410Y-36.478
N16850G1X-10.807Y-36.417
N16860G1X-11.190Y-36.319
N16870G1X-11.556Y-36.185
N16880G1X-11.906Y-36.017
N16890G1X-12.235Y-35.816
N16900G1X-12.543Y-35.586
N16910G1X-12.828Y-35.328
N16920G1X-13.086Y-35.043
N16930G1X-13.316Y-34.735
N16940G1X-13.517Y-34.406
N16950G1X-13.685Y-34.056
N16960G1X-13.819Y-33.690
N16970G1X-13.917Y-33.307
N16980G1X-13.978Y-32.910
N16990G1X-13.999Y-32.500
N17000G1X-13.978Y-32.090
N17010G1X-13.917Y-31.693
N17020G1X-13.819Y-31.310
N17030G1X-13.685Y-30.944
N17040G1X-13.517Y-30.594
N17050G1X-13.316Y-30.265
N17060G1X-13.086Y-29.957
N17070G1X-12.828Y-29.672
N17080G1X-12.543Y-29.414
N17090G1X-12.235Y-29.184
N17100G1X-11.906Y-28.983
N17110G1X-11.556Y-28.815
N17120G1X-11.190Y-28.681
N17130G1X-10.807Y-28.583
N17140G1X-10.410Y-28.522
N17150G1X-10.000Y-28.501
N17160G1X-9.590Y-28.522
N17170G1X-9.193Y-28.583
N17180G1X-8.810Y-28.681
N17190G1X-8.444Y-28.815
N17200G1X-8.094Y-28.983
N17210G1X-7.765Y-29.184
N17220G1X-7.457Y-29.414
N17230G1Z-1.500F1200.0
N17240G1X-7.172Y-29.672F3600.0
N17250G1X-6.914Y-29.957
N17260G1X-6.684Y-30.265
N17270G1X-6.483Y-30.594
N17280G1X-6.315Y-30.944
N17290G1X-6.181Y-31.310
N17300G1X-6.083Y-31.693
N17310G1X-6.022Y-32.090
N17320G1X-6.001Y-32.500
N17330G1X-6.022Y-32.910
N17340G1X-6.083Y-33.307
N17350G1X-6.181Y-33.690
N17360G1X-6.315Y-34.056
N17370G1X-6.483Y-34.406
N17380G1X-6.684Y-34.735
N17390G1X-6.914Y-35.043
N17400G1X-7.172Y-35.328
N17410G1X-7.457Y-35.586
N17420G1X-7.765Y-35.816
N17430G1X-8.094Y-36.017
N17440G1X-8.444Y-36.185
N17450G1X-8.810Y-36.319
N17460G1X-9.193Y-36.417
N17470G1X-9.590Y-36.478
N17480G1X-10.000Y-36.499
N17490G1X-10.410Y-36.478
N17500G1X-10.807Y-36.417
N17510G1X-11.190Y-36.319
N17520G1X-11.556Y-36.185
N17530G1X-11.906Y-36.017
N17540G1X-12.235Y-35.816
N17550G1X-12.543Y-35.586
N17560G1X-12.828Y-35.328
N17570G1X-13.086Y-35.043
N17580G1X-13.316Y-34.735
N17590G1X-13.517Y-34.406
N17600G1X-13.685Y-34.056
N17610G1X-13.819Y-33.690
N17620G1X-13.917Y-33.307
N17630G1X-13.978Y-32.910
N17640G1X-13.999Y-32.500
N17650G1X-13.978Y-32.090
N17660G1X-13.917Y-31.693
N17670G1X-13.819Y-31.310
N17680G1X-13.685Y-30.944
N17690G1X-13.517Y-30.594
N17700G1X-13.316Y-30.265
N17710G1X-13.086Y-29.957
N17720G1X-12.828Y-29.672
N17730G1X-12.543Y-29.414
N17740G1X-12.235Y-29.184
N17750G1X-11.906Y-28.983
N17760G1X-11.556Y-28.815
N17770G1X-11.190Y-28.681
N17780G1X-10.807Y-28.583
N17790G1X-10.410Y-28.522
N17800G1X-10.000Y-28.501
N17810G1X-9.590Y-28.522
N17820G1X-9.193Y-28.583
N17830G1X-8.810Y-28.681
N17840G1X-8.444Y-28.815
N17850G1X-8.094Y-28.983
N17860G1X-7.765Y-29.184
N17870G1X-7.457Y-29.414
N17880G1Z-2.000F1200.0
N17890G1X-7.172Y-29.672F3600.0
N17900G1X-6.914Y-29.957
N17910G1X-6.684Y-30.265
N17920G1X-6.483Y-30.594
N17930G1X-6.315Y-30.944
N17940G1X-6.181Y-31.310
N17950G1X-6.083Y-31.693
N17960G1X-6.022Y-32.090
N17970G1X-6.001Y-32.500
N17980G1X-6.022Y-32.910
N17990G1X-6.083Y-33.307
N18000G1X-6.181Y-33.690
N18010G1X-6.315Y-34.056
N18020G1X-6.483Y-34.406
N18030G1X-6.684Y-34.735
N18040G1X-6.914Y-35.043
N18050G1X-7.172Y-35.328
N18060G1X-7.457Y-35.586
N18070G1X-7.765Y-35.816
N18080G1X-8.094Y-36.017
N18090G1X-8.444Y-36.185
N18100G1X-8.810Y-36.319
N18110G1X-9.193Y-36.417
N18120G1X-9.590Y-36.478
N18130G1X-10.000Y-36.499
N18140G1X-10.410Y-36.478
N18150G1X-10.807Y-36.417
N18160G1X-11.190Y-36.319
N18170G1X-11.556Y-36.185
N18180G1X-11.906Y-36.017
N18190G1X-12.235Y-35.816
N18200G1X-12.543Y-35.586
N18210G1X-12.828Y-35.328
N18220G1X-13.086Y-35.043
N18230G1X-13.316Y-34.735
N18240G1X-13.517Y-34.406
N18250G1X-13.685Y-34.056
N18260G1X-13.819Y-33.690
N18270G1X-13.917Y-33.307
N18280G1X-13.978Y-32.910
N18290G1X-13.999Y-32.500
N18300G1X-13.978Y-32.090
N18310G1X-13.917Y-31.693
N18320G1X-13.819Y-31.310
N18330G1X-13.685Y-30.944
N18340G1X-13.517Y-30.594
N18350G1X-13.316Y-30.265
N18360G1X-13.086Y-29.957
N18370G1X-12.828Y-29.672
N18380G1X-12.543Y-29.414
N18390G1X-12.235Y-29.184
N18400G1X-11.906Y-28.983
N18410G1X-11.556Y-28.815
N18420G1X-11.190Y-28.681
N18430G1X-10.807Y-28.583
N18440G1X-10.410Y-28.522
N18450G1X-10.000Y-28.501
N18460G1X-9.590Y-28.522
N18470G1X-9.193Y-28.583
N18480G1X-8.810Y-28.681
N18490G1X-8.444Y-28.815
N18500G1X-8.094Y-28.983
N18510G1X-7.765Y-29.184
N18520G1X-7.457Y-29.414
N18530G00Z6.000
N18540G00X6.083Y-31.693
N18550G1Z-0.500F1200.0
N18560G1X6.181Y-31.310F3600.0
N18570G1X6.315Y-30.944
N18580G1X6.483Y-30.594
N18590G1X6.684Y-30.265
N18600G1X6.914Y-29.957
N18610G1X7.172Y-29.672
N18620G1X7.457Y-29.414
N18630G1X7.765Y-29.184
N18640G1X8.094Y-28.983
N18650G1X8.444Y-28.815
N18660G1X8.810Y-28.681
N18670G1X9.193Y-28.583
N18680G1X9.590Y-28.522
N18690G1X10.000Y-28.501
N18700G1X10.410Y-28.522
N18710G1X10.807Y-28.583
N18720G1X11.190Y-28.681
N18730G1X11.556Y-28.815
N18740G1X11.906Y-28.983
N18750G1X12.235Y-29.184
N18760G1X12.543Y-29.414
N18770G1X12.828Y-29.672
N18780G1X13.086Y-29.957
N18790G1X13.316Y-30.265
N18800G1X13.517Y-30.594
N18810G1X13.685Y-30.944
N18820G1X13.819Y-31.310
N18830G1X13.917Y-31.693
N18840G1X13.978Y-32.090
N18850G1X13.999Y-32.500
N18860G1X13.978Y-32.910
N18870G1X13.917Y-33.307
N18880G1X13.819Y-33.690
N18890G1X13.685Y-34.056
N18900G1X13.517Y-34.406
N18910G1X13.316Y-34.735
N18920G1X13.086Y-35.043
N18930G1X12.828Y-35.328
N18940G1X12.543Y-35.586
N18950G1X12.235Y-35.816
N18960G1X11.906Y-36.017
N18970G1X11.556Y-36.185
N18980G1X11.190Y-36.319
N18990G1X10.807Y-36.417
N19000G1X10.410Y-36.478
N19010G1X10.000Y-36.499
N19020G1X9.590Y-36.478
N19030G1X9.193Y-36.417
N19040G1X8.810Y-36.319
N19050G1X8.444Y-36.185
N19060G1X8.094Y-36.017
N19070G1X7.765Y-35.816
N19080G1X7.457Y-35.586
N19090G1X7.172Y-35.328
N19100G1X6.914Y-35.043
N19110G1X6.684Y-34.735
N19120G1X6.483Y-34.406
N19130G1X6.315Y-34.056
N19140G1X6.181Y-33.690
N19150G1X6.083Y-33.307
N19160G1X6.022Y-32.910
N19170G1X6.001Y-32.500
N19180G1X6.022Y-32.090
N19190G1X6.083Y-31.693
N19200G1Z-1.000F1200.0
N19210G1X6.181Y-31.310F3600.0
N19220G1X6.315Y-30.944
N19230G1X6.483Y-30.594
N19240G1X6.684Y-30.265
N19250G1X6.914Y-29.957
N19260G1X7.172Y-29.672
N19270G1X7.457Y-29.414
N19280G1X7.765Y-29.184
N19290G1X8.094Y-28.983
N19300G1X8.444Y-28.815
N19310G1X8.810Y-28.681
N19320G1X9.193Y-28.583
N19330G1X9.590Y-28.522
N19340G1X10.000Y-28.501
N19350G1X10.410Y-28.522
N19360G1X10.807Y-28.583
N19370G1X11.190Y-28.681
N19380G1X11.556Y-28.815
N19390G1X11.906Y-28.983
N19400G1X12.235Y-29.184
N19410G1X12.543Y-29.414
N19420G1X12.828Y-29.672
N19430G1X13.086Y-29.957
N19440G1X13.316Y-30.265
N19450G1X13.517Y-30.594
N19460G1X13.685Y-30.944
N19470G1X13.819Y-31.310
N19480G1X13.917Y-31.693
N19490G1X13.978Y-32.090
N19500G1X13.999Y-32.500
N19510G1X13.978Y-32.910
N19520G1X13.917Y-33.307
N19530G1X13.819Y-33.690
N19540G1X13.685Y-34.056
N19550G1X13.517Y-34.406
N19560G1X13.316Y-34.735
N19570G1X13.086Y-35.043
N19580G1X12.828Y-35.328
N19590G1X12.543Y-35.586
N19600G1X12.235Y-35.816
N19610G1X11.906Y-36.017
N19620G1X11.556Y-36.185
N19630G1X11.190Y-36.319
N19640G1X10.807Y-36.417
N19650G1X10.410Y-36.478
N19660G1X10.000Y-36.499
N19670G1X9.590Y-36.478
N19680G1X9.193Y-36.417
N19690G1X8.810Y-36.319
N19700G1X8.444Y-36.185
N19710G1X8.094Y-36.017
N19720G1X7.765Y-35.816
N19730G1X7.457Y-35.586
N19740G1X7.172Y-35.328
N19750G1X6.914Y-35.043
N19760G1X6.684Y-34.735
N19770G1X6.483Y-34.406
N19780G1X6.315Y-34.056
N19790G1X6.181Y-33.690
N19800G1X6.083Y-33.307
N19810G1X6.022Y-32.910
N19820G1X6.001Y-32.500
N19830G1X6.022Y-32.090
N19840G1X6.083Y-31.693
N19850G1Z-1.500F1200.0
N19860G1X6.181Y-31.310F3600.0
N19870G1X6.315Y-30.944
N19880G1X6.483Y-30.594
N19890G1X6.684Y-30.265
N19900G1X6.914Y-29.957
N19910G1X7.172Y-29.672
N19920G1X7.457Y-29.414
N19930G1X7.765Y-29.184
N19940G1X8.094Y-28.983
N19950G1X8.444Y-28.815
N19960G1X8.810Y-28.681
N19970G1X9.193Y-28.583
N19980G1X9.590Y-28.522
N19990G1X10.000Y-28.501
N20000G1X10.410Y-28.522
N20010G1X10.807Y-28.583
N20020G1X11.190Y-28.681
N20030G1X11.556Y-28.815
N20040G1X11.906Y-28.983
N20050G1X12.235Y-29.184
N20060G1X12.543Y-29.414
N20070G1X12.828Y-29.672
N20080G1X13.086Y-29.957
N20090G1X13.316Y-30.265
N20100G1X13.517Y-30.594
N20110G1X13.685Y-30.944
N20120G1X13.819Y-31.310
N20130G1X13.917Y-31.693
N20140G1X13.978Y-32.090
N20150G1X13.999Y-32.500
N20160G1X13.978Y-32.910
N20170G1X13.917Y-33.307
N20180G1X13.819Y-33.690
N20190G1X13.685Y-34.056
N20200G1X13.517Y-34.406
N20210G1X13.316Y-34.735
N20220G1X13.086Y-35.043
N20230G1X12.828Y-35.328
N20240G1X12.543Y-35.586
N20250G1X12.235Y-35.816
N20260G1X11.906Y-36.017
N20270G1X11.556Y-36.185
N20280G1X11.190Y-36.319
N20290G1X10.807Y-36.417
N20300G1X10.410Y-36.478
N20310G1X10.000Y-36.499
N20320G1X9.590Y-36.478
N20330G1X9.193Y-36.417
N20340G1X8.810Y-36.319
N20350G1X8.444Y-36.185
N20360G1X8.094Y-36.017
N20370G1X7.765Y-35.816
N20380G1X7.457Y-35.586
N20390G1X7.172Y-35.328
N20400G1X6.914Y-35.043
N20410G1X6.684Y-34.735
N20420G1X6.483Y-34.406
N20430G1X6.315Y-34.056
N20440G1X6.181Y-33.690
N20450G1X6.083Y-33.307
N20460G1X6.022Y-32.910
N20470G1X6.001Y-32.500
N20480G1X6.022Y-32.090
N20490G1X6.083Y-31.693
N20500G1Z-2.000F1200.0
N20510G1X6.181Y-31.310F3600.0
N20520G1X6.315Y-30.944
N20530G1X6.483Y-30.594
N20540G1X6.684Y-30.265
N20550G1X6.914Y-29.957
N20560G1X7.172Y-29.672
N20570G1X7.457Y-29.414
N20580G1X7.765Y-29.184
N20590G1X8.094Y-28.983
N20600G1X8.444Y-28.815
N20610G1X8.810Y-28.681
N20620G1X9.193Y-28.583
N20630G1X9.590Y-28.522
N20640G1X10.000Y-28.501
N20650G1X10.410Y-28.522
N20660G1X10.807Y-28.583
N20670G1X11.190Y-28.681
N20680G1X11.556Y-28.815
N20690G1X11.906Y-28.983
N20700G1X12.235Y-29.184
N20710G1X12.543Y-29.414
N20720G1X12.828Y-29.672
N20730G1X13.086Y-29.957
N20740G1X13.316Y-30.265
N20750G1X13.517Y-30.594
N20760G1X13.685Y-30.944
N20770G1X13.819Y-31.310
N20780G1X13.917Y-31.693
N20790G1X13.978Y-32.090
N20800G1X13.999Y-32.500
N20810G1X13.978Y-32.910
N20820G1X13.917Y-33.307
N20830G1X13.819Y-33.690
N20840G1X13.685Y-34.056
N20850G1X13.517Y-34.406
N20860G1X13.316Y-34.735
N20870G1X13.086Y-35.043
N20880G1X12.828Y-35.328
N20890G1X12.543Y-35.586
N20900G1X12.235Y-35.816
N20910G1X11.906Y-36.017
N20920G1X11.556Y-36.185
N20930G1X11.190Y-36.319
N20940G1X10.807Y-36.417
N20950G1X10.410Y-36.478
N20960G1X10.000Y-36.499
N20970G1X9.590Y-36.478
N20980G1X9.193Y-36.417
N20990G1X8.810Y-36.319
N21000G1X8.444Y-36.185
N21010G1X8.094Y-36.017
N21020G1X7.765Y-35.816
N21030G1X7.457Y-35.586
N21040G1X7.172Y-35.328
N21050G1X6.914Y-35.043
N21060G1X6.684Y-34.735
N21070G1X6.483Y-34.406
N21080G1X6.315Y-34.056
N21090G1X6.181Y-33.690
N21100G1X6.083Y-33.307
N21110G1X6.022Y-32.910
N21120G1X6.001Y-32.500
N21130G1X6.022Y-32.090
N21140G1X6.083Y-31.693
N21150G00Z6.000
N21160S12000M03
(Profile 2)
()
N21190G00X-21.000Y40.025Z6.000
N21200G1Z-0.500F1200.0
N21210G1Y-40.025F3600.0
N21220G1X-20.983Y-40.357
N21230G1X-20.930Y-40.704
N21240G1X-20.844Y-41.041
N21250G1X-20.726Y-41.363
N21260G1X-20.578Y-41.669
N21270G1X-20.403Y-41.958
N21280G1X-20.201Y-42.227
N21290G1X-19.976Y-42.476
N21300G1X-19.727Y-42.701
N21310G1X-19.458Y-42.903
N21320G1X-19.169Y-43.078
N21330G1X-18.863Y-43.226
N21340G1X-18.541Y-43.344
N21350G1X-18.204Y-43.430
N21360G1X-17.857Y-43.483
N21370G1X-17.525Y-43.500
N21380G1X17.525
N21390G1X17.857Y-43.483
N21400G1X18.204Y-43.430
N21410G1X18.541Y-43.344
N21420G1X18.863Y-43.226
N21430G1X19.169Y-43.078
N21440G1X19.458Y-42.903
N21450G1X19.727Y-42.701
N21460G1X19.976Y-42.476
N21470G1X20.201Y-42.227
N21480G1X20.403Y-41.958
N21490G1X20.578Y-41.669
N21500G1X20.726Y-41.363
N21510G1X20.844Y-41.041
N21520G1X20.930Y-40.704
N21530G1X20.983Y-40.357
N21540G1X21.000Y-40.025
N21550G1Y40.025
N21560G1X20.983Y40.357
N21570G1X20.930Y40.704
N21580G1X20.844Y41.041
N21590G1X20.726Y41.363
N21600G1X20.578Y41.669
N21610G1X20.403Y41.958
N21620G1X20.201Y42.227
N21630G1X19.976Y42.476
N21640G1X19.727Y42.701
N21650G1X19.458Y42.903
N21660G1X19.169Y43.078
N21670G1X18.863Y43.226
N21680G1X18.541Y43.344
N21690G1X18.204Y43.430
N21700G1X17.857Y43.483
N21710G1X17.525Y43.500
N21720G1X-17.525
N21730G1X-17.857Y43.483
N21740G1X-18.204Y43.430
N21750G1X-18.541Y43.344
N21760G1X-18.863Y43.226
N21770G1X-19.169Y43.078
N21780G1X-19.458Y42.903
N21790G1X-19.727Y42.701
N21800G1X-19.976Y42.476
N21810G1X-20.201Y42.227
N21820G1X-20.403Y41.958
N21830G1X-20.578Y41.669
N21840G1X-20.726Y41.363
N21850G1X-20.844Y41.041
N21860G1X-20.930Y40.704
N21870G1X-20.983Y40.357
N21880G1X-21.000Y40.025
N21890G1Z-1.000F1200.0
N21900G1Y-40.025F3600.0
N21910G1X-20.983Y-40.357
N21920G1X-20.930Y-40.704
N21930G1X-20.844Y-41.041
N21940G1X-20.726Y-41.363
N21950G1X-20.578Y-41.669
N21960G1X-20.403Y-41.958
N21970G1X-20.201Y-42.227
N21980G1X-19.976Y-42.476
N21990G1X-19.727Y-42.701
N22000G1X-19.458Y-42.903
N22010G1X-19.169Y-43.078
N22020G1X-18.863Y-43.226
N22030G1X-18.541Y-43.344
N22040G1X-18.204Y-43.430
N22050G1X-17.857Y-43.483
N22060G1X-17.525Y-43.500
N22070G1X17.525
N22080G1X17.857Y-43.483
N22090G1X18.204Y-43.430
N22100G1X18.541Y-43.344
N22110G1X18.863Y-43.226
N22120G1X19.169Y-43.078
N22130G1X19.458Y-42.903
N22140G1X19.727Y-42.701
N22150G1X19.976Y-42.476
N22160G1X20.201Y-42.227
N22170G1X20.403Y-41.958
N22180G1X20.578Y-41.669
N22190G1X20.726Y-41.363
N22200G1X20.844Y-41.041
N22210G1X20.930Y-40.704
N22220G1X20.983Y-40.357
N22230G1X21.000Y-40.025
N22240G1Y40.025
N22250G1X20.983Y40.357
N22260G1X20.930Y40.704
N22270G1X20.844Y41.041
N22280G1X20.726Y41.363
N22290G1X20.578Y41.669
N22300G1X20.403Y41.958
N22310G1X20.201Y42.227
N22320G1X19.976Y42.476
N22330G1X19.727Y42.701
N22340G1X19.458Y42.903
N22350G1X19.169Y43.078
N22360G1X18.863Y43.226
N22370G1X18.541Y43.344
N22380G1X18.204Y43.430
N22390G1X17.857Y43.483
N22400G1X17.525Y43.500
N22410G1X-17.525
N22420G1X-17.857Y43.483
N22430G1X-18.204Y43.430
N22440G1X-18.541Y43.344
N22450G1X-18.863Y43.226
N22460G1X-19.169Y43.078
N22470G1X-19.458Y42.903
N22480G1X-19.727Y42.701
N22490G1X-19.976Y42.476
N22500G1X-20.201Y42.227
N22510G1X-20.403Y41.958
N22520G1X-20.578Y41.669
N22530G1X-20.726Y41.363
N22540G1X-20.844Y41.041
N22550G1X-20.930Y40.704
N22560G1X-20.983Y40.357
N22570G1X-21.000Y40.025
N22580G1Z-1.500F1200.0
N22590G1Y-40.025F3600.0
N22600G1X-20.983Y-40.357
N22610G1X-20.930Y-40.704
N22620G1X-20.844Y-41.041
N22630G1X-20.726Y-41.363
N22640G1X-20.578Y-41.669
N22650G1X-20.403Y-41.958
N22660G1X-20.201Y-42.227
N22670G1X-19.976Y-42.476
N22680G1X-19.727Y-42.701
N22690G1X-19.458Y-42.903
N22700G1X-19.169Y-43.078
N22710G1X-18.863Y-43.226
N22720G1X-18.541Y-43.344
N22730G1X-18.204Y-43.430
N22740G1X-17.857Y-43.483
N22750G1X-17.525Y-43.500
N22760G1X17.525
N22770G1X17.857Y-43.483
N22780G1X18.204Y-43.430
N22790G1X18.541Y-43.344
N22800G1X18.863Y-43.226
N22810G1X19.169Y-43.078
N22820G1X19.458Y-42.903
N22830G1X19.727Y-42.701
N22840G1X19.976Y-42.476
N22850G1X20.201Y-42.227
N22860G1X20.403Y-41.958
N22870G1X20.578Y-41.669
N22880G1X20.726Y-41.363
N22890G1X20.844Y-41.041
N22900G1X20.930Y-40.704
N22910G1X20.983Y-40.357
N22920G1X21.000Y-40.025
N22930G1Y40.025
N22940G1X20.983Y40.357
N22950G1X20.930Y40.704
N22960G1X20.844Y41.041
N22970G1X20.726Y41.363
N22980G1X20.578Y41.669
N22990G1X20.403Y41.958
N23000G1X20.201Y42.227
N23010G1X19.976Y42.476
N23020G1X19.727Y42.701
N23030G1X19.458Y42.903
N23040G1X19.169Y43.078
N23050G1X18.863Y43.226
N23060G1X18.541Y43.344
N23070G1X18.204Y43.430
N23080G1X17.857Y43.483
N23090G1X17.525Y43.500
N23100G1X-17.525
N23110G1X-17.857Y43.483
N23120G1X-18.204Y43.430
N23130G1X-18.541Y43.344
N23140G1X-18.863Y43.226
N23150G1X-19.169Y43.078
N23160G1X-19.458Y42.903
N23170G1X-19.727Y42.701
N23180G1X-19.976Y42.476
N23190G1X-20.201Y42.227
N23200G1X-20.403Y41.958
N23210G1X-20.578Y41.669
N23220G1X-20.726Y41.363
N23230G1X-20.844Y41.041
N23240G1X-20.930Y40.704
N23250G1X-20.983Y40.357
N23260G1X-21.000Y40.025
N23270G1Z-2.000F1200.0
N23280G1Y-40.025F3600.0
N23290G1X-20.983Y-40.357
N23300G1X-20.930Y-40.704
N23310G1X-20.844Y-41.041
N23320G1X-20.726Y-41.363
N23330G1X-20.578Y-41.669
N23340G1X-20.403Y-41.958
N23350G1X-20.201Y-42.227
N23360G1X-19.976Y-42.476
N23370G1X-19.727Y-42.701
N23380G1X-19.458Y-42.903
N23390G1X-19.169Y-43.078
N23400G1X-18.863Y-43.226
N23410G1X-18.541Y-43.344
N23420G1X-18.204Y-43.430
N23430G1X-17.857Y-43.483
N23440G1X-17.525Y-43.500
N23450G1X17.525
N23460G1X17.857Y-43.483
N23470G1X18.204Y-43.430
N23480G1X18.541Y-43.344
N23490G1X18.863Y-43.226
N23500G1X19.169Y-43.078
N23510G1X19.458Y-42.903
N23520G1X19.727Y-42.701
N23530G1X19.976Y-42.476
N23540G1X20.201Y-42.227
N23550G1X20.403Y-41.958
N23560G1X20.578Y-41.669
N23570G1X20.726Y-41.363
N23580G1X20.844Y-41.041
N23590G1X20.930Y-40.704
N23600G1X20.983Y-40.357
N23610G1X21.000Y-40.025
N23620G1Y40.025
N23630G1X20.983Y40.357
N23640G1X20.930Y40.704
N23650G1X20.844Y41.041
N23660G1X20.726Y41.363
N23670G1X20.578Y41.669
N23680G1X20.403Y41.958
N23690G1X20.201Y42.227
N23700G1X19.976Y42.476
N23710G1X19.727Y42.701
N23720G1X19.458Y42.903
N23730G1X19.169Y43.078
N23740G1X18.863Y43.226
N23750G1X18.541Y43.344
N23760G1X18.204Y43.430
N23770G1X17.857Y43.483
N23780G1X17.525Y43.500
N23790G1X-17.525
N23800G1X-17.857Y43.483
N23810G1X-18.204Y43.430
N23820G1X-18.541Y43.344
N23830G1X-18.863Y43.226
N23840G1X-19.169Y43.078
N23850G1X-19.458Y42.903
N23860G1X-19.727Y42.701
N23870G1X-19.976Y42.476
N23880G1X-20.201Y42.227
N23890G1X-20.403Y41.958
N23900G1X-20.578Y41.669
N23910G1X-20.726Y41.363
N23920G1X-20.844Y41.041
N23930G1X-20.930Y40.704
N23940G1X-20.983Y40.357
N23950G1X-21.000Y40.025
N23960G00Z6.000
N23970G00Z20.000
N23980G00X0.000Y0.000
N23990M09
N24000M30
%
