( LIGHTS_PANELS_ENGRAVE )
( File created: Friday December 13 2019 - 08:17 PM)
( USBCNC Postprocessor )
( Material Size)
( X= 250.000, Y= 250.000, Z= 2.000)
()
(Toolpaths used in this file:)
(Quick Engrave 1)
(Tools used in this file: )
(1 = Engraving Tool)
N100G00G21G17G90G40G49
N110G80
N120 (Engraving Tool)
N130G00G43Z20.000H1
N140S12000M03
N150(Toolpath:- Quick Engrave 1)
N160()
N170G94
N180X0.000Y0.000F1200.0
N190G00X5.874Y-5.445Z6.000
N200G1Z-0.500F480.0
N210G1X7.722F1200.0
N220G1X7.724Y-5.444
N230G1X7.763Y-5.383
N240G1X7.766Y-5.365
N250G1X5.825
N260G1X5.806Y-5.297
N270G1Y-5.285
N280G1X7.775
N290G1X7.765Y-5.217
N300G1X7.757Y-5.205
N310G1X5.806
N320G1Y-5.125
N330G1X7.681
N340G1X7.662Y-5.112
N350G1X7.571Y-5.090
N360G1X6.219Y-5.092
N370G1Y-5.045
N380G1X5.806
N390G1Y-4.965
N400G1X6.219
N410G1Y-4.885
N420G1X5.806
N430G1Y-4.805
N440G1X6.219
N450G1Y-4.725
N460G1X5.806
N470G1Y-4.645
N480G1X6.219
N490G1Y-4.565
N500G1X5.806
N510G1Y-4.485
N520G1X6.219
N530G1Y-4.405
N540G1X5.806
N550G1Y-4.325
N560G1X6.219
N570G1Y-4.245
N580G1X5.806
N590G1Y-4.165
N600G1X6.219
N610G1Y-4.085
N620G1X5.806
N630G1Y-4.005
N640G1X6.219
N650G1Y-3.925
N660G1X5.806
N670G1Y-3.845
N680G1X6.219
N690G1Y-3.765
N700G1X5.806
N710G1Y-3.685
N720G1X6.219
N730G1Y-3.605
N740G1X5.806
N750G1Y-3.525
N760G1X6.219
N770G1Y-3.445
N780G1X5.806
N790G1Y-3.365
N800G1X6.219
N810G1Y-3.285
N820G1X5.806
N830G1Y-3.205
N840G1X6.219
N850G1Y-3.125
N860G1X5.806
N870G1Y-3.045
N880G1X6.219
N890G1Y-2.965
N900G1X5.806
N910G1Y-2.885
N920G1X6.219
N930G1Y-2.805
N940G1X5.806
N950G1Y-2.725
N960G1X6.219
N970G1Y-2.707
N980G1X6.206Y-2.645
N990G1X5.823
N1000G1X5.831Y-2.615
N1010G1X5.864Y-2.565
N1020G1X6.168
N1030G00Z6.000
N1040G00X5.806Y-5.297
N1050G1Z-0.500F480.0
N1060G1X5.829Y-5.382F1200.0
N1070G1X5.872Y-5.444
N1080G1X5.933Y-5.483
N1090G1X6.014Y-5.500
N1100G1X7.570
N1110G1X7.660Y-5.483
N1120G1X7.724Y-5.444
N1130G1X7.763Y-5.383
N1140G1X7.777Y-5.300
N1150G1X7.765Y-5.217
N1160G1X7.727Y-5.155
N1170G1X7.662Y-5.112
N1180G1X7.571Y-5.090
N1190G1X6.219Y-5.092
N1200G1Y-2.707
N1210G1X6.201Y-2.617
N1220G1X6.161Y-2.553
N1230G1X6.101Y-2.514
N1240G1X6.020Y-2.500
N1250G1X5.938Y-2.511
N1260G1X5.875Y-2.550
N1270G1X5.831Y-2.615
N1280G1X5.806Y-2.707
N1290G1Y-5.297
N1300G00Z6.000
N1310G00X8.978Y-5.422
N1320G1Z-0.500F480.0
N1330G1X9.298F1200.0
N1340G1X9.323Y-5.385
N1350G1X9.336Y-5.342
N1360G1X8.946
N1370G1X8.936Y-5.294
N1380G1Y-5.262
N1390G1X9.350
N1400G1Y-5.182
N1410G1X8.936
N1420G1Y-5.102
N1430G1X9.350
N1440G1Y-5.022
N1450G1X8.936
N1460G1Y-4.942
N1470G1X9.350
N1480G1Y-4.862
N1490G1X8.936
N1500G1Y-4.782
N1510G1X9.350
N1520G1Y-4.702
N1530G1X8.936
N1540G1Y-4.622
N1550G1X9.350
N1560G1Y-4.542
N1570G1X8.936
N1580G1Y-4.462
N1590G1X9.350
N1600G1Y-4.382
N1610G1X8.936
N1620G1Y-4.302
N1630G1X9.350
N1640G1Y-4.222
N1650G1X8.936
N1660G1Y-4.142
N1670G1X9.350
N1680G1Y-4.062
N1690G1X8.936
N1700G1Y-3.982
N1710G1X9.350
N1720G1Y-3.902
N1730G1X8.936
N1740G1Y-3.822
N1750G1X9.350
N1760G1Y-3.742
N1770G1X8.936
N1780G1Y-3.662
N1790G1X9.350
N1800G1Y-3.582
N1810G1X8.936
N1820G1Y-3.502
N1830G1X9.350
N1840G1Y-3.422
N1850G1X8.936
N1860G1Y-3.342
N1870G1X9.350
N1880G1Y-3.262
N1890G1X8.936
N1900G1Y-3.182
N1910G1X9.350
N1920G1Y-3.102
N1930G1X8.936
N1940G1Y-3.022
N1950G1X9.350
N1960G1Y-2.942
N1970G1X8.936
N1980G1Y-2.912
N1990G1X8.399
N2000G1X8.309Y-2.893
N2010G1X8.260Y-2.862
N2020G1X10.025
N2030G1X10.038Y-2.853
N2040G1X10.076Y-2.791
N2050G1X10.078Y-2.782
N2060G1X8.206
N2070G1X8.194Y-2.706
N2080G1X8.195Y-2.702
N2090G1X10.088
N2100G1X10.076Y-2.622
N2110G1X8.208
N2120G1X8.246Y-2.559
N2130G1X8.273Y-2.542
N2140G1X10.011
N2150G00Z6.000
N2160G00X9.350Y-5.294
N2170G1Z-0.500F480.0
N2180G1Y-2.912F1200.0
N2190G1X9.886
N2200G1X9.975Y-2.894
N2210G1X10.038Y-2.853
N2220G1X10.076Y-2.791
N2230G1X10.089Y-2.706
N2240G1X10.076Y-2.621
N2250G1X10.038Y-2.559
N2260G1X9.974Y-2.518
N2270G1X9.886Y-2.499
N2280G1X8.399
N2290G1X8.310Y-2.518
N2300G1X8.246Y-2.559
N2310G1X8.208Y-2.622
N2320G1X8.194Y-2.706
N2330G1X8.207Y-2.790
N2340G1X8.245Y-2.852
N2350G1X8.309Y-2.893
N2360G1X8.399Y-2.912
N2370G1X8.936
N2380G1Y-5.294
N2390G1X8.954Y-5.383
N2400G1X8.993Y-5.446
N2410G1X9.053Y-5.485
N2420G1X9.134Y-5.499
N2430G1X9.215Y-5.487
N2440G1X9.279Y-5.449
N2450G1X9.323Y-5.385
N2460G1X9.350Y-5.294
N2470G00Z6.000
N2480G00X11.300Y-5.443
N2490G1Z-0.500F480.0
N2500G1X11.021F1200.0
N2510G1X10.999Y-5.427
N2520G1X10.961Y-5.370
N2530G1X10.960Y-5.363
N2540G1X11.354
N2550G1X11.358Y-5.355
N2560G1X11.381Y-5.283
N2570G1X10.954
N2580G1X10.964Y-5.228
N2590G1X10.972Y-5.203
N2600G1X11.407
N2610G1X11.432Y-5.123
N2620G1X10.998
N2630G1X11.023Y-5.043
N2640G1X11.458
N2650G1X11.483Y-4.963
N2660G1X11.048
N2670G1X11.074Y-4.883
N2680G1X11.509
N2690G1X11.534Y-4.803
N2700G1X11.099
N2710G1X11.125Y-4.723
N2720G1X11.560
N2730G1X11.585Y-4.643
N2740G1X11.150
N2750G1X11.176Y-4.563
N2760G1X11.611
N2770G1X11.636Y-4.483
N2780G1X11.201
N2790G1X11.227Y-4.403
N2800G1X11.662
N2810G1X11.687Y-4.323
N2820G1X11.252
N2830G1X11.277Y-4.243
N2840G1X11.713
N2850G1X11.738Y-4.163
N2860G1X11.303
N2870G1X11.328Y-4.083
N2880G1X11.764
N2890G1X11.789Y-4.003
N2900G1X11.354
N2910G1X11.379Y-3.923
N2920G1X11.815
N2930G1X11.840Y-3.843
N2940G1X11.405
N2950G1X11.430Y-3.763
N2960G1X11.866
N2970G1X11.891Y-3.683
N2980G1X11.456
N2990G1X11.481Y-3.603
N3000G1X11.917
N3010G1X11.942Y-3.523
N3020G1X11.507
N3030G1X11.532Y-3.443
N3040G1X11.968
N3050G1X11.993Y-3.363
N3060G1X11.557
N3070G1X11.583Y-3.283
N3080G1X12.019
N3090G1X12.044Y-3.203
N3100G1X11.608
N3110G1X11.634Y-3.123
N3120G1X12.070
N3130G1X12.095Y-3.043
N3140G1X11.659
N3150G1X11.685Y-2.963
N3160G1X12.121
N3170G1X12.146Y-2.883
N3180G1X10.624
N3190G1X10.578Y-2.847
N3200G1X10.553Y-2.803
N3210G1X12.172
N3220G1X12.183Y-2.768
N3230G1X12.188Y-2.723
N3240G1X10.530
N3250G1X10.527Y-2.706
N3260G1X10.538Y-2.643
N3270G1X12.179
N3280G1X12.153Y-2.584
N3290G1X12.128Y-2.563
N3300G1X10.580
N3310G00Z6.000
N3320G00X10.641Y-2.515
N3330G1Z-0.500F480.0
N3340G1X10.578Y-2.564F1200.0
N3350G1X10.540Y-2.632
N3360G1X10.527Y-2.706
N3370G1X10.540Y-2.780
N3380G1X10.578Y-2.847
N3390G1X10.641Y-2.896
N3400G1X10.730Y-2.912
N3410G1X11.701
N3420G1X10.964Y-5.228
N3430G1X10.950Y-5.304
N3440G1X10.961Y-5.370
N3450G1X10.999Y-5.427
N3460G1X11.062Y-5.473
N3470G1X11.135Y-5.500
N3480G1X11.203Y-5.501
N3490G1X11.265Y-5.475
N3500G1X11.321Y-5.423
N3510G1X11.358Y-5.355
N3520G1X12.183Y-2.768
N3530G1X12.193Y-2.672
N3540G1X12.153Y-2.584
N3550G1X12.078Y-2.520
N3560G1X11.984Y-2.499
N3570G1X10.730
N3580G1X10.641Y-2.515
N3590G00Z6.000
N3600G00X23.854Y-5.445
N3610G1Z-0.500F480.0
N3620G1X25.703F1200.0
N3630G1X25.705Y-5.444
N3640G1X25.744Y-5.383
N3650G1X25.747Y-5.365
N3660G1X23.805
N3670G1X23.787Y-5.297
N3680G1Y-5.285
N3690G1X25.755
N3700G1X25.746Y-5.217
N3710G1X25.738Y-5.205
N3720G1X23.787
N3730G1Y-5.125
N3740G1X25.662
N3750G1X25.643Y-5.112
N3760G1X25.552Y-5.090
N3770G1X24.200Y-5.092
N3780G1Y-5.045
N3790G1X23.787
N3800G1Y-4.965
N3810G1X24.200
N3820G1Y-4.885
N3830G1X23.787
N3840G1Y-4.805
N3850G1X24.200
N3860G1Y-4.725
N3870G1X23.787
N3880G1Y-4.645
N3890G1X24.200
N3900G1Y-4.565
N3910G1X23.787
N3920G1Y-4.485
N3930G1X24.200
N3940G1Y-4.405
N3950G1X23.787
N3960G1Y-4.325
N3970G1X24.200
N3980G1Y-4.245
N3990G1X23.787
N4000G1Y-4.165
N4010G1X24.200
N4020G1Y-4.085
N4030G1X23.787
N4040G1Y-4.005
N4050G1X24.200
N4060G1Y-3.925
N4070G1X23.787
N4080G1Y-3.845
N4090G1X24.200
N4100G1Y-3.765
N4110G1X23.787
N4120G1Y-3.685
N4130G1X24.200
N4140G1Y-3.605
N4150G1X23.787
N4160G1Y-3.525
N4170G1X24.200
N4180G1Y-3.445
N4190G1X23.787
N4200G1Y-3.365
N4210G1X24.200
N4220G1Y-3.285
N4230G1X23.787
N4240G1Y-3.205
N4250G1X24.200
N4260G1Y-3.125
N4270G1X23.787
N4280G1Y-3.045
N4290G1X24.200
N4300G1Y-2.965
N4310G1X23.787
N4320G1Y-2.885
N4330G1X24.200
N4340G1Y-2.805
N4350G1X23.787
N4360G1Y-2.725
N4370G1X24.200
N4380G1Y-2.707
N4390G1X24.187Y-2.645
N4400G1X23.803
N4410G1X23.812Y-2.615
N4420G1X23.845Y-2.565
N4430G1X24.149
N4440G00Z6.000
N4450G00X23.787Y-5.297
N4460G1Z-0.500F480.0
N4470G1X23.810Y-5.382F1200.0
N4480G1X23.853Y-5.444
N4490G1X23.914Y-5.483
N4500G1X23.995Y-5.500
N4510G1X25.550
N4520G1X25.640Y-5.483
N4530G1X25.705Y-5.444
N4540G1X25.744Y-5.383
N4550G1X25.758Y-5.300
N4560G1X25.746Y-5.217
N4570G1X25.707Y-5.155
N4580G1X25.643Y-5.112
N4590G1X25.552Y-5.090
N4600G1X24.200Y-5.092
N4610G1Y-2.707
N4620G1X24.181Y-2.617
N4630G1X24.142Y-2.553
N4640G1X24.082Y-2.514
N4650G1X24.001Y-2.500
N4660G1X23.918Y-2.511
N4670G1X23.855Y-2.550
N4680G1X23.812Y-2.615
N4690G1X23.787Y-2.707
N4700G1Y-5.297
N4710G00Z6.000
N4720G00X26.959Y-5.422
N4730G1Z-0.500F480.0
N4740G1X27.279F1200.0
N4750G1X27.304Y-5.385
N4760G1X27.317Y-5.342
N4770G1X26.927
N4780G1X26.917Y-5.294
N4790G1Y-5.262
N4800G1X27.330
N4810G1Y-5.182
N4820G1X26.917
N4830G1Y-5.102
N4840G1X27.330
N4850G1Y-5.022
N4860G1X26.917
N4870G1Y-4.942
N4880G1X27.330
N4890G1Y-4.862
N4900G1X26.917
N4910G1Y-4.782
N4920G1X27.330
N4930G1Y-4.702
N4940G1X26.917
N4950G1Y-4.622
N4960G1X27.330
N4970G1Y-4.542
N4980G1X26.917
N4990G1Y-4.462
N5000G1X27.330
N5010G1Y-4.382
N5020G1X26.917
N5030G1Y-4.302
N5040G1X27.330
N5050G1Y-4.222
N5060G1X26.917
N5070G1Y-4.142
N5080G1X27.330
N5090G1Y-4.062
N5100G1X26.917
N5110G1Y-3.982
N5120G1X27.330
N5130G1Y-3.902
N5140G1X26.917
N5150G1Y-3.822
N5160G1X27.330
N5170G1Y-3.742
N5180G1X26.917
N5190G1Y-3.662
N5200G1X27.330
N5210G1Y-3.582
N5220G1X26.917
N5230G1Y-3.502
N5240G1X27.330
N5250G1Y-3.422
N5260G1X26.917
N5270G1Y-3.342
N5280G1X27.330
N5290G1Y-3.262
N5300G1X26.917
N5310G1Y-3.182
N5320G1X27.330
N5330G1Y-3.102
N5340G1X26.917
N5350G1Y-3.022
N5360G1X27.330
N5370G1Y-2.942
N5380G1X26.917
N5390G1Y-2.912
N5400G1X26.380
N5410G1X26.290Y-2.893
N5420G1X26.241Y-2.862
N5430G1X28.006
N5440G1X28.019Y-2.853
N5450G1X28.057Y-2.791
N5460G1X28.058Y-2.782
N5470G1X26.186
N5480G1X26.175Y-2.706
N5490G1X26.176Y-2.702
N5500G1X28.069
N5510G1X28.056Y-2.622
N5520G1X26.188
N5530G1X26.227Y-2.559
N5540G1X26.254Y-2.542
N5550G1X27.992
N5560G00Z6.000
N5570G00X27.330Y-5.294
N5580G1Z-0.500F480.0
N5590G1Y-2.912F1200.0
N5600G1X27.867
N5610G1X27.956Y-2.894
N5620G1X28.019Y-2.853
N5630G1X28.057Y-2.791
N5640G1X28.069Y-2.706
N5650G1X28.056Y-2.621
N5660G1X28.018Y-2.559
N5670G1X27.955Y-2.518
N5680G1X27.867Y-2.499
N5690G1X26.380
N5700G1X26.290Y-2.518
N5710G1X26.227Y-2.559
N5720G1X26.188Y-2.622
N5730G1X26.175Y-2.706
N5740G1X26.188Y-2.790
N5750G1X26.226Y-2.852
N5760G1X26.290Y-2.893
N5770G1X26.380Y-2.912
N5780G1X26.917
N5790G1Y-5.294
N5800G1X26.935Y-5.383
N5810G1X26.974Y-5.446
N5820G1X27.034Y-5.485
N5830G1X27.114Y-5.499
N5840G1X27.196Y-5.487
N5850G1X27.259Y-5.449
N5860G1X27.304Y-5.385
N5870G1X27.330Y-5.294
N5880G00Z6.000
N5890G00X29.643Y-5.451
N5900G1Z-0.500F480.0
N5910G1X29.091F1200.0
N5920G1X28.951Y-5.397
N5930G1X28.915Y-5.371
N5940G1X29.806
N5950G1X29.894Y-5.313
N5960G1X29.916Y-5.291
N5970G1X28.805
N5980G1X28.778Y-5.271
N5990G1X28.728Y-5.211
N6000G1X29.998
N6010G1X30.034Y-5.176
N6020G1X30.062Y-5.131
N6030G1X28.661
N6040G1X28.641Y-5.107
N6050G1X28.615Y-5.051
N6060G1X29.200
N6070G1X29.110Y-5.008
N6080G1X29.070Y-4.971
N6090G1X28.577
N6100G1X28.549Y-4.913
N6110G1X28.544Y-4.891
N6120G1X28.998
N6130G1X28.953Y-4.811
N6140G1X28.526
N6150G1X28.513Y-4.756
N6160G1X28.512Y-4.731
N6170G1X28.931
N6180G1X28.920Y-4.683
N6190G1X28.921Y-4.651
N6200G1X28.509
N6210G1X28.507Y-4.601
N6220G1X28.511Y-4.571
N6230G1X28.924
N6240G1X28.924Y-4.568
N6250G1X28.950Y-4.491
N6260G1X28.523
N6270G1X28.529Y-4.448
N6280G1X28.542Y-4.411
N6290G1X28.994
N6300G1X29.032Y-4.356
N6310G1X29.059Y-4.331
N6320G1X28.570
N6330G1X28.581Y-4.298
N6340G1X28.603Y-4.251
N6350G1X29.168
N6360G1X29.229Y-4.222
N6370G1X29.344Y-4.205
N6380G1X29.471Y-4.222
N6390G1X29.539Y-4.251
N6400G1X30.114
N6410G1X30.150Y-4.319
N6420G1X30.154Y-4.331
N6430G1X29.658
N6440G1X29.707Y-4.378
N6450G1X29.725Y-4.411
N6460G1X30.178
N6470G1X30.198Y-4.478
N6480G1X30.199Y-4.491
N6490G1X29.768
N6500G1X29.776Y-4.505
N6510G1X29.787Y-4.571
N6520G1X30.206
N6530G1X30.213Y-4.651
N6540G1X29.798
N6550G1X29.791Y-4.731
N6560G1X30.205
N6570G1X30.197Y-4.811
N6580G1X29.768
N6590G1X29.767Y-4.816
N6600G1X29.726Y-4.890
N6610G1X29.725Y-4.891
N6620G1X30.177
N6630G1X30.150Y-4.971
N6640G1X29.652
N6650G1X29.602Y-5.013
N6660G1X29.530Y-5.051
N6670G1X30.113
N6680G00Z6.000
N6690G00X30.071Y-4.171
N6700G1Z-0.500F480.0
N6710G1X28.658F1200.0
N6720G1X28.714Y-4.091
N6730G1X30.004
N6740G1X29.961Y-4.040
N6750G1X29.953Y-4.034
N6760G1X29.947Y-4.027
N6770G1X29.937Y-4.011
N6780G1X28.791
N6790G1X28.803Y-4.000
N6800G1X28.746Y-3.945
N6810G1X28.734Y-3.931
N6820G1X29.986
N6830G1X30.053Y-3.851
N6840G1X28.670
N6850G1X28.619Y-3.771
N6860G1X29.247
N6870G1X29.152Y-3.743
N6880G1X29.086Y-3.703
N6890G1X29.074Y-3.691
N6900G1X28.579
N6910G1X28.551Y-3.611
N6920G1X29.003
N6930G1X28.984Y-3.584
N6940G1X28.960Y-3.531
N6950G1X28.531
N6960G1X28.521Y-3.451
N6970G1X28.936
N6980G1X28.920Y-3.371
N6990G1X28.511
N7000G1X28.509Y-3.354
N7010G1X28.516Y-3.291
N7020G1X28.930
N7030G1X28.938Y-3.233
N7040G1X28.949Y-3.211
N7050G1X28.525
N7060G1X28.533Y-3.143
N7070G1X28.537Y-3.131
N7080G1X28.988
N7090G1X28.998Y-3.110
N7100G1X29.050Y-3.051
N7110G1X28.567
N7120G1X28.597Y-2.971
N7130G1X29.144
N7140G1X29.197Y-2.937
N7150G1X29.309Y-2.906
N7160G1X29.426Y-2.914
N7170G1X29.548Y-2.960
N7180G1X29.565Y-2.971
N7190G1X30.119
N7200G1X30.158Y-3.051
N7210G1X29.673
N7220G1X29.736Y-3.124
N7230G1X29.739Y-3.131
N7240G1X30.180
N7250G1X30.201Y-3.211
N7260G1X29.775
N7270G1X29.783Y-3.231
N7280G1X29.791Y-3.291
N7290G1X30.206
N7300G1X30.211Y-3.371
N7310G1X29.796
N7320G1X29.783Y-3.451
N7330G1X30.203
N7340G1X30.194Y-3.531
N7350G1X29.765
N7360G1X29.737Y-3.588
N7370G1X29.718Y-3.611
N7380G1X30.171
N7390G1X30.146Y-3.691
N7400G1X29.631
N7410G1X29.572Y-3.736
N7420G1X29.470Y-3.771
N7430G1X30.102
N7440G00Z6.000
N7450G00X30.074Y-2.891
N7460G1Z-0.500F480.0
N7470G1X28.648F1200.0
N7480G1X28.702Y-2.811
N7490G1X30.015
N7500G1X29.994Y-2.783
N7510G1X29.940Y-2.731
N7520G1X28.784
N7530G1X28.852Y-2.668
N7540G1X28.880Y-2.651
N7550G1X29.841
N7560G1X29.791Y-2.617
N7570G1X29.696Y-2.571
N7580G1X29.016
N7590G00Z6.000
N7600G00X30.145Y-3.694
N7610G1Z-0.500F480.0
N7620G1X30.193Y-3.543F1200.0
N7630G1X30.212Y-3.378
N7640G1X30.202Y-3.214
N7650G1X30.162Y-3.059
N7660G1X30.092Y-2.916
N7670G1X29.994Y-2.783
N7680G1X29.898Y-2.691
N7690G1X29.791Y-2.617
N7700G1X29.672Y-2.560
N7710G1X29.540Y-2.520
N7720G1X29.405Y-2.500
N7730G1X29.273Y-2.501
N7740G1X29.144Y-2.524
N7750G1X29.019Y-2.569
N7760G1X28.852Y-2.668
N7770G1X28.710Y-2.801
N7780G1X28.601Y-2.961
N7790G1X28.533Y-3.143
N7800G1X28.509Y-3.354
N7810G1X28.536Y-3.571
N7820G1X28.595Y-3.735
N7830G1X28.693Y-3.886
N7840G1X28.746Y-3.945
N7850G1X28.803Y-4.000
N7860G1X28.762Y-4.038
N7870G1X28.725Y-4.075
N7880G1X28.606Y-4.245
N7890G1X28.581Y-4.298
N7900G1X28.529Y-4.448
N7910G1X28.507Y-4.601
N7920G1X28.513Y-4.756
N7930G1X28.549Y-4.913
N7940G1X28.641Y-5.107
N7950G1X28.778Y-5.271
N7960G1X28.951Y-5.397
N7970G1X29.150Y-5.474
N7980G1X29.277Y-5.495
N7990G1X29.401Y-5.499
N8000G1X29.520Y-5.486
N8010G1X29.635Y-5.455
N8020G1X29.774Y-5.392
N8030G1X29.894Y-5.313
N8040G1X30.034Y-5.176
N8050G1X30.134Y-5.020
N8060G1X30.193Y-4.845
N8070G1X30.213Y-4.651
N8080G1X30.198Y-4.478
N8090G1X30.150Y-4.319
N8100G1X30.072Y-4.173
N8110G1X29.961Y-4.040
N8120G1X29.953Y-4.034
N8130G1X29.947Y-4.027
N8140G1X29.925Y-3.993
N8150G1X29.961Y-3.961
N8160G1X30.068Y-3.834
N8170G1X30.145Y-3.694
N8180G00Z6.000
N8190G00X29.690Y-3.647
N8200G1Z-0.500F480.0
N8210G1X29.572Y-3.736F1200.0
N8220G1X29.437Y-3.783
N8230G1X29.294Y-3.786
N8240G1X29.152Y-3.743
N8250G1X29.086Y-3.703
N8260G1X29.030Y-3.650
N8270G1X28.984Y-3.584
N8280G1X28.948Y-3.505
N8290G1X28.919Y-3.367
N8300G1X28.938Y-3.233
N8310G1X28.998Y-3.110
N8320G1X29.091Y-3.006
N8330G1X29.197Y-2.937
N8340G1X29.309Y-2.906
N8350G1X29.426Y-2.914
N8360G1X29.548Y-2.960
N8370G1X29.658Y-3.034
N8380G1X29.736Y-3.124
N8390G1X29.783Y-3.231
N8400G1X29.799Y-3.354
N8410G1X29.771Y-3.519
N8420G1X29.737Y-3.588
N8430G1X29.690Y-3.647
N8440G00Z6.000
N8450G00X29.229Y-4.222
N8460G1Z-0.500F480.0
N8470G1X29.344Y-4.205F1200.0
N8480G1X29.471Y-4.222
N8490G1X29.602Y-4.279
N8500G1X29.707Y-4.378
N8510G1X29.776Y-4.505
N8520G1X29.799Y-4.646
N8530G1X29.791Y-4.734
N8540G1X29.767Y-4.816
N8550G1X29.726Y-4.890
N8560G1X29.670Y-4.957
N8570G1X29.602Y-5.013
N8580G1X29.528Y-5.053
N8590G1X29.447Y-5.076
N8600G1X29.359Y-5.084
N8610G1X29.229Y-5.065
N8620G1X29.110Y-5.008
N8630G1X29.013Y-4.918
N8640G1X28.949Y-4.805
N8650G1X28.920Y-4.683
N8660G1X28.924Y-4.568
N8670G1X28.961Y-4.459
N8680G1X29.032Y-4.356
N8690G1X29.125Y-4.272
N8700G1X29.229Y-4.222
N8710G00Z6.000
N8720G00X29.827Y14.568
N8730G1Z-0.500F480.0
N8740G1X29.527F1200.0
N8750G1X29.490Y14.604
N8760G1X29.480Y14.648
N8770G1X29.873
N8780G1X29.879Y14.708
N8790G1Y14.728
N8800G1X29.466
N8810G1X29.466Y14.808
N8820G1X29.879
N8830G1Y14.864
N8840G1Y14.888
N8850G1X29.465
N8860G1X29.465Y14.968
N8870G1X29.879
N8880G1Y15.039
N8890G1X30.259
N8900G1X30.313Y15.048
N8910G1X28.421
N8920G1X28.370Y15.060
N8930G1X28.298Y15.124
N8940G1X28.296Y15.128
N8950G1X30.426
N8960G1X30.450Y15.171
N8970G1X30.456Y15.208
N8980G1X28.262
N8990G1X28.260Y15.213
N9000G1X28.266Y15.288
N9010G1X30.455
N9020G1X30.450Y15.320
N9030G1X30.422Y15.368
N9040G1X28.287
N9050G1X28.312Y15.448
N9060G1X30.285
N9070G1X30.259Y15.453
N9080G1X29.879
N9090G1Y15.528
N9100G1X29.465
N9110G1Y15.608
N9120G1X29.879
N9130G1Y15.688
N9140G1X29.465
N9150G1Y15.768
N9160G1X29.879
N9170G1Y15.848
N9180G1X29.465
N9190G1Y15.928
N9200G1X29.879
N9210G1Y16.008
N9220G1X29.465
N9230G1Y16.061
N9240G1X29.468Y16.088
N9250G1X29.874
N9260G1X29.860Y16.152
N9270G1X29.847Y16.168
N9280G1X29.492
N9290G1X29.494Y16.174
N9300G1X29.532Y16.216
N9310G1X29.583Y16.248
N9320G1X29.763
N9330G00Z6.000
N9340G00X28.773Y15.528
N9350G1Z-0.500F480.0
N9360G1X28.338F1200.0
N9370G1X28.364Y15.608
N9380G1X28.798
N9390G1X28.824Y15.688
N9400G1X28.390
N9410G1X28.415Y15.768
N9420G1X28.850
N9430G1X28.875Y15.848
N9440G1X28.441
N9450G1X28.467Y15.928
N9460G1X28.901
N9470G1X28.927Y16.008
N9480G1X28.492
N9490G1X28.518Y16.088
N9500G1X28.953
N9510G1X28.978Y16.168
N9520G1X28.544
N9530G1X28.569Y16.248
N9540G1X29.004
N9550G1X29.030Y16.328
N9560G1X28.595
N9570G1X28.621Y16.408
N9580G1X29.056
N9590G1X29.081Y16.488
N9600G1X28.647
N9610G1X28.672Y16.568
N9620G1X29.107
N9630G1X29.133Y16.648
N9640G1X28.698
N9650G1X28.724Y16.728
N9660G1X29.158
N9670G1X29.184Y16.808
N9680G1X28.749
N9690G1X28.775Y16.888
N9700G1X29.210
N9710G1X29.236Y16.968
N9720G1X28.801
N9730G1X28.826Y17.048
N9740G1X29.261
N9750G1X29.287Y17.128
N9760G1X28.852
N9770G1X28.878Y17.208
N9780G1X29.313
N9790G1X29.320Y17.230
N9800G1X29.331Y17.288
N9810G1X28.903
N9820G1X28.926Y17.358
N9830G1X28.926Y17.362
N9840G1X28.929Y17.368
N9850G1X29.323
N9860G1X29.291Y17.422
N9870G1X29.260Y17.448
N9880G1X28.984
N9890G00Z6.000
N9900G00X29.466Y14.708
N9910G1Z-0.500F480.0
N9920G1X29.490Y14.604F1200.0
N9930G1X29.565Y14.532
N9940G1X29.667Y14.502
N9950G1X29.771Y14.526
N9960G1X29.818Y14.558
N9970G1X29.852Y14.598
N9980G1X29.873Y14.648
N9990G1X29.879Y14.708
N10000G1Y14.864
N10010G1Y15.039
N10020G1X30.259
N10030G1X30.347Y15.055
N10040G1X30.411Y15.103
N10050G1X30.450Y15.171
N10060G1X30.462Y15.245
N10070G1X30.450Y15.320
N10080G1X30.411Y15.388
N10090G1X30.347Y15.437
N10100G1X30.259Y15.453
N10110G1X29.879
N10120G1Y16.061
N10130G1X29.860Y16.152
N10140G1X29.803Y16.224
N10150G1X29.752Y16.256
N10160G1X29.698Y16.270
N10170G1X29.642Y16.268
N10180G1X29.583Y16.249
N10190G1X29.532Y16.216
N10200G1X29.494Y16.174
N10210G1X29.472Y16.122
N10220G1X29.465Y16.061
N10230G1Y15.453
N10240G1X28.748
N10250G1X29.320Y17.230
N10260G1X29.334Y17.303
N10270G1X29.324Y17.367
N10280G1X29.291Y17.422
N10290G1X29.235Y17.469
N10300G1X29.146Y17.500
N10310G1X29.056Y17.491
N10320G1X28.979Y17.446
N10330G1X28.929Y17.368
N10340G1X28.926Y17.362
N10350G1X28.926Y17.358
N10360G1X28.268Y15.310
N10370G1X28.260Y15.213
N10380G1X28.298Y15.124
N10390G1X28.370Y15.060
N10400G1X28.464Y15.039
N10410G1X29.465
N10420G1X29.466Y14.869
N10430G1X29.466Y14.708
N10440G00Z6.000
N10450G00X26.710Y14.578
N10460G1Z-0.500F480.0
N10470G1X27.030F1200.0
N10480G1X27.055Y14.615
N10490G1X27.068Y14.658
N10500G1X26.678
N10510G1X26.668Y14.706
N10520G1Y14.738
N10530G1X27.081
N10540G1Y14.818
N10550G1X26.668
N10560G1Y14.898
N10570G1X27.081
N10580G1Y14.978
N10590G1X26.668
N10600G1Y15.058
N10610G1X27.081
N10620G1Y15.138
N10630G1X26.668
N10640G1Y15.218
N10650G1X27.081
N10660G1Y15.298
N10670G1X26.668
N10680G1Y15.378
N10690G1X27.081
N10700G1Y15.458
N10710G1X26.668
N10720G1Y15.538
N10730G1X27.081
N10740G1Y15.618
N10750G1X26.668
N10760G1Y15.698
N10770G1X27.081
N10780G1Y15.778
N10790G1X26.668
N10800G1Y15.858
N10810G1X27.081
N10820G1Y15.938
N10830G1X26.668
N10840G1Y16.018
N10850G1X27.081
N10860G1Y16.098
N10870G1X26.668
N10880G1Y16.178
N10890G1X27.081
N10900G1Y16.258
N10910G1X26.668
N10920G1Y16.338
N10930G1X27.081
N10940G1Y16.418
N10950G1X26.668
N10960G1Y16.498
N10970G1X27.081
N10980G1Y16.578
N10990G1X26.668
N11000G1Y16.658
N11010G1X27.081
N11020G1Y16.738
N11030G1X26.668
N11040G1Y16.818
N11050G1X27.081
N11060G1Y16.898
N11070G1X26.668
N11080G1Y16.978
N11090G1X27.081
N11100G1Y17.058
N11110G1X26.668
N11120G1Y17.088
N11130G1X26.131
N11140G1X26.041Y17.107
N11150G1X25.992Y17.138
N11160G1X27.757
N11170G1X27.770Y17.147
N11180G1X27.808Y17.209
N11190G1X27.809Y17.218
N11200G1X25.937
N11210G1X25.926Y17.294
N11220G1X25.927Y17.298
N11230G1X27.820
N11240G1X27.807Y17.378
N11250G1X25.939
N11260G1X25.978Y17.441
N11270G1X26.005Y17.458
N11280G1X27.743
N11290G00Z6.000
N11300G00X27.081Y14.706
N11310G1Z-0.500F480.0
N11320G1Y17.088F1200.0
N11330G1X27.617
N11340G1X27.707Y17.106
N11350G1X27.770Y17.147
N11360G1X27.808Y17.209
N11370G1X27.820Y17.294
N11380G1X27.807Y17.379
N11390G1X27.769Y17.441
N11400G1X27.706Y17.482
N11410G1X27.617Y17.501
N11420G1X26.131
N11430G1X26.041Y17.482
N11440G1X25.978Y17.441
N11450G1X25.939Y17.378
N11460G1X25.926Y17.294
N11470G1X25.939Y17.210
N11480G1X25.977Y17.148
N11490G1X26.041Y17.107
N11500G1X26.131Y17.088
N11510G1X26.668
N11520G1Y14.706
N11530G1X26.686Y14.617
N11540G1X26.725Y14.554
N11550G1X26.785Y14.515
N11560G1X26.865Y14.501
N11570G1X26.947Y14.513
N11580G1X27.010Y14.551
N11590G1X27.055Y14.615
N11600G1X27.081Y14.706
N11610G00Z6.000
N11620G00X23.605Y14.555
N11630G1Z-0.500F480.0
N11640G1X25.454F1200.0
N11650G1X25.456Y14.556
N11660G1X25.495Y14.617
N11670G1X25.498Y14.635
N11680G1X23.556
N11690G1X23.538Y14.703
N11700G1Y14.715
N11710G1X25.506
N11720G1X25.497Y14.783
N11730G1X25.489Y14.795
N11740G1X23.538
N11750G1Y14.875
N11760G1X25.413
N11770G1X25.394Y14.888
N11780G1X25.303Y14.910
N11790G1X23.951Y14.908
N11800G1Y14.955
N11810G1X23.538
N11820G1Y15.035
N11830G1X23.951
N11840G1Y15.115
N11850G1X23.538
N11860G1Y15.195
N11870G1X23.951
N11880G1Y15.275
N11890G1X23.538
N11900G1Y15.355
N11910G1X23.951
N11920G1Y15.435
N11930G1X23.538
N11940G1Y15.515
N11950G1X23.951
N11960G1Y15.595
N11970G1X23.538
N11980G1Y15.675
N11990G1X23.951
N12000G1Y15.755
N12010G1X23.538
N12020G1Y15.835
N12030G1X23.951
N12040G1Y15.915
N12050G1X23.538
N12060G1Y15.995
N12070G1X23.951
N12080G1Y16.075
N12090G1X23.538
N12100G1Y16.155
N12110G1X23.951
N12120G1Y16.235
N12130G1X23.538
N12140G1Y16.315
N12150G1X23.951
N12160G1Y16.395
N12170G1X23.538
N12180G1Y16.475
N12190G1X23.951
N12200G1Y16.555
N12210G1X23.538
N12220G1Y16.635
N12230G1X23.951
N12240G1Y16.715
N12250G1X23.538
N12260G1Y16.795
N12270G1X23.951
N12280G1Y16.875
N12290G1X23.538
N12300G1Y16.955
N12310G1X23.951
N12320G1Y17.035
N12330G1X23.538
N12340G1Y17.115
N12350G1X23.951
N12360G1Y17.195
N12370G1X23.538
N12380G1Y17.275
N12390G1X23.951
N12400G1Y17.293
N12410G1X23.938Y17.355
N12420G1X23.554
N12430G1X23.563Y17.385
N12440G1X23.596Y17.435
N12450G1X23.900
N12460G00Z6.000
N12470G00X23.538Y14.703
N12480G1Z-0.500F480.0
N12490G1X23.561Y14.618F1200.0
N12500G1X23.604Y14.556
N12510G1X23.665Y14.517
N12520G1X23.746Y14.500
N12530G1X25.301
N12540G1X25.391Y14.517
N12550G1X25.456Y14.556
N12560G1X25.495Y14.617
N12570G1X25.509Y14.700
N12580G1X25.497Y14.783
N12590G1X25.458Y14.845
N12600G1X25.394Y14.888
N12610G1X25.303Y14.910
N12620G1X23.951Y14.908
N12630G1Y17.293
N12640G1X23.932Y17.383
N12650G1X23.893Y17.447
N12660G1X23.833Y17.486
N12670G1X23.751Y17.500
N12680G1X23.669Y17.489
N12690G1X23.606Y17.450
N12700G1X23.563Y17.385
N12710G1X23.538Y17.293
N12720G1Y14.703
N12730G00Z6.000
N12740G00X11.045Y14.550
N12750G1Z-0.500F480.0
N12760G1X11.664F1200.0
N12770G1X11.708Y14.563
N12780G1X11.847Y14.630
N12790G1X10.857
N12800G1X10.742Y14.710
N12810G1X11.961
N12820G1X12.011Y14.747
N12830G1X12.051Y14.790
N12840G1X10.652
N12850G1X10.587Y14.854
N12860G1X10.576Y14.870
N12870G1X12.123
N12880G1X12.166Y14.917
N12890G1X12.185Y14.950
N12900G1X11.549
N12910G1X11.641Y14.989
N12920G1X11.696Y15.030
N12930G1X12.230
N12940G1X12.275Y15.110
N12950G1X11.786
N12960G1X11.852Y15.187
N12970G1X11.854Y15.190
N12980G1X12.301
N12990G1X12.325Y15.270
N13000G1X11.891
N13010G1X11.907Y15.304
N13020G1X11.921Y15.349
N13030G1X11.922Y15.350
N13040G1X12.348
N13050G1X12.350Y15.430
N13060G1X11.935
N13070G1X11.936Y15.510
N13080G1X12.352
N13090G1X12.354Y15.581
N13100G1X12.352Y15.590
N13110G1X11.935
N13120G1X11.932Y15.632
N13130G1X11.919Y15.670
N13140G1X12.339
N13150G1X12.329Y15.732
N13160G1X12.323Y15.750
N13170G1X11.887
N13180G1X11.850Y15.821
N13190G1X11.843Y15.830
N13200G1X12.299
N13210G1X12.285Y15.874
N13220G1X12.267Y15.910
N13230G1X11.780
N13240G1X11.703Y15.980
N13250G1X11.686Y15.990
N13260G1X12.229
N13270G1X12.222Y16.006
N13280G1X12.179Y16.070
N13290G1X11.525
N13300G1X11.507Y16.077
N13310G1X11.401Y16.096
N13320G1X11.291Y16.094
N13330G1X11.176Y16.071
N13340G1X11.173Y16.070
N13350G1X11.029
N13360G00Z6.000
N13370G00X11.137Y14.950
N13380G1Z-0.500F480.0
N13390G1X10.519F1200.0
N13400G1X10.488Y14.994
N13410G1X10.470Y15.030
N13420G1X11.000
N13430G1X10.981Y15.044
N13440G1X10.924Y15.110
N13450G1X10.433
N13460G1X10.413Y15.151
N13470G1X10.402Y15.190
N13480G1X10.854
N13490G1X10.848Y15.197
N13500G1X10.814Y15.270
N13510G1X10.380
N13520G1X10.365Y15.324
N13530G1X10.363Y15.350
N13540G1X10.784
N13550G1X10.772Y15.399
N13560G1X10.759Y15.430
N13570G1X10.375
N13580G1X10.389Y15.469
N13590G1X10.422Y15.510
N13600G1X10.705
N13610G00Z6.000
N13620G00X10.931Y16.150
N13630G1Z-0.500F480.0
N13640G1X12.120F1200.0
N13650G1X12.047Y16.230
N13660G1X10.897
N13670G1X10.895Y16.237
N13680G1X10.897Y16.310
N13690G1X11.952
N13700G1X11.927Y16.331
N13710G1X11.826Y16.390
N13720G1X10.937
N13730G1X10.939Y16.394
N13740G1X11.001Y16.470
N13750G1X11.639
N13760G1X11.596Y16.481
N13770G1X11.551Y16.492
N13780G1X11.599Y16.550
N13790G1X11.066
N13800G1X11.131Y16.630
N13810G1X11.663
N13820G1X11.728Y16.710
N13830G1X11.195
N13840G1X11.260Y16.790
N13850G1X11.793
N13860G1X11.858Y16.870
N13870G1X11.325
N13880G1X11.390Y16.950
N13890G1X11.923
N13900G1X11.988Y17.030
N13910G1X11.454
N13920G1X11.500Y17.087
N13930G1X10.807
N13940G1X10.719Y17.105
N13950G1X10.712Y17.110
N13960G1X12.053
N13970G1X12.096Y17.164
N13980G1X12.111Y17.190
N13990G1X10.630
N14000G1X10.605Y17.238
N14010G1X10.604Y17.270
N14020G1X12.138
N14030G1X12.140Y17.322
N14040G1X12.132Y17.350
N14050G1X10.609
N14060G1X10.625Y17.404
N14070G1X10.645Y17.430
N14080G1X12.093
N14090G00Z6.000
N14100G00X10.493Y15.556
N14110G1Z-0.500F480.0
N14120G1X10.432Y15.524F1200.0
N14130G1X10.389Y15.469
N14140G1X10.362Y15.392
N14150G1X10.362Y15.355
N14160G1X10.365Y15.324
N14170G1X10.413Y15.151
N14180G1X10.488Y14.994
N14190G1X10.587Y14.854
N14200G1X10.713Y14.731
N14210G1X10.857Y14.630
N14220G1X11.013Y14.558
N14230G1X11.182Y14.515
N14240G1X11.362Y14.501
N14250G1X11.541Y14.516
N14260G1X11.708Y14.563
N14270G1X11.865Y14.639
N14280G1X12.011Y14.747
N14290G1X12.166Y14.917
N14300G1X12.282Y15.123
N14310G1X12.348Y15.349
N14320G1X12.354Y15.581
N14330G1X12.329Y15.732
N14340G1X12.285Y15.874
N14350G1X12.222Y16.006
N14360G1X12.139Y16.129
N14370G1X12.040Y16.238
N14380G1X11.927Y16.331
N14390G1X11.799Y16.407
N14400G1X11.657Y16.465
N14410G1X11.641Y16.470
N14420G1X11.596Y16.481
N14430G1X11.551Y16.492
N14440G1X12.096Y17.164
N14450G1X12.137Y17.234
N14460G1X12.140Y17.322
N14470G1X12.116Y17.401
N14480G1X12.074Y17.457
N14490G1X12.013Y17.490
N14500G1X11.935Y17.501
N14510G1X10.806
N14520G1X10.727Y17.490
N14530G1X10.667Y17.458
N14540G1X10.625Y17.404
N14550G1X10.602Y17.328
N14560G1X10.605Y17.238
N14570G1X10.647Y17.159
N14580G1X10.719Y17.105
N14590G1X10.807Y17.087
N14600G1X11.500
N14610G1X10.939Y16.394
N14620G1X10.897Y16.324
N14630G1X10.895Y16.237
N14640G1X10.905Y16.194
N14650G1X10.947Y16.123
N14660G1X11.008Y16.077
N14670G1X11.072Y16.057
N14680G1X11.140Y16.060
N14690G1X11.167Y16.068
N14700G1X11.176Y16.071
N14710G1X11.291Y16.094
N14720G1X11.401Y16.096
N14730G1X11.507Y16.077
N14740G1X11.609Y16.038
N14750G1X11.703Y15.980
N14760G1X11.783Y15.908
N14770G1X11.850Y15.821
N14780G1X11.904Y15.718
N14790G1X11.932Y15.632
N14800G1X11.937Y15.554
N14810G1X11.934Y15.390
N14820G1X11.921Y15.349
N14830G1X11.907Y15.304
N14840G1X11.852Y15.187
N14850G1X11.757Y15.077
N14860G1X11.641Y14.989
N14870G1X11.522Y14.939
N14880G1X11.318Y14.915
N14890G1X11.225Y14.925
N14900G1X11.138Y14.950
N14910G1X11.057Y14.990
N14920G1X10.981Y15.044
N14930G1X10.848Y15.197
N14940G1X10.793Y15.314
N14950G1X10.772Y15.399
N14960G1X10.740Y15.474
N14970G1X10.683Y15.534
N14980G1X10.571Y15.567
N14990G1X10.493Y15.556
N15000G00Z6.000
N15010G00X8.814Y14.578
N15020G1Z-0.500F480.0
N15030G1X9.134F1200.0
N15040G1X9.159Y14.615
N15050G1X9.172Y14.658
N15060G1X8.782
N15070G1X8.772Y14.706
N15080G1Y14.738
N15090G1X9.185
N15100G1Y14.818
N15110G1X8.772
N15120G1Y14.898
N15130G1X9.185
N15140G1Y14.978
N15150G1X8.772
N15160G1Y15.058
N15170G1X9.185
N15180G1Y15.138
N15190G1X8.772
N15200G1Y15.218
N15210G1X9.185
N15220G1Y15.298
N15230G1X8.772
N15240G1Y15.378
N15250G1X9.185
N15260G1Y15.458
N15270G1X8.772
N15280G1Y15.538
N15290G1X9.185
N15300G1Y15.618
N15310G1X8.772
N15320G1Y15.698
N15330G1X9.185
N15340G1Y15.778
N15350G1X8.772
N15360G1Y15.858
N15370G1X9.185
N15380G1Y15.938
N15390G1X8.772
N15400G1Y16.018
N15410G1X9.185
N15420G1Y16.098
N15430G1X8.772
N15440G1Y16.178
N15450G1X9.185
N15460G1Y16.258
N15470G1X8.772
N15480G1Y16.338
N15490G1X9.185
N15500G1Y16.418
N15510G1X8.772
N15520G1Y16.498
N15530G1X9.185
N15540G1Y16.578
N15550G1X8.772
N15560G1Y16.658
N15570G1X9.185
N15580G1Y16.738
N15590G1X8.772
N15600G1Y16.818
N15610G1X9.185
N15620G1Y16.898
N15630G1X8.772
N15640G1Y16.978
N15650G1X9.185
N15660G1Y17.058
N15670G1X8.772
N15680G1Y17.088
N15690G1X8.235
N15700G1X8.145Y17.107
N15710G1X8.096Y17.138
N15720G1X9.861
N15730G1X9.874Y17.147
N15740G1X9.912Y17.209
N15750G1X9.913Y17.218
N15760G1X8.042
N15770G1X8.030Y17.294
N15780G1X8.031Y17.298
N15790G1X9.924
N15800G1X9.912Y17.378
N15810G1X8.044
N15820G1X8.082Y17.441
N15830G1X8.109Y17.458
N15840G1X9.847
N15850G00Z6.000
N15860G00X9.185Y14.706
N15870G1Z-0.500F480.0
N15880G1Y17.088F1200.0
N15890G1X9.722
N15900G1X9.811Y17.106
N15910G1X9.874Y17.147
N15920G1X9.912Y17.209
N15930G1X9.924Y17.294
N15940G1X9.911Y17.379
N15950G1X9.873Y17.441
N15960G1X9.810Y17.482
N15970G1X9.722Y17.501
N15980G1X8.235
N15990G1X8.146Y17.482
N16000G1X8.082Y17.441
N16010G1X8.043Y17.378
N16020G1X8.030Y17.294
N16030G1X8.043Y17.210
N16040G1X8.081Y17.148
N16050G1X8.145Y17.107
N16060G1X8.235Y17.088
N16070G1X8.772
N16080G1Y14.706
N16090G1X8.790Y14.617
N16100G1X8.829Y14.554
N16110G1X8.889Y14.515
N16120G1X8.969Y14.501
N16130G1X9.051Y14.513
N16140G1X9.115Y14.551
N16150G1X9.159Y14.615
N16160G1X9.185Y14.706
N16170G00Z6.000
N16180G00X5.710Y14.555
N16190G1Z-0.500F480.0
N16200G1X7.558F1200.0
N16210G1X7.560Y14.556
N16220G1X7.599Y14.617
N16230G1X7.602Y14.635
N16240G1X5.661
N16250G1X5.642Y14.703
N16260G1Y14.715
N16270G1X7.611
N16280G1X7.601Y14.783
N16290G1X7.593Y14.795
N16300G1X5.642
N16310G1Y14.875
N16320G1X7.517
N16330G1X7.498Y14.888
N16340G1X7.407Y14.910
N16350G1X6.055Y14.908
N16360G1Y14.955
N16370G1X5.642
N16380G1Y15.035
N16390G1X6.055
N16400G1Y15.115
N16410G1X5.642
N16420G1Y15.195
N16430G1X6.055
N16440G1Y15.275
N16450G1X5.642
N16460G1Y15.355
N16470G1X6.055
N16480G1Y15.435
N16490G1X5.642
N16500G1Y15.515
N16510G1X6.055
N16520G1Y15.595
N16530G1X5.642
N16540G1Y15.675
N16550G1X6.055
N16560G1Y15.755
N16570G1X5.642
N16580G1Y15.835
N16590G1X6.055
N16600G1Y15.915
N16610G1X5.642
N16620G1Y15.995
N16630G1X6.055
N16640G1Y16.075
N16650G1X5.642
N16660G1Y16.155
N16670G1X6.055
N16680G1Y16.235
N16690G1X5.642
N16700G1Y16.315
N16710G1X6.055
N16720G1Y16.395
N16730G1X5.642
N16740G1Y16.475
N16750G1X6.055
N16760G1Y16.555
N16770G1X5.642
N16780G1Y16.635
N16790G1X6.055
N16800G1Y16.715
N16810G1X5.642
N16820G1Y16.795
N16830G1X6.055
N16840G1Y16.875
N16850G1X5.642
N16860G1Y16.955
N16870G1X6.055
N16880G1Y17.035
N16890G1X5.642
N16900G1Y17.115
N16910G1X6.055
N16920G1Y17.195
N16930G1X5.642
N16940G1Y17.275
N16950G1X6.055
N16960G1Y17.293
N16970G1X6.042Y17.355
N16980G1X5.658
N16990G1X5.667Y17.385
N17000G1X5.700Y17.435
N17010G1X6.004
N17020G00Z6.000
N17030G00X5.642Y14.703
N17040G1Z-0.500F480.0
N17050G1X5.665Y14.618F1200.0
N17060G1X5.708Y14.556
N17070G1X5.769Y14.517
N17080G1X5.850Y14.500
N17090G1X7.405
N17100G1X7.495Y14.517
N17110G1X7.560Y14.556
N17120G1X7.599Y14.617
N17130G1X7.613Y14.700
N17140G1X7.601Y14.783
N17150G1X7.562Y14.845
N17160G1X7.498Y14.888
N17170G1X7.407Y14.910
N17180G1X6.055Y14.908
N17190G1Y17.293
N17200G1X6.036Y17.383
N17210G1X5.997Y17.447
N17220G1X5.937Y17.486
N17230G1X5.856Y17.500
N17240G1X5.774Y17.489
N17250G1X5.711Y17.450
N17260G1X5.667Y17.385
N17270G1X5.642Y17.293
N17280G1Y14.703
N17290G00Z6.000
N17300G00X-5.842Y14.540
N17310G1Z-0.500F480.0
N17320G1X-7.419F1200.0
N17330G1X-7.453Y14.563
N17340G1X-7.492Y14.620
N17350G1X-5.780
N17360G1X-5.767Y14.700
N17370G1X-7.512
N17380G1X-7.514Y14.710
N17390G1X-7.502Y14.780
N17400G1X-5.775
N17410G1X-5.776Y14.792
N17420G1X-5.812Y14.857
N17430G1X-5.816Y14.860
N17440G1X-7.488
N17450G1X-7.480Y14.907
N17460G1X-7.472Y14.940
N17470G1X-7.043
N17480G1X-7.031Y14.977
N17490G1X-7.016Y15.020
N17500G1X-7.451
N17510G1X-7.434Y15.084
N17520G1X-7.428Y15.100
N17530G1X-6.983
N17540G1X-6.948Y15.180
N17550G1X-7.399
N17560G1X-7.370Y15.257
N17570G1X-7.369Y15.260
N17580G1X-6.902
N17590G1X-6.861Y15.330
N17600G1X-6.854Y15.340
N17610G1X-7.330
N17620G1X-7.291Y15.420
N17630G1X-6.792
N17640G1X-6.731Y15.500
N17650G1X-7.244
N17660G1X-7.195Y15.580
N17670G1X-6.669
N17680G1X-6.663Y15.588
N17690G1X-6.588Y15.660
N17700G1X-7.138
N17710G1X-7.079Y15.740
N17720G1X-6.487
N17730G1X-6.454Y15.764
N17740G1X-6.378Y15.820
N17750G1X-7.008
N17760G1X-6.951Y15.884
N17770G1X-6.934Y15.900
N17780G1X-6.269
N17790G1X-6.232Y15.926
N17800G1X-6.174Y15.980
N17810G1X-6.847
N17820G1X-6.815Y16.009
N17830G1X-6.747Y16.060
N17840G1X-6.089
N17850G1X-6.013Y16.140
N17860G1X-6.642
N17870G1X-6.539Y16.220
N17880G1X-5.948
N17890G1X-5.889Y16.300
N17900G1X-6.443
N17910G1X-6.362Y16.380
N17920G1X-5.847
N17930G1X-5.813Y16.460
N17940G1X-6.284
N17950G1X-6.238Y16.522
N17960G1X-6.230Y16.540
N17970G1X-5.790
N17980G1X-5.779Y16.620
N17990G1X-6.199
N18000G1X-6.187Y16.675
N18010G1X-6.186Y16.700
N18020G1X-5.770
N18030G1X-5.778Y16.780
N18040G1X-6.190
N18050G1X-6.202Y16.840
N18060G1X-6.212Y16.860
N18070G1X-5.787
N18080G1X-5.791Y16.896
N18090G1X-5.806Y16.940
N18100G1X-6.259
N18110G1X-6.288Y16.975
N18120G1X-6.344Y17.020
N18130G1X-5.833
N18140G1X-5.856Y17.088
N18150G1X-5.864Y17.100
N18160G1X-7.241
N18170G1X-7.205Y17.167
N18180G1X-7.193Y17.180
N18190G1X-5.918
N18200G1X-5.962Y17.245
N18210G1X-5.979Y17.260
N18220G1X-7.122
N18230G1X-7.094Y17.291
N18240G1X-7.028Y17.340
N18250G1X-6.074
N18260G1X-6.108Y17.368
N18270G1X-6.215Y17.420
N18280G1X-6.896
N18290G1X-6.795Y17.466
N18300G1X-6.637Y17.500
N18310G1X-6.571
N18320G00Z6.000
N18330G00X-7.117Y16.460
N18340G1Z-0.500F480.0
N18350G1X-7.173F1200.0
N18360G1X-7.245Y16.485
N18370G1X-7.303Y16.540
N18380G1X-6.969
N18390G1X-6.962Y16.548
N18400G1X-6.933Y16.613
N18410G1X-6.933Y16.620
N18420G1X-7.336
N18430G1X-7.339Y16.631
N18440G1X-7.340Y16.700
N18450G1X-6.931
N18460G1X-6.924Y16.780
N18470G1X-7.337
N18480G1X-7.332Y16.851
N18490G1X-7.330Y16.860
N18500G1X-6.901
N18510G1X-6.888Y16.895
N18520G1X-6.854Y16.940
N18530G1X-7.307
N18540G1X-7.284Y17.020
N18550G1X-6.764
N18560G00Z6.000
N18570G00X-7.453Y14.563
N18580G1Z-0.500F480.0
N18590G1X-7.386Y14.517F1200.0
N18600G1X-7.306Y14.502
N18610G1X-5.970
N18620G1X-5.883Y14.515
N18630G1X-5.820Y14.553
N18640G1X-5.781Y14.615
N18650G1X-5.766Y14.703
N18660G1X-5.776Y14.792
N18670G1X-5.812Y14.857
N18680G1X-5.874Y14.899
N18690G1X-5.962Y14.917
N18700G1X-7.049
N18710G1X-7.031Y14.977
N18720G1X-7.008Y15.042
N18730G1X-6.944Y15.188
N18740G1X-6.861Y15.330
N18750G1X-6.663Y15.588
N18760G1X-6.564Y15.682
N18770G1X-6.454Y15.764
N18780G1X-6.232Y15.926
N18790G1X-6.105Y16.043
N18800G1X-5.987Y16.167
N18810G1X-5.867Y16.329
N18820G1X-5.795Y16.505
N18830G1X-5.769Y16.694
N18840G1X-5.791Y16.896
N18850G1X-5.856Y17.088
N18860G1X-5.962Y17.245
N18870G1X-6.108Y17.368
N18880G1X-6.294Y17.457
N18890G1X-6.465Y17.498
N18900G1X-6.632Y17.501
N18910G1X-6.795Y17.466
N18920G1X-6.953Y17.394
N18930G1X-7.094Y17.291
N18940G1X-7.205Y17.167
N18950G1X-7.284Y17.020
N18960G1X-7.332Y16.851
N18970G1X-7.340Y16.739
N18980G1X-7.339Y16.631
N18990G1X-7.310Y16.546
N19000G1X-7.245Y16.485
N19010G1X-7.159Y16.455
N19020G1X-7.066Y16.465
N19030G1X-7.008Y16.496
N19040G1X-6.962Y16.548
N19050G1X-6.933Y16.613
N19060G1X-6.929Y16.679
N19070G1X-6.930Y16.689
N19080G1X-6.931Y16.698
N19090G1X-6.922Y16.804
N19100G1X-6.888Y16.895
N19110G1X-6.829Y16.972
N19120G1X-6.743Y17.035
N19130G1X-6.645Y17.077
N19140G1X-6.548Y17.090
N19150G1X-6.452Y17.074
N19160G1X-6.357Y17.029
N19170G1X-6.288Y16.975
N19180G1X-6.236Y16.912
N19190G1X-6.202Y16.840
N19200G1X-6.186Y16.758
N19210G1X-6.187Y16.675
N19220G1X-6.204Y16.596
N19230G1X-6.238Y16.522
N19240G1X-6.289Y16.452
N19250G1X-6.470Y16.273
N19260G1X-6.667Y16.120
N19270G1X-6.815Y16.009
N19280G1X-6.951Y15.884
N19290G1X-7.076Y15.744
N19300G1X-7.189Y15.589
N19310G1X-7.289Y15.425
N19320G1X-7.370Y15.257
N19330G1X-7.434Y15.084
N19340G1X-7.480Y14.907
N19350G1X-7.498Y14.804
N19360G1X-7.514Y14.710
N19370G1X-7.499Y14.630
N19380G1X-7.453Y14.563
N19390G00Z6.000
N19400G00X-9.062Y14.578
N19410G1Z-0.500F480.0
N19420G1X-8.742F1200.0
N19430G1X-8.716Y14.615
N19440G1X-8.704Y14.658
N19450G1X-9.094
N19460G1X-9.103Y14.706
N19470G1Y14.738
N19480G1X-8.690
N19490G1Y14.818
N19500G1X-9.103
N19510G1Y14.898
N19520G1X-8.690
N19530G1Y14.978
N19540G1X-9.103
N19550G1Y15.058
N19560G1X-8.690
N19570G1Y15.138
N19580G1X-9.103
N19590G1Y15.218
N19600G1X-8.690
N19610G1Y15.298
N19620G1X-9.103
N19630G1Y15.378
N19640G1X-8.690
N19650G1Y15.458
N19660G1X-9.103
N19670G1Y15.538
N19680G1X-8.690
N19690G1Y15.618
N19700G1X-9.103
N19710G1Y15.698
N19720G1X-8.690
N19730G1Y15.778
N19740G1X-9.103
N19750G1Y15.858
N19760G1X-8.690
N19770G1Y15.938
N19780G1X-9.103
N19790G1Y16.018
N19800G1X-8.690
N19810G1Y16.098
N19820G1X-9.103
N19830G1Y16.178
N19840G1X-8.690
N19850G1Y16.258
N19860G1X-9.103
N19870G1Y16.338
N19880G1X-8.690
N19890G1Y16.418
N19900G1X-9.103
N19910G1Y16.498
N19920G1X-8.690
N19930G1Y16.578
N19940G1X-9.103
N19950G1Y16.658
N19960G1X-8.690
N19970G1Y16.738
N19980G1X-9.103
N19990G1Y16.818
N20000G1X-8.690
N20010G1Y16.898
N20020G1X-9.103
N20030G1Y16.978
N20040G1X-8.690
N20050G1Y17.058
N20060G1X-9.103
N20070G1Y17.088
N20080G1X-9.641
N20090G1X-9.731Y17.107
N20100G1X-9.780Y17.138
N20110G1X-8.015
N20120G1X-8.001Y17.147
N20130G1X-7.964Y17.209
N20140G1X-7.962Y17.218
N20150G1X-9.834
N20160G1X-9.845Y17.294
N20170G1X-9.845Y17.298
N20180G1X-7.952
N20190G1X-7.964Y17.378
N20200G1X-9.832
N20210G1X-9.794Y17.441
N20220G1X-9.766Y17.458
N20230G1X-8.029
N20240G00Z6.000
N20250G00X-8.690Y14.706
N20260G1Z-0.500F480.0
N20270G1Y17.088F1200.0
N20280G1X-8.154
N20290G1X-8.065Y17.106
N20300G1X-8.001Y17.147
N20310G1X-7.964Y17.209
N20320G1X-7.951Y17.294
N20330G1X-7.964Y17.379
N20340G1X-8.002Y17.441
N20350G1X-8.066Y17.482
N20360G1X-8.154Y17.501
N20370G1X-9.641
N20380G1X-9.730Y17.482
N20390G1X-9.794Y17.441
N20400G1X-9.832Y17.378
N20410G1X-9.845Y17.294
N20420G1X-9.833Y17.210
N20430G1X-9.795Y17.148
N20440G1X-9.731Y17.107
N20450G1X-9.641Y17.088
N20460G1X-9.103
N20470G1Y14.706
N20480G1X-9.085Y14.617
N20490G1X-9.047Y14.554
N20500G1X-8.987Y14.515
N20510G1X-8.906Y14.501
N20520G1X-8.824Y14.513
N20530G1X-8.761Y14.551
N20540G1X-8.716Y14.615
N20550G1X-8.690Y14.706
N20560G00Z6.000
N20570G00X-12.166Y14.555
N20580G1Z-0.500F480.0
N20590G1X-10.317F1200.0
N20600G1X-10.316Y14.556
N20610G1X-10.277Y14.617
N20620G1X-10.274Y14.635
N20630G1X-12.215
N20640G1X-12.234Y14.703
N20650G1Y14.715
N20660G1X-10.265
N20670G1X-10.275Y14.783
N20680G1X-10.282Y14.795
N20690G1X-12.234
N20700G1Y14.875
N20710G1X-10.358
N20720G1X-10.378Y14.888
N20730G1X-10.469Y14.910
N20740G1X-11.821Y14.908
N20750G1Y14.955
N20760G1X-12.234
N20770G1Y15.035
N20780G1X-11.821
N20790G1Y15.115
N20800G1X-12.234
N20810G1Y15.195
N20820G1X-11.821
N20830G1Y15.275
N20840G1X-12.234
N20850G1Y15.355
N20860G1X-11.821
N20870G1Y15.435
N20880G1X-12.234
N20890G1Y15.515
N20900G1X-11.821
N20910G1Y15.595
N20920G1X-12.234
N20930G1Y15.675
N20940G1X-11.821
N20950G1Y15.755
N20960G1X-12.234
N20970G1Y15.835
N20980G1X-11.821
N20990G1Y15.915
N21000G1X-12.234
N21010G1Y15.995
N21020G1X-11.821
N21030G1Y16.075
N21040G1X-12.234
N21050G1Y16.155
N21060G1X-11.821
N21070G1Y16.235
N21080G1X-12.234
N21090G1Y16.315
N21100G1X-11.821
N21110G1Y16.395
N21120G1X-12.234
N21130G1Y16.475
N21140G1X-11.821
N21150G1Y16.555
N21160G1X-12.234
N21170G1Y16.635
N21180G1X-11.821
N21190G1Y16.715
N21200G1X-12.234
N21210G1Y16.795
N21220G1X-11.821
N21230G1Y16.875
N21240G1X-12.234
N21250G1Y16.955
N21260G1X-11.821
N21270G1Y17.035
N21280G1X-12.234
N21290G1Y17.115
N21300G1X-11.821
N21310G1Y17.195
N21320G1X-12.234
N21330G1Y17.275
N21340G1X-11.821
N21350G1Y17.293
N21360G1X-11.834Y17.355
N21370G1X-12.217
N21380G1X-12.209Y17.385
N21390G1X-12.175Y17.435
N21400G1X-11.871
N21410G00Z6.000
N21420G00X-12.234Y14.703
N21430G1Z-0.500F480.0
N21440G1X-12.210Y14.618F1200.0
N21450G1X-12.168Y14.556
N21460G1X-12.106Y14.517
N21470G1X-12.026Y14.500
N21480G1X-10.470
N21490G1X-10.380Y14.517
N21500G1X-10.316Y14.556
N21510G1X-10.277Y14.617
N21520G1X-10.263Y14.700
N21530G1X-10.275Y14.783
N21540G1X-10.313Y14.845
N21550G1X-10.378Y14.888
N21560G1X-10.469Y14.910
N21570G1X-11.821Y14.908
N21580G1Y17.293
N21590G1X-11.839Y17.383
N21600G1X-11.879Y17.447
N21610G1X-11.939Y17.486
N21620G1X-12.020Y17.500
N21630G1X-12.102Y17.489
N21640G1X-12.165Y17.450
N21650G1X-12.209Y17.385
N21660G1X-12.234Y17.293
N21670G1Y14.703
N21680G00Z6.000
N21690G00X-24.751Y14.532
N21700G1Z-0.500F480.0
N21710G1X-24.527F1200.0
N21720G1X-24.505Y14.543
N21730G1X-24.462Y14.595
N21740G1X-24.456Y14.612
N21750G1X-24.822
N21760G1X-24.826Y14.618
N21770G1X-24.844Y14.692
N21780G1X-24.434
N21790G1X-24.432Y14.709
N21800G1Y14.772
N21810G1X-24.848
N21820G1Y14.852
N21830G1X-24.432
N21840G1Y14.932
N21850G1X-24.848
N21860G1Y15.012
N21870G1X-24.432
N21880G1Y15.092
N21890G1X-24.848
N21900G1Y15.172
N21910G1X-24.432
N21920G1Y15.252
N21930G1X-24.848
N21940G1Y15.332
N21950G1X-24.432
N21960G1Y15.412
N21970G1X-24.848
N21980G1Y15.492
N21990G1X-24.432
N22000G1Y15.572
N22010G1X-24.848
N22020G1Y15.652
N22030G1X-24.432
N22040G1Y15.732
N22050G1X-24.848
N22060G1Y15.812
N22070G1X-24.432
N22080G1Y15.892
N22090G1X-24.848
N22100G1Y15.972
N22110G1X-24.432
N22120G1Y16.052
N22130G1X-24.848
N22140G1Y16.132
N22150G1X-24.432
N22160G1Y16.212
N22170G1X-24.848
N22180G1Y16.292
N22190G1X-24.432
N22200G1Y16.372
N22210G1X-24.848
N22220G1Y16.452
N22230G1X-24.432
N22240G1Y16.532
N22250G1X-24.848
N22260G1Y16.612
N22270G1X-24.432
N22280G1Y16.692
N22290G1X-24.848
N22300G1Y16.772
N22310G1X-24.432
N22320G1Y16.852
N22330G1X-24.848
N22340G1Y16.932
N22350G1X-24.432
N22360G1Y17.012
N22370G1X-24.848
N22380G1Y17.092
N22390G1X-24.432
N22400G1Y17.172
N22410G1X-24.848
N22420G1Y17.252
N22430G1X-24.432
N22440G1Y17.293
N22450G1X-24.441Y17.332
N22460G1X-24.842
N22470G1X-24.837Y17.359
N22480G1X-24.810Y17.412
N22490G1X-24.477
N22500G1X-24.495Y17.439
N22510G1X-24.569Y17.487
N22520G1X-24.606Y17.492
N22530G1X-24.679
N22540G00Z6.000
N22550G00X-24.450Y17.372
N22560G1Z-0.500F480.0
N22570G1X-24.495Y17.439F1200.0
N22580G1X-24.569Y17.487
N22590G1X-24.655Y17.499
N22600G1X-24.738Y17.476
N22610G1X-24.806Y17.420
N22620G1X-24.837Y17.359
N22630G1X-24.848Y17.293
N22640G1Y14.709
N22650G1X-24.826Y14.618
N22660G1X-24.792Y14.567
N22670G1X-24.750Y14.531
N22680G1X-24.700Y14.509
N22690G1X-24.641Y14.502
N22700G1X-24.565Y14.512
N22710G1X-24.505Y14.543
N22720G1X-24.462Y14.595
N22730G1X-24.436Y14.668
N22740G1X-24.432Y14.709
N22750G1Y17.293
N22760G1X-24.450Y17.372
N22770G00Z6.000
N22780G00X-26.396Y14.578
N22790G1Z-0.500F480.0
N22800G1X-26.076F1200.0
N22810G1X-26.050Y14.615
N22820G1X-26.038Y14.658
N22830G1X-26.428
N22840G1X-26.437Y14.706
N22850G1Y14.738
N22860G1X-26.024
N22870G1Y14.818
N22880G1X-26.437
N22890G1Y14.898
N22900G1X-26.024
N22910G1Y14.978
N22920G1X-26.437
N22930G1Y15.058
N22940G1X-26.024
N22950G1Y15.138
N22960G1X-26.437
N22970G1Y15.218
N22980G1X-26.024
N22990G1Y15.298
N23000G1X-26.437
N23010G1Y15.378
N23020G1X-26.024
N23030G1Y15.458
N23040G1X-26.437
N23050G1Y15.538
N23060G1X-26.024
N23070G1Y15.618
N23080G1X-26.437
N23090G1Y15.698
N23100G1X-26.024
N23110G1Y15.778
N23120G1X-26.437
N23130G1Y15.858
N23140G1X-26.024
N23150G1Y15.938
N23160G1X-26.437
N23170G1Y16.018
N23180G1X-26.024
N23190G1Y16.098
N23200G1X-26.437
N23210G1Y16.178
N23220G1X-26.024
N23230G1Y16.258
N23240G1X-26.437
N23250G1Y16.338
N23260G1X-26.024
N23270G1Y16.418
N23280G1X-26.437
N23290G1Y16.498
N23300G1X-26.024
N23310G1Y16.578
N23320G1X-26.437
N23330G1Y16.658
N23340G1X-26.024
N23350G1Y16.738
N23360G1X-26.437
N23370G1Y16.818
N23380G1X-26.024
N23390G1Y16.898
N23400G1X-26.437
N23410G1Y16.978
N23420G1X-26.024
N23430G1Y17.058
N23440G1X-26.437
N23450G1Y17.088
N23460G1X-26.975
N23470G1X-27.065Y17.107
N23480G1X-27.114Y17.138
N23490G1X-25.349
N23500G1X-25.336Y17.147
N23510G1X-25.298Y17.209
N23520G1X-25.296Y17.218
N23530G1X-27.168
N23540G1X-27.179Y17.294
N23550G1X-27.179Y17.298
N23560G1X-25.286
N23570G1X-25.298Y17.378
N23580G1X-27.166
N23590G1X-27.128Y17.440
N23600G1X-27.100Y17.458
N23610G1X-25.363
N23620G00Z6.000
N23630G00X-26.024Y14.706
N23640G1Z-0.500F480.0
N23650G1Y17.088F1200.0
N23660G1X-25.488
N23670G1X-25.399Y17.106
N23680G1X-25.336Y17.147
N23690G1X-25.298Y17.209
N23700G1X-25.285Y17.294
N23710G1X-25.298Y17.378
N23720G1X-25.336Y17.441
N23730G1X-25.400Y17.482
N23740G1X-25.488Y17.501
N23750G1X-26.975
N23760G1X-27.064Y17.481
N23770G1X-27.128Y17.440
N23780G1X-27.166Y17.378
N23790G1X-27.179Y17.294
N23800G1X-27.167Y17.210
N23810G1X-27.129Y17.147
N23820G1X-27.065Y17.107
N23830G1X-26.975Y17.088
N23840G1X-26.437
N23850G1Y14.706
N23860G1X-26.420Y14.617
N23870G1X-26.381Y14.553
N23880G1X-26.321Y14.515
N23890G1X-26.240Y14.501
N23900G1X-26.159Y14.512
N23910G1X-26.095Y14.550
N23920G1X-26.050Y14.615
N23930G1X-26.024Y14.706
N23940G00Z6.000
N23950G00X-29.500Y14.555
N23960G1Z-0.500F480.0
N23970G1X-27.652F1200.0
N23980G1X-27.650Y14.556
N23990G1X-27.611Y14.617
N24000G1X-27.608Y14.635
N24010G1X-29.549
N24020G1X-29.568Y14.703
N24030G1Y14.715
N24040G1X-27.599
N24050G1X-27.609Y14.782
N24060G1X-27.617Y14.795
N24070G1X-29.568
N24080G1Y14.875
N24090G1X-27.692
N24100G1X-27.712Y14.887
N24110G1X-27.803Y14.909
N24120G1X-29.155Y14.908
N24130G1Y14.955
N24140G1X-29.568
N24150G1Y15.035
N24160G1X-29.155
N24170G1Y15.115
N24180G1X-29.568
N24190G1Y15.195
N24200G1X-29.155
N24210G1Y15.275
N24220G1X-29.568
N24230G1Y15.355
N24240G1X-29.155
N24250G1Y15.435
N24260G1X-29.568
N24270G1Y15.515
N24280G1X-29.155
N24290G1Y15.595
N24300G1X-29.568
N24310G1Y15.675
N24320G1X-29.155
N24330G1Y15.755
N24340G1X-29.568
N24350G1Y15.835
N24360G1X-29.155
N24370G1Y15.915
N24380G1X-29.568
N24390G1Y15.995
N24400G1X-29.155
N24410G1Y16.075
N24420G1X-29.568
N24430G1Y16.155
N24440G1X-29.155
N24450G1Y16.235
N24460G1X-29.568
N24470G1Y16.315
N24480G1X-29.155
N24490G1Y16.395
N24500G1X-29.568
N24510G1Y16.475
N24520G1X-29.155
N24530G1Y16.555
N24540G1X-29.568
N24550G1Y16.635
N24560G1X-29.155
N24570G1Y16.715
N24580G1X-29.568
N24590G1Y16.795
N24600G1X-29.155
N24610G1Y16.875
N24620G1X-29.568
N24630G1Y16.955
N24640G1X-29.155
N24650G1Y17.035
N24660G1X-29.568
N24670G1Y17.115
N24680G1X-29.155
N24690G1Y17.195
N24700G1X-29.568
N24710G1Y17.275
N24720G1X-29.155
N24730G1Y17.293
N24740G1X-29.168Y17.355
N24750G1X-29.551
N24760G1X-29.543Y17.385
N24770G1X-29.510Y17.435
N24780G1X-29.206
N24790G00Z6.000
N24800G00X-29.568Y14.703
N24810G1Z-0.500F480.0
N24820G1X-29.545Y14.618F1200.0
N24830G1X-29.502Y14.556
N24840G1X-29.441Y14.516
N24850G1X-29.360Y14.499
N24860G1X-27.804
N24870G1X-27.714Y14.517
N24880G1X-27.650Y14.556
N24890G1X-27.611Y14.617
N24900G1X-27.597Y14.699
N24910G1X-27.609Y14.782
N24920G1X-27.647Y14.845
N24930G1X-27.712Y14.887
N24940G1X-27.803Y14.909
N24950G1X-29.155Y14.908
N24960G1Y17.293
N24970G1X-29.173Y17.382
N24980G1X-29.213Y17.446
N24990G1X-29.273Y17.486
N25000G1X-29.354Y17.500
N25010G1X-29.436Y17.489
N25020G1X-29.499Y17.450
N25030G1X-29.543Y17.385
N25040G1X-29.568Y17.293
N25050G1Y14.703
N25060G00Z6.000
N25070G00X-30.210Y-5.445
N25080G1Z-0.500F480.0
N25090G1X-28.362F1200.0
N25100G1X-28.360Y-5.444
N25110G1X-28.321Y-5.383
N25120G1X-28.318Y-5.365
N25130G1X-30.259
N25140G1X-30.278Y-5.297
N25150G1Y-5.285
N25160G1X-28.309
N25170G1X-28.319Y-5.217
N25180G1X-28.327Y-5.205
N25190G1X-30.278
N25200G1Y-5.125
N25210G1X-28.403
N25220G1X-28.422Y-5.112
N25230G1X-28.513Y-5.090
N25240G1X-29.865Y-5.092
N25250G1Y-5.045
N25260G1X-30.278
N25270G1Y-4.965
N25280G1X-29.865
N25290G1Y-4.885
N25300G1X-30.278
N25310G1Y-4.805
N25320G1X-29.865
N25330G1Y-4.725
N25340G1X-30.278
N25350G1Y-4.645
N25360G1X-29.865
N25370G1Y-4.565
N25380G1X-30.278
N25390G1Y-4.485
N25400G1X-29.865
N25410G1Y-4.405
N25420G1X-30.278
N25430G1Y-4.325
N25440G1X-29.865
N25450G1Y-4.245
N25460G1X-30.278
N25470G1Y-4.165
N25480G1X-29.865
N25490G1Y-4.085
N25500G1X-30.278
N25510G1Y-4.005
N25520G1X-29.865
N25530G1Y-3.925
N25540G1X-30.278
N25550G1Y-3.845
N25560G1X-29.865
N25570G1Y-3.765
N25580G1X-30.278
N25590G1Y-3.685
N25600G1X-29.865
N25610G1Y-3.605
N25620G1X-30.278
N25630G1Y-3.525
N25640G1X-29.865
N25650G1Y-3.445
N25660G1X-30.278
N25670G1Y-3.365
N25680G1X-29.865
N25690G1Y-3.285
N25700G1X-30.278
N25710G1Y-3.205
N25720G1X-29.865
N25730G1Y-3.125
N25740G1X-30.278
N25750G1Y-3.045
N25760G1X-29.865
N25770G1Y-2.965
N25780G1X-30.278
N25790G1Y-2.885
N25800G1X-29.865
N25810G1Y-2.805
N25820G1X-30.278
N25830G1Y-2.725
N25840G1X-29.865
N25850G1Y-2.707
N25860G1X-29.878Y-2.645
N25870G1X-30.261
N25880G1X-30.253Y-2.615
N25890G1X-30.220Y-2.565
N25900G1X-29.916
N25910G00Z6.000
N25920G00X-30.278Y-5.297
N25930G1Z-0.500F480.0
N25940G1X-30.255Y-5.382F1200.0
N25950G1X-30.212Y-5.444
N25960G1X-30.151Y-5.483
N25970G1X-30.070Y-5.500
N25980G1X-28.514
N25990G1X-28.424Y-5.483
N26000G1X-28.360Y-5.444
N26010G1X-28.321Y-5.383
N26020G1X-28.307Y-5.300
N26030G1X-28.319Y-5.217
N26040G1X-28.357Y-5.155
N26050G1X-28.422Y-5.112
N26060G1X-28.513Y-5.090
N26070G1X-29.865Y-5.092
N26080G1Y-2.707
N26090G1X-29.883Y-2.617
N26100G1X-29.923Y-2.553
N26110G1X-29.983Y-2.514
N26120G1X-30.064Y-2.500
N26130G1X-30.146Y-2.511
N26140G1X-30.209Y-2.550
N26150G1X-30.253Y-2.615
N26160G1X-30.278Y-2.707
N26170G1Y-5.297
N26180G00Z6.000
N26190G00X-27.106Y-5.422
N26200G1Z-0.500F480.0
N26210G1X-26.786F1200.0
N26220G1X-26.761Y-5.385
N26230G1X-26.748Y-5.342
N26240G1X-27.138
N26250G1X-27.148Y-5.294
N26260G1Y-5.262
N26270G1X-26.734
N26280G1Y-5.182
N26290G1X-27.148
N26300G1Y-5.102
N26310G1X-26.734
N26320G1Y-5.022
N26330G1X-27.148
N26340G1Y-4.942
N26350G1X-26.734
N26360G1Y-4.862
N26370G1X-27.148
N26380G1Y-4.782
N26390G1X-26.734
N26400G1Y-4.702
N26410G1X-27.148
N26420G1Y-4.622
N26430G1X-26.734
N26440G1Y-4.542
N26450G1X-27.148
N26460G1Y-4.462
N26470G1X-26.734
N26480G1Y-4.382
N26490G1X-27.148
N26500G1Y-4.302
N26510G1X-26.734
N26520G1Y-4.222
N26530G1X-27.148
N26540G1Y-4.142
N26550G1X-26.734
N26560G1Y-4.062
N26570G1X-27.148
N26580G1Y-3.982
N26590G1X-26.734
N26600G1Y-3.902
N26610G1X-27.148
N26620G1Y-3.822
N26630G1X-26.734
N26640G1Y-3.742
N26650G1X-27.148
N26660G1Y-3.662
N26670G1X-26.734
N26680G1Y-3.582
N26690G1X-27.148
N26700G1Y-3.502
N26710G1X-26.734
N26720G1Y-3.422
N26730G1X-27.148
N26740G1Y-3.342
N26750G1X-26.734
N26760G1Y-3.262
N26770G1X-27.148
N26780G1Y-3.182
N26790G1X-26.734
N26800G1Y-3.102
N26810G1X-27.148
N26820G1Y-3.022
N26830G1X-26.734
N26840G1Y-2.942
N26850G1X-27.148
N26860G1Y-2.912
N26870G1X-27.685
N26880G1X-27.775Y-2.893
N26890G1X-27.824Y-2.862
N26900G1X-26.059
N26910G1X-26.046Y-2.853
N26920G1X-26.008Y-2.791
N26930G1X-26.006Y-2.782
N26940G1X-27.878
N26950G1X-27.890Y-2.706
N26960G1X-27.889Y-2.702
N26970G1X-25.996
N26980G1X-26.008Y-2.622
N26990G1X-27.876
N27000G1X-27.838Y-2.559
N27010G1X-27.811Y-2.542
N27020G1X-26.073
N27030G00Z6.000
N27040G00X-26.734Y-5.294
N27050G1Z-0.500F480.0
N27060G1Y-2.912F1200.0
N27070G1X-26.198
N27080G1X-26.109Y-2.894
N27090G1X-26.046Y-2.853
N27100G1X-26.008Y-2.791
N27110G1X-25.995Y-2.706
N27120G1X-26.008Y-2.621
N27130G1X-26.046Y-2.559
N27140G1X-26.110Y-2.518
N27150G1X-26.198Y-2.499
N27160G1X-27.685
N27170G1X-27.774Y-2.518
N27180G1X-27.838Y-2.559
N27190G1X-27.876Y-2.622
N27200G1X-27.890Y-2.706
N27210G1X-27.877Y-2.790
N27220G1X-27.839Y-2.852
N27230G1X-27.775Y-2.893
N27240G1X-27.685Y-2.912
N27250G1X-27.148
N27260G1Y-5.294
N27270G1X-27.130Y-5.383
N27280G1X-27.091Y-5.446
N27290G1X-27.031Y-5.485
N27300G1X-26.950Y-5.499
N27310G1X-26.869Y-5.487
N27320G1X-26.805Y-5.449
N27330G1X-26.761Y-5.385
N27340G1X-26.734Y-5.294
N27350G00Z6.000
N27360G00X-24.549Y-5.481
N27370G1Z-0.500F480.0
N27380G1X-24.885F1200.0
N27390G1X-24.941Y-5.473
N27400G1X-25.095Y-5.423
N27410G1X-25.138Y-5.401
N27420G1X-24.281
N27430G1X-24.148Y-5.324
N27440G1X-24.145Y-5.321
N27450G1X-25.276
N27460G1X-25.382Y-5.241
N27470G1X-24.050
N27480G1X-24.021Y-5.216
N27490G1X-23.977Y-5.161
N27500G1X-25.466
N27510G1X-25.472Y-5.155
N27520G1X-25.520Y-5.083
N27530G1X-25.521Y-5.081
N27540G1X-24.825
N27550G1X-24.939Y-5.053
N27560G1X-25.025Y-5.001
N27570G1X-25.551
N27580G1X-25.556Y-4.945
N27590G1X-25.548Y-4.921
N27600G1X-25.122
N27610G1X-25.190Y-4.849
N27620G1X-25.198Y-4.841
N27630G1X-25.510
N27640G00Z6.000
N27650G00X-24.601Y-5.081
N27660G1Z-0.500F480.0
N27670G1X-23.913F1200.0
N27680G1X-23.881Y-5.041
N27690G1X-23.861Y-5.001
N27700G1X-24.393
N27710G1X-24.323Y-4.956
N27720G1X-24.294Y-4.921
N27730G1X-23.822
N27740G1X-23.783Y-4.841
N27750G1X-24.227
N27760G1X-24.223Y-4.836
N27770G1X-24.191Y-4.761
N27780G1X-23.762
N27790G1X-23.744Y-4.681
N27800G1X-24.156
N27810G1X-24.155Y-4.677
N27820G1X-24.144Y-4.601
N27830G1X-23.726
N27840G1X-23.728Y-4.521
N27850G1X-24.134
N27860G1X-24.131Y-4.502
N27870G1X-24.141Y-4.441
N27880G1X-23.731
N27890G1X-23.733Y-4.378
N27900G1X-23.737Y-4.361
N27910G1X-24.155
N27920G1X-24.163Y-4.318
N27930G1X-24.178Y-4.281
N27940G1X-23.756
N27950G1X-23.774Y-4.201
N27960G1X-24.216
N27970G1X-24.246Y-4.152
N27980G1X-24.275Y-4.121
N27990G1X-23.808
N28000G1X-23.843Y-4.041
N28010G1X-24.366
N28020G1X-24.379Y-4.031
N28030G1X-24.526Y-3.961
N28040G1X-23.893
N28050G1X-23.949Y-3.881
N28060G1X-25.431
N28070G1Y-3.801
N28080G1X-24.026
N28090G1X-24.097Y-3.734
N28100G1X-24.117Y-3.721
N28110G1X-25.431
N28120G1Y-3.641
N28130G1X-24.243
N28140G1X-24.262Y-3.629
N28150G1X-24.429Y-3.561
N28160G1X-24.997
N28170G00Z6.000
N28180G00X-25.060Y-4.041
N28190G1Z-0.500F480.0
N28200G1X-25.380F1200.0
N28210G1X-25.413Y-3.999
N28220G1X-25.421Y-3.961
N28230G1X-24.905
N28240G00Z6.000
N28250G00X-25.026Y-3.561
N28260G1Z-0.500F480.0
N28270G1X-25.431F1200.0
N28280G1Y-3.481
N28290G1X-25.026
N28300G1Y-3.401
N28310G1X-25.431
N28320G1Y-3.321
N28330G1X-25.026
N28340G1Y-3.241
N28350G1X-25.431
N28360G1Y-3.161
N28370G1X-25.026
N28380G1Y-3.081
N28390G1X-25.431
N28400G1Y-3.001
N28410G1X-25.026
N28420G1Y-2.921
N28430G1X-25.431
N28440G1Y-2.841
N28450G1X-24.126
N28460G1X-24.120Y-2.835
N28470G1X-24.088Y-2.780
N28480G1X-24.082Y-2.761
N28490G1X-25.431
N28500G1Y-2.701
N28510G1X-25.428Y-2.681
N28520G1X-24.071
N28530G1X-24.071Y-2.663
N28540G1X-24.091Y-2.610
N28550G1X-24.097Y-2.601
N28560G1X-25.403
N28570G1X-25.391Y-2.576
N28580G1X-25.350Y-2.533
N28590G1X-25.324Y-2.521
N28600G1X-24.186
N28610G00Z6.000
N28620G00X-25.295Y-2.507
N28630G1Z-0.500F480.0
N28640G1X-25.350Y-2.533F1200.0
N28650G1X-25.391Y-2.576
N28660G1X-25.420Y-2.636
N28670G1X-25.426Y-2.664
N28680G1X-25.431Y-2.701
N28690G1Y-3.912
N28700G1X-25.413Y-3.999
N28710G1X-25.359Y-4.068
N28720G1X-25.282Y-4.110
N28730G1X-25.193Y-4.113
N28740G1X-25.100Y-4.069
N28750G1X-25.025Y-4.015
N28760G1X-24.875Y-3.947
N28770G1X-24.711Y-3.924
N28780G1X-24.547Y-3.951
N28790G1X-24.379Y-4.031
N28800G1X-24.306Y-4.086
N28810G1X-24.246Y-4.152
N28820G1X-24.198Y-4.229
N28830G1X-24.163Y-4.318
N28840G1X-24.131Y-4.502
N28850G1X-24.155Y-4.677
N28860G1X-24.223Y-4.836
N28870G1X-24.323Y-4.956
N28880G1X-24.454Y-5.040
N28890G1X-24.617Y-5.085
N28900G1X-24.786Y-5.090
N28910G1X-24.939Y-5.053
N28920G1X-25.073Y-4.972
N28930G1X-25.190Y-4.849
N28940G1X-25.246Y-4.795
N28950G1X-25.322Y-4.767
N28960G1X-25.403Y-4.768
N28970G1X-25.473Y-4.800
N28980G1X-25.527Y-4.860
N28990G1X-25.556Y-4.945
N29000G1X-25.548Y-5.033
N29010G1X-25.535Y-5.059
N29020G1X-25.520Y-5.083
N29030G1X-25.472Y-5.155
N29040G1X-25.397Y-5.229
N29050G1X-25.242Y-5.347
N29060G1X-25.095Y-5.423
N29070G1X-24.941Y-5.473
N29080G1X-24.779Y-5.496
N29090G1X-24.609Y-5.492
N29100G1X-24.442Y-5.461
N29110G1X-24.288Y-5.405
N29120G1X-24.148Y-5.324
N29130G1X-24.021Y-5.216
N29140G1X-23.881Y-5.041
N29150G1X-23.779Y-4.832
N29160G1X-23.726Y-4.605
N29170G1X-23.733Y-4.378
N29180G1X-23.775Y-4.197
N29190G1X-23.853Y-4.018
N29200G1X-23.961Y-3.864
N29210G1X-24.097Y-3.734
N29220G1X-24.262Y-3.629
N29230G1X-24.443Y-3.555
N29240G1X-24.627Y-3.520
N29250G1X-24.814Y-3.522
N29260G1X-25.004Y-3.562
N29270G1X-25.026Y-3.570
N29280G1Y-2.905
N29290G1X-24.273
N29300G1X-24.212Y-2.897
N29310G1X-24.161Y-2.873
N29320G1X-24.120Y-2.835
N29330G1X-24.088Y-2.780
N29340G1X-24.070Y-2.720
N29350G1X-24.071Y-2.663
N29360G1X-24.091Y-2.610
N29370G1X-24.128Y-2.560
N29380G1X-24.195Y-2.514
N29390G1X-24.273Y-2.499
N29400G1X-25.228
N29410G1X-25.295Y-2.507
N29420G00Z6.000
N29430G00X-12.275Y-5.445
N29440G1Z-0.500F480.0
N29450G1X-10.426F1200.0
N29460G1X-10.425Y-5.444
N29470G1X-10.386Y-5.383
N29480G1X-10.383Y-5.365
N29490G1X-12.324
N29500G1X-12.343Y-5.297
N29510G1Y-5.285
N29520G1X-10.374
N29530G1X-10.384Y-5.217
N29540G1X-10.391Y-5.205
N29550G1X-12.343
N29560G1Y-5.125
N29570G1X-10.467
N29580G1X-10.487Y-5.112
N29590G1X-10.578Y-5.090
N29600G1X-11.930Y-5.092
N29610G1Y-5.045
N29620G1X-12.343
N29630G1Y-4.965
N29640G1X-11.930
N29650G1Y-4.885
N29660G1X-12.343
N29670G1Y-4.805
N29680G1X-11.930
N29690G1Y-4.725
N29700G1X-12.343
N29710G1Y-4.645
N29720G1X-11.930
N29730G1Y-4.565
N29740G1X-12.343
N29750G1Y-4.485
N29760G1X-11.930
N29770G1Y-4.405
N29780G1X-12.343
N29790G1Y-4.325
N29800G1X-11.930
N29810G1Y-4.245
N29820G1X-12.343
N29830G1Y-4.165
N29840G1X-11.930
N29850G1Y-4.085
N29860G1X-12.343
N29870G1Y-4.005
N29880G1X-11.930
N29890G1Y-3.925
N29900G1X-12.343
N29910G1Y-3.845
N29920G1X-11.930
N29930G1Y-3.765
N29940G1X-12.343
N29950G1Y-3.685
N29960G1X-11.930
N29970G1Y-3.605
N29980G1X-12.343
N29990G1Y-3.525
N30000G1X-11.930
N30010G1Y-3.445
N30020G1X-12.343
N30030G1Y-3.365
N30040G1X-11.930
N30050G1Y-3.285
N30060G1X-12.343
N30070G1Y-3.205
N30080G1X-11.930
N30090G1Y-3.125
N30100G1X-12.343
N30110G1Y-3.045
N30120G1X-11.930
N30130G1Y-2.965
N30140G1X-12.343
N30150G1Y-2.885
N30160G1X-11.930
N30170G1Y-2.805
N30180G1X-12.343
N30190G1Y-2.725
N30200G1X-11.930
N30210G1Y-2.707
N30220G1X-11.943Y-2.645
N30230G1X-12.326
N30240G1X-12.318Y-2.615
N30250G1X-12.284Y-2.565
N30260G1X-11.980
N30270G00Z6.000
N30280G00X-12.343Y-5.297
N30290G1Z-0.500F480.0
N30300G1X-12.319Y-5.382F1200.0
N30310G1X-12.277Y-5.444
N30320G1X-12.215Y-5.483
N30330G1X-12.135Y-5.500
N30340G1X-10.579
N30350G1X-10.489Y-5.483
N30360G1X-10.425Y-5.444
N30370G1X-10.386Y-5.383
N30380G1X-10.372Y-5.300
N30390G1X-10.384Y-5.217
N30400G1X-10.422Y-5.155
N30410G1X-10.487Y-5.112
N30420G1X-10.578Y-5.090
N30430G1X-11.930Y-5.092
N30440G1Y-2.707
N30450G1X-11.948Y-2.617
N30460G1X-11.988Y-2.553
N30470G1X-12.048Y-2.514
N30480G1X-12.129Y-2.500
N30490G1X-12.211Y-2.511
N30500G1X-12.274Y-2.550
N30510G1X-12.318Y-2.615
N30520G1X-12.343Y-2.707
N30530G1Y-5.297
N30540G00Z6.000
N30550G00X-9.171Y-5.422
N30560G1Z-0.500F480.0
N30570G1X-8.851F1200.0
N30580G1X-8.825Y-5.385
N30590G1X-8.813Y-5.342
N30600G1X-9.203
N30610G1X-9.212Y-5.294
N30620G1Y-5.262
N30630G1X-8.799
N30640G1Y-5.182
N30650G1X-9.212
N30660G1Y-5.102
N30670G1X-8.799
N30680G1Y-5.022
N30690G1X-9.212
N30700G1Y-4.942
N30710G1X-8.799
N30720G1Y-4.862
N30730G1X-9.212
N30740G1Y-4.782
N30750G1X-8.799
N30760G1Y-4.702
N30770G1X-9.212
N30780G1Y-4.622
N30790G1X-8.799
N30800G1Y-4.542
N30810G1X-9.212
N30820G1Y-4.462
N30830G1X-8.799
N30840G1Y-4.382
N30850G1X-9.212
N30860G1Y-4.302
N30870G1X-8.799
N30880G1Y-4.222
N30890G1X-9.212
N30900G1Y-4.142
N30910G1X-8.799
N30920G1Y-4.062
N30930G1X-9.212
N30940G1Y-3.982
N30950G1X-8.799
N30960G1Y-3.902
N30970G1X-9.212
N30980G1Y-3.822
N30990G1X-8.799
N31000G1Y-3.742
N31010G1X-9.212
N31020G1Y-3.662
N31030G1X-8.799
N31040G1Y-3.582
N31050G1X-9.212
N31060G1Y-3.502
N31070G1X-8.799
N31080G1Y-3.422
N31090G1X-9.212
N31100G1Y-3.342
N31110G1X-8.799
N31120G1Y-3.262
N31130G1X-9.212
N31140G1Y-3.182
N31150G1X-8.799
N31160G1Y-3.102
N31170G1X-9.212
N31180G1Y-3.022
N31190G1X-8.799
N31200G1Y-2.942
N31210G1X-9.212
N31220G1Y-2.912
N31230G1X-9.750
N31240G1X-9.840Y-2.893
N31250G1X-9.889Y-2.862
N31260G1X-8.124
N31270G1X-8.110Y-2.853
N31280G1X-8.073Y-2.791
N31290G1X-8.071Y-2.782
N31300G1X-9.943
N31310G1X-9.954Y-2.706
N31320G1X-9.954Y-2.702
N31330G1X-8.061
N31340G1X-8.073Y-2.622
N31350G1X-9.941
N31360G1X-9.903Y-2.559
N31370G1X-9.875Y-2.542
N31380G1X-8.138
N31390G00Z6.000
N31400G00X-8.799Y-5.294
N31410G1Z-0.500F480.0
N31420G1Y-2.912F1200.0
N31430G1X-8.263
N31440G1X-8.174Y-2.894
N31450G1X-8.110Y-2.853
N31460G1X-8.073Y-2.791
N31470G1X-8.060Y-2.706
N31480G1X-8.073Y-2.621
N31490G1X-8.111Y-2.559
N31500G1X-8.175Y-2.518
N31510G1X-8.263Y-2.499
N31520G1X-9.750
N31530G1X-9.839Y-2.518
N31540G1X-9.903Y-2.559
N31550G1X-9.941Y-2.622
N31560G1X-9.954Y-2.706
N31570G1X-9.942Y-2.790
N31580G1X-9.904Y-2.852
N31590G1X-9.840Y-2.893
N31600G1X-9.750Y-2.912
N31610G1X-9.212
N31620G1Y-5.294
N31630G1X-9.195Y-5.383
N31640G1X-9.156Y-5.446
N31650G1X-9.096Y-5.485
N31660G1X-9.015Y-5.499
N31670G1X-8.933Y-5.487
N31680G1X-8.870Y-5.449
N31690G1X-8.825Y-5.385
N31700G1X-8.799Y-5.294
N31710G00Z6.000
N31720G00X-6.992Y-5.438
N31730G1Z-0.500F480.0
N31740G1X-6.303F1200.0
N31750G1X-6.200Y-5.393
N31760G1X-6.141Y-5.358
N31770G1X-7.164
N31780G1X-7.191Y-5.344
N31790G1X-7.271Y-5.278
N31800G1X-6.028
N31810G1X-5.987Y-5.245
N31820G1X-5.939Y-5.198
N31830G1X-7.356
N31840G1X-7.418Y-5.118
N31850G1X-5.866
N31860G1X-5.807Y-5.038
N31870G1X-6.418
N31880G1X-6.337Y-4.997
N31890G1X-6.288Y-4.958
N31900G1X-5.766
N31910G1X-5.738Y-4.900
N31920G1X-5.732Y-4.878
N31930G1X-6.202
N31940G1X-6.143Y-4.798
N31950G1X-5.711
N31960G1X-5.690Y-4.718
N31970G1X-6.112
N31980G1X-6.092Y-4.665
N31990G1X-6.089Y-4.638
N32000G1X-5.669
N32010G1X-5.664Y-4.619
N32020G1X-5.660Y-4.576
N32030G1X-5.660Y-4.558
N32040G1X-6.080
N32050G1X-6.075Y-4.516
N32060G1X-6.079Y-4.478
N32070G1X-5.660
N32080G1X-5.660Y-4.436
N32090G1X-5.666Y-4.398
N32100G1X-6.088
N32110G1X-6.091Y-4.367
N32120G1X-6.110Y-4.318
N32130G1X-5.679
N32140G1X-5.682Y-4.298
N32150G1X-5.701Y-4.238
N32160G1X-6.140
N32170G1X-6.199Y-4.158
N32180G1X-5.727
N32190G1X-5.766Y-4.078
N32200G1X-6.284
N32210G1X-6.337Y-4.036
N32220G1X-6.415Y-3.998
N32230G1X-5.810
N32240G1X-5.864Y-3.918
N32250G1X-7.502
N32260G1X-7.471Y-3.838
N32270G1X-5.932
N32280G1X-5.973Y-3.792
N32290G1X-6.016Y-3.758
N32300G1X-7.440
N32310G1X-7.409Y-3.678
N32320G1X-6.131
N32330G1X-6.206Y-3.636
N32340G1X-6.309Y-3.598
N32350G1X-7.369
N32360G1X-7.327Y-3.518
N32370G1X-6.856
N32380G1X-6.832Y-3.480
N32390G1X-6.801Y-3.438
N32400G1X-7.284
N32410G1X-7.242Y-3.358
N32420G1X-6.742
N32430G1X-6.706Y-3.308
N32440G1X-6.678Y-3.278
N32450G1X-7.190
N32460G1X-7.132Y-3.198
N32470G1X-6.604
N32480G1X-6.561Y-3.152
N32490G1X-6.521Y-3.118
N32500G1X-7.074
N32510G1X-7.018Y-3.040
N32520G1X-7.016Y-3.038
N32530G1X-6.427
N32540G1X-6.334Y-2.958
N32550G1X-6.939
N32560G1X-6.863Y-2.878
N32570G1X-6.240
N32580G1X-6.237Y-2.875
N32590G1X-6.195Y-2.837
N32600G1X-6.171Y-2.798
N32610G1X-6.786
N32620G1X-6.774Y-2.785
N32630G1X-6.693Y-2.718
N32640G1X-6.145
N32650G1X-6.142Y-2.700
N32660G1X-6.158Y-2.638
N32670G1X-6.598
N32680G1X-6.502Y-2.558
N32690G1X-6.217
N32700G00Z6.000
N32710G00X-6.865Y-5.038
N32720G1Z-0.500F480.0
N32730G1X-7.472F1200.0
N32740G1X-7.514Y-4.958
N32750G1X-6.995
N32760G1X-7.082Y-4.879
N32770G1X-7.083Y-4.878
N32780G1X-7.551
N32790G1X-7.577Y-4.798
N32800G1X-7.132
N32810G1X-7.148Y-4.771
N32820G1X-7.169Y-4.718
N32830G1X-7.601
N32840G1X-7.611Y-4.638
N32850G1X-7.195
N32860G1X-7.208Y-4.558
N32870G1X-7.620
N32880G1X-7.623Y-4.538
N32890G1X-7.618Y-4.478
N32900G1X-7.207
N32910G1X-7.205Y-4.436
N32920G1X-7.195Y-4.398
N32930G1X-7.613
N32940G1X-7.610Y-4.352
N32950G1X-7.607Y-4.334
N32960G1X-7.603Y-4.318
N32970G1X-7.173
N32980G1X-7.135Y-4.238
N32990G1X-7.587
N33000G1X-7.571Y-4.158
N33010G1X-7.081
N33020G1X-7.057Y-4.126
N33030G1X-7.001Y-4.078
N33040G1X-7.550
N33050G1X-7.527Y-3.998
N33060G1X-6.874
N33070G00Z6.000
N33080G00X-6.140Y-4.238
N33090G1Z-0.500F480.0
N33100G1X-6.091Y-4.367F1200.0
N33110G1X-6.075Y-4.516
N33120G1X-6.092Y-4.665
N33130G1X-6.141Y-4.794
N33140G1X-6.223Y-4.905
N33150G1X-6.337Y-4.997
N33160G1X-6.425Y-5.041
N33170G1X-6.519Y-5.070
N33180G1X-6.620Y-5.082
N33190G1X-6.728Y-5.079
N33200G1X-6.851Y-5.046
N33210G1X-6.976Y-4.975
N33220G1X-7.082Y-4.879
N33230G1X-7.148Y-4.771
N33240G1X-7.191Y-4.661
N33250G1X-7.210Y-4.549
N33260G1X-7.205Y-4.436
N33270G1X-7.175Y-4.323
N33280G1X-7.125Y-4.216
N33290G1X-7.057Y-4.126
N33300G1X-6.972Y-4.052
N33310G1X-6.868Y-3.994
N33320G1X-6.733Y-3.953
N33330G1X-6.599Y-3.945
N33340G1X-6.467Y-3.973
N33350G1X-6.337Y-4.036
N33360G1X-6.222Y-4.127
N33370G1X-6.140Y-4.238
N33380G00Z6.000
N33390G00X-5.792Y-4.025
N33400G1Z-0.500F480.0
N33410G1X-5.876Y-3.899F1200.0
N33420G1X-5.973Y-3.792
N33430G1X-6.083Y-3.704
N33440G1X-6.206Y-3.636
N33450G1X-6.377Y-3.572
N33460G1X-6.531Y-3.544
N33470G1X-6.686Y-3.542
N33480G1X-6.864Y-3.559
N33490G1X-6.874Y-3.561
N33500G1X-6.885Y-3.564
N33510G1X-6.876Y-3.549
N33520G1X-6.868Y-3.536
N33530G1X-6.832Y-3.480
N33540G1X-6.706Y-3.308
N33550G1X-6.561Y-3.152
N33560G1X-6.237Y-2.875
N33570G1X-6.195Y-2.837
N33580G1X-6.154Y-2.768
N33590G1X-6.142Y-2.700
N33600G1X-6.159Y-2.633
N33610G1X-6.205Y-2.568
N33620G1X-6.267Y-2.517
N33630G1X-6.332Y-2.495
N33640G1X-6.401Y-2.501
N33650G1X-6.474Y-2.537
N33660G1X-6.489Y-2.547
N33670G1X-6.774Y-2.785
N33680G1X-7.018Y-3.040
N33690G1X-7.226Y-3.328
N33700G1X-7.403Y-3.662
N33710G1X-7.512Y-3.942
N33720G1X-7.566Y-4.137
N33730G1X-7.607Y-4.334
N33740G1X-7.610Y-4.352
N33750G1X-7.623Y-4.538
N33760G1X-7.601Y-4.720
N33770G1X-7.545Y-4.897
N33780G1X-7.455Y-5.071
N33790G1X-7.335Y-5.224
N33800G1X-7.191Y-5.344
N33810G1X-7.022Y-5.430
N33820G1X-6.827Y-5.481
N33830G1X-6.691Y-5.496
N33840G1X-6.560Y-5.494
N33850G1X-6.434Y-5.476
N33860G1X-6.314Y-5.443
N33870G1X-6.200Y-5.393
N33880G1X-6.090Y-5.327
N33890G1X-5.987Y-5.245
N33900G1X-5.888Y-5.147
N33910G1X-5.800Y-5.029
N33920G1X-5.738Y-4.900
N33930G1X-5.664Y-4.619
N33940G1X-5.660Y-4.576
N33950G1X-5.660Y-4.436
N33960G1X-5.682Y-4.298
N33970G1X-5.726Y-4.160
N33980G1X-5.792Y-4.025
N33990G00Z6.000
N34000G00Z20.000
N34010G00X0.000Y0.000
N34020M09
N34030M30
%
