( LIGHTS_PANEL_ENGRAVE )
( File created: Monday December 23 2019 - 12:21 PM)
( USBCNC Postprocessor )
( Material Size)
( X= 250.000, Y= 250.000, Z= 2.000)
()
(Toolpaths used in this file:)
(LIGHTS_PANEL_ENGRAVE)
(Tools used in this file: )
(1 = Engraving Tool)
N100G00G21G17G90G40G49
N110G80
N120 (Engraving Tool)
N130G00G43Z20.000H1
N140S12000M03
N150(Toolpath:- LIGHTS_PANEL_ENGRAVE)
N160()
N170G94
N180X0.000Y0.000F1200.0
N190G00X6.726Y-4.947Z6.000
N200G1Z-0.500F480.0
N210G1X8.575F1200.0
N220G1X8.577Y-4.946
N230G1X8.616Y-4.885
N240G1X8.619Y-4.867
N250G1X6.677
N260G1X6.658Y-4.799
N270G1Y-4.787
N280G1X8.627
N290G1X8.618Y-4.720
N300G1X8.610Y-4.707
N310G1X6.658
N320G1Y-4.627
N330G1X8.534
N340G1X8.515Y-4.615
N350G1X8.424Y-4.593
N360G1X7.072Y-4.594
N370G1Y-4.547
N380G1X6.658
N390G1Y-4.467
N400G1X7.072
N410G1Y-4.387
N420G1X6.658
N430G1Y-4.307
N440G1X7.072
N450G1Y-4.227
N460G1X6.658
N470G1Y-4.147
N480G1X7.072
N490G1Y-4.067
N500G1X6.658
N510G1Y-3.987
N520G1X7.072
N530G1Y-3.907
N540G1X6.658
N550G1Y-3.827
N560G1X7.072
N570G1Y-3.747
N580G1X6.658
N590G1Y-3.667
N600G1X7.072
N610G1Y-3.587
N620G1X6.658
N630G1Y-3.507
N640G1X7.072
N650G1Y-3.427
N660G1X6.658
N670G1Y-3.347
N680G1X7.072
N690G1Y-3.267
N700G1X6.658
N710G1Y-3.187
N720G1X7.072
N730G1Y-3.107
N740G1X6.658
N750G1Y-3.027
N760G1X7.072
N770G1Y-2.947
N780G1X6.658
N790G1Y-2.867
N800G1X7.072
N810G1Y-2.787
N820G1X6.658
N830G1Y-2.707
N840G1X7.072
N850G1Y-2.627
N860G1X6.658
N870G1Y-2.547
N880G1X7.072
N890G1Y-2.467
N900G1X6.658
N910G1Y-2.387
N920G1X7.072
N930G1Y-2.307
N940G1X6.658
N950G1Y-2.227
N960G1X7.072
N970G1Y-2.209
N980G1X7.059Y-2.147
N990G1X6.675
N1000G1X6.683Y-2.117
N1010G1X6.717Y-2.067
N1020G1X7.021
N1030G00Z6.000
N1040G00X6.658Y-4.799
N1050G1Z-0.500F480.0
N1060G1X6.682Y-4.884F1200.0
N1070G1X6.724Y-4.946
N1080G1X6.786Y-4.986
N1090G1X6.866Y-5.003
N1100G1X8.422
N1110G1X8.512Y-4.985
N1120G1X8.577Y-4.946
N1130G1X8.616Y-4.885
N1140G1X8.630Y-4.803
N1150G1X8.618Y-4.720
N1160G1X8.579Y-4.657
N1170G1X8.515Y-4.615
N1180G1X8.424Y-4.593
N1190G1X7.072Y-4.594
N1200G1Y-2.209
N1210G1X7.053Y-2.120
N1220G1X7.014Y-2.056
N1230G1X6.953Y-2.016
N1240G1X6.872Y-2.002
N1250G1X6.790Y-2.013
N1260G1X6.727Y-2.052
N1270G1X6.683Y-2.117
N1280G1X6.658Y-2.209
N1290G1Y-4.799
N1300G00Z6.000
N1310G00X9.831Y-4.924
N1320G1Z-0.500F480.0
N1330G1X10.150F1200.0
N1340G1X10.176Y-4.887
N1350G1X10.188Y-4.844
N1360G1X9.799
N1370G1X9.789Y-4.796
N1380G1Y-4.764
N1390G1X10.202
N1400G1Y-4.684
N1410G1X9.789
N1420G1Y-4.604
N1430G1X10.202
N1440G1Y-4.524
N1450G1X9.789
N1460G1Y-4.444
N1470G1X10.202
N1480G1Y-4.364
N1490G1X9.789
N1500G1Y-4.284
N1510G1X10.202
N1520G1Y-4.204
N1530G1X9.789
N1540G1Y-4.124
N1550G1X10.202
N1560G1Y-4.044
N1570G1X9.789
N1580G1Y-3.964
N1590G1X10.202
N1600G1Y-3.884
N1610G1X9.789
N1620G1Y-3.804
N1630G1X10.202
N1640G1Y-3.724
N1650G1X9.789
N1660G1Y-3.644
N1670G1X10.202
N1680G1Y-3.564
N1690G1X9.789
N1700G1Y-3.484
N1710G1X10.202
N1720G1Y-3.404
N1730G1X9.789
N1740G1Y-3.324
N1750G1X10.202
N1760G1Y-3.244
N1770G1X9.789
N1780G1Y-3.164
N1790G1X10.202
N1800G1Y-3.084
N1810G1X9.789
N1820G1Y-3.004
N1830G1X10.202
N1840G1Y-2.924
N1850G1X9.789
N1860G1Y-2.844
N1870G1X10.202
N1880G1Y-2.764
N1890G1X9.789
N1900G1Y-2.684
N1910G1X10.202
N1920G1Y-2.604
N1930G1X9.789
N1940G1Y-2.524
N1950G1X10.202
N1960G1Y-2.444
N1970G1X9.789
N1980G1Y-2.414
N1990G1X9.251
N2000G1X9.162Y-2.395
N2010G1X9.112Y-2.364
N2020G1X10.877
N2030G1X10.891Y-2.356
N2040G1X10.929Y-2.293
N2050G1X10.930Y-2.284
N2060G1X9.058
N2070G1X9.047Y-2.208
N2080G1X9.048Y-2.204
N2090G1X10.941
N2100G1X10.928Y-2.124
N2110G1X9.060
N2120G1X9.099Y-2.062
N2130G1X9.126Y-2.044
N2140G1X10.864
N2150G00Z6.000
N2160G00X10.202Y-4.796
N2170G1Z-0.500F480.0
N2180G1Y-2.414F1200.0
N2190G1X10.738
N2200G1X10.827Y-2.396
N2210G1X10.891Y-2.356
N2220G1X10.929Y-2.293
N2230G1X10.941Y-2.208
N2240G1X10.928Y-2.124
N2250G1X10.890Y-2.061
N2260G1X10.827Y-2.020
N2270G1X10.738Y-2.001
N2280G1X9.251
N2290G1X9.162Y-2.021
N2300G1X9.099Y-2.062
N2310G1X9.060Y-2.124
N2320G1X9.047Y-2.208
N2330G1X9.060Y-2.292
N2340G1X9.098Y-2.355
N2350G1X9.162Y-2.395
N2360G1X9.251Y-2.414
N2370G1X9.789
N2380G1Y-4.796
N2390G1X9.807Y-4.885
N2400G1X9.846Y-4.949
N2410G1X9.905Y-4.987
N2420G1X9.986Y-5.001
N2430G1X10.068Y-4.990
N2440G1X10.131Y-4.952
N2450G1X10.176Y-4.887
N2460G1X10.202Y-4.796
N2470G00Z6.000
N2480G00X12.010Y-4.940
N2490G1Z-0.500F480.0
N2500G1X12.698F1200.0
N2510G1X12.802Y-4.895
N2520G1X12.860Y-4.860
N2530G1X11.837
N2540G1X11.810Y-4.847
N2550G1X11.730Y-4.780
N2560G1X12.973
N2570G1X13.015Y-4.748
N2580G1X13.062Y-4.700
N2590G1X11.645
N2600G1X11.583Y-4.620
N2610G1X13.135
N2620G1X13.195Y-4.540
N2630G1X12.583
N2640G1X12.665Y-4.499
N2650G1X12.713Y-4.460
N2660G1X13.235
N2670G1X13.263Y-4.402
N2680G1X13.269Y-4.380
N2690G1X12.799
N2700G1X12.858Y-4.300
N2710G1X13.290
N2720G1X13.311Y-4.220
N2730G1X12.889
N2740G1X12.910Y-4.167
N2750G1X12.913Y-4.140
N2760G1X13.332
N2770G1X13.337Y-4.121
N2780G1X13.342Y-4.078
N2790G1X13.342Y-4.060
N2800G1X12.922
N2810G1X12.926Y-4.018
N2820G1X12.922Y-3.980
N2830G1X13.342
N2840G1X13.341Y-3.939
N2850G1X13.335Y-3.900
N2860G1X12.913
N2870G1X12.910Y-3.870
N2880G1X12.891Y-3.820
N2890G1X13.323
N2900G1X13.319Y-3.800
N2910G1X13.300Y-3.740
N2920G1X12.861
N2930G1X12.802Y-3.660
N2940G1X13.274
N2950G1X13.235Y-3.580
N2960G1X12.718
N2970G1X12.665Y-3.538
N2980G1X12.586Y-3.500
N2990G1X13.191
N3000G1X13.138Y-3.420
N3010G1X11.499
N3020G1X11.530Y-3.340
N3030G1X13.070
N3040G1X13.028Y-3.295
N3050G1X12.985Y-3.260
N3060G1X11.561
N3070G1X11.592Y-3.180
N3080G1X12.871
N3090G1X12.795Y-3.138
N3100G1X12.693Y-3.100
N3110G1X11.632
N3120G1X11.675Y-3.020
N3130G1X12.145
N3140G1X12.170Y-2.983
N3150G1X12.201Y-2.940
N3160G1X11.717
N3170G1X11.759Y-2.860
N3180G1X12.259
N3190G1X12.296Y-2.811
N3200G1X12.324Y-2.780
N3210G1X11.811
N3220G1X11.869Y-2.700
N3230G1X12.398
N3240G1X12.440Y-2.655
N3250G1X12.480Y-2.620
N3260G1X11.927
N3270G1X11.984Y-2.542
N3280G1X11.986Y-2.540
N3290G1X12.574
N3300G1X12.668Y-2.460
N3310G1X12.062
N3320G1X12.139Y-2.380
N3330G1X12.761
N3340G1X12.764Y-2.378
N3350G1X12.807Y-2.340
N3360G1X12.830Y-2.300
N3370G1X12.215
N3380G1X12.228Y-2.287
N3390G1X12.308Y-2.220
N3400G1X12.856
N3410G1X12.859Y-2.203
N3420G1X12.843Y-2.140
N3430G1X12.404
N3440G1X12.500Y-2.060
N3450G1X12.785
N3460G00Z6.000
N3470G00X12.136Y-4.540
N3480G1Z-0.500F480.0
N3490G1X11.529F1200.0
N3500G1X11.488Y-4.460
N3510G1X12.006
N3520G1X11.919Y-4.382
N3530G1X11.918Y-4.380
N3540G1X11.450
N3550G1X11.425Y-4.300
N3560G1X11.869
N3570G1X11.853Y-4.273
N3580G1X11.833Y-4.220
N3590G1X11.400
N3600G1X11.391Y-4.140
N3610G1X11.806
N3620G1X11.793Y-4.060
N3630G1X11.381
N3640G1X11.379Y-4.040
N3650G1X11.383Y-3.980
N3660G1X11.795
N3670G1X11.797Y-3.939
N3680G1X11.807Y-3.900
N3690G1X11.389
N3700G1X11.392Y-3.854
N3710G1X11.395Y-3.837
N3720G1X11.398Y-3.820
N3730G1X11.828
N3740G1X11.866Y-3.740
N3750G1X11.414
N3760G1X11.431Y-3.660
N3770G1X11.920
N3780G1X11.944Y-3.629
N3790G1X12.000Y-3.580
N3800G1X11.451
N3810G1X11.474Y-3.500
N3820G1X12.127
N3830G00Z6.000
N3840G00X12.861Y-3.740
N3850G1Z-0.500F480.0
N3860G1X12.910Y-3.870F1200.0
N3870G1X12.926Y-4.018
N3880G1X12.910Y-4.167
N3890G1X12.860Y-4.297
N3900G1X12.779Y-4.407
N3910G1X12.665Y-4.499
N3920G1X12.577Y-4.544
N3930G1X12.482Y-4.572
N3940G1X12.381Y-4.585
N3950G1X12.274Y-4.581
N3960G1X12.151Y-4.549
N3970G1X12.025Y-4.478
N3980G1X11.919Y-4.382
N3990G1X11.853Y-4.273
N4000G1X11.810Y-4.163
N4010G1X11.791Y-4.051
N4020G1X11.797Y-3.939
N4030G1X11.826Y-3.825
N4040G1X11.876Y-3.719
N4050G1X11.944Y-3.629
N4060G1X12.030Y-3.555
N4070G1X12.133Y-3.497
N4080G1X12.268Y-3.455
N4090G1X12.402Y-3.448
N4100G1X12.534Y-3.475
N4110G1X12.665Y-3.538
N4120G1X12.779Y-3.629
N4130G1X12.861Y-3.740
N4140G00Z6.000
N4150G00X13.209Y-3.527
N4160G1Z-0.500F480.0
N4170G1X13.125Y-3.401F1200.0
N4180G1X13.028Y-3.295
N4190G1X12.918Y-3.207
N4200G1X12.795Y-3.138
N4210G1X12.624Y-3.075
N4220G1X12.471Y-3.046
N4230G1X12.315Y-3.045
N4240G1X12.137Y-3.062
N4250G1X12.127Y-3.063
N4260G1X12.117Y-3.066
N4270G1X12.126Y-3.052
N4280G1X12.133Y-3.038
N4290G1X12.170Y-2.983
N4300G1X12.296Y-2.811
N4310G1X12.440Y-2.655
N4320G1X12.764Y-2.378
N4330G1X12.807Y-2.340
N4340G1X12.847Y-2.271
N4350G1X12.859Y-2.203
N4360G1X12.842Y-2.136
N4370G1X12.797Y-2.070
N4380G1X12.735Y-2.019
N4390G1X12.669Y-1.997
N4400G1X12.600Y-2.004
N4410G1X12.527Y-2.039
N4420G1X12.512Y-2.050
N4430G1X12.228Y-2.287
N4440G1X11.984Y-2.542
N4450G1X11.775Y-2.830
N4460G1X11.598Y-3.164
N4470G1X11.490Y-3.444
N4480G1X11.435Y-3.639
N4490G1X11.395Y-3.837
N4500G1X11.392Y-3.854
N4510G1X11.379Y-4.040
N4520G1X11.400Y-4.222
N4530G1X11.456Y-4.400
N4540G1X11.546Y-4.573
N4550G1X11.666Y-4.727
N4560G1X11.810Y-4.847
N4570G1X11.980Y-4.932
N4580G1X12.174Y-4.984
N4590G1X12.310Y-4.998
N4600G1X12.441Y-4.996
N4610G1X12.567Y-4.979
N4620G1X12.687Y-4.945
N4630G1X12.802Y-4.895
N4640G1X12.911Y-4.829
N4650G1X13.015Y-4.748
N4660G1X13.113Y-4.650
N4670G1X13.201Y-4.532
N4680G1X13.263Y-4.402
N4690G1X13.337Y-4.121
N4700G1X13.342Y-4.078
N4710G1X13.341Y-3.939
N4720G1X13.319Y-3.800
N4730G1X13.275Y-3.663
N4740G1X13.209Y-3.527
N4750G00Z6.000
N4760G00X12.827Y15.068
N4770G1Z-0.500F480.0
N4780G1X12.527F1200.0
N4790G1X12.490Y15.103
N4800G1X12.480Y15.148
N4810G1X12.873
N4820G1X12.879Y15.207
N4830G1Y15.228
N4840G1X12.466
N4850G1X12.466Y15.308
N4860G1X12.879
N4870G1Y15.364
N4880G1Y15.388
N4890G1X12.465
N4900G1X12.465Y15.468
N4910G1X12.879
N4920G1Y15.538
N4930G1X13.259
N4940G1X13.313Y15.548
N4950G1X11.421
N4960G1X11.370Y15.560
N4970G1X11.298Y15.623
N4980G1X11.296Y15.628
N4990G1X13.426
N5000G1X13.450Y15.670
N5010G1X13.456Y15.708
N5020G1X11.262
N5030G1X11.260Y15.712
N5040G1X11.266Y15.788
N5050G1X13.455
N5060G1X13.450Y15.819
N5070G1X13.422Y15.868
N5080G1X11.287
N5090G1X11.312Y15.948
N5100G1X13.285
N5110G1X13.259Y15.953
N5120G1X12.879
N5130G1Y16.028
N5140G1X12.465
N5150G1Y16.108
N5160G1X12.879
N5170G1Y16.188
N5180G1X12.465
N5190G1Y16.268
N5200G1X12.879
N5210G1Y16.348
N5220G1X12.465
N5230G1Y16.428
N5240G1X12.879
N5250G1Y16.508
N5260G1X12.465
N5270G1Y16.561
N5280G1X12.468Y16.588
N5290G1X12.874
N5300G1X12.860Y16.652
N5310G1X12.847Y16.668
N5320G1X12.492
N5330G1X12.494Y16.674
N5340G1X12.532Y16.716
N5350G1X12.583Y16.748
N5360G1X12.763
N5370G00Z6.000
N5380G00X11.773Y16.028
N5390G1Z-0.500F480.0
N5400G1X11.338F1200.0
N5410G1X11.364Y16.108
N5420G1X11.798
N5430G1X11.824Y16.188
N5440G1X11.390
N5450G1X11.415Y16.268
N5460G1X11.850
N5470G1X11.875Y16.348
N5480G1X11.441
N5490G1X11.467Y16.428
N5500G1X11.901
N5510G1X11.927Y16.508
N5520G1X11.492
N5530G1X11.518Y16.588
N5540G1X11.953
N5550G1X11.978Y16.668
N5560G1X11.544
N5570G1X11.569Y16.748
N5580G1X12.004
N5590G1X12.030Y16.828
N5600G1X11.595
N5610G1X11.621Y16.908
N5620G1X12.056
N5630G1X12.081Y16.988
N5640G1X11.647
N5650G1X11.672Y17.068
N5660G1X12.107
N5670G1X12.133Y17.148
N5680G1X11.698
N5690G1X11.724Y17.228
N5700G1X12.158
N5710G1X12.184Y17.308
N5720G1X11.749
N5730G1X11.775Y17.388
N5740G1X12.210
N5750G1X12.236Y17.468
N5760G1X11.801
N5770G1X11.826Y17.548
N5780G1X12.261
N5790G1X12.287Y17.628
N5800G1X11.852
N5810G1X11.878Y17.708
N5820G1X12.313
N5830G1X12.320Y17.730
N5840G1X12.331Y17.788
N5850G1X11.903
N5860G1X11.926Y17.857
N5870G1X11.926Y17.862
N5880G1X11.929Y17.868
N5890G1X12.323
N5900G1X12.291Y17.922
N5910G1X12.260Y17.948
N5920G1X11.984
N5930G00Z6.000
N5940G00X12.466Y15.207
N5950G1Z-0.500F480.0
N5960G1X12.490Y15.103F1200.0
N5970G1X12.565Y15.031
N5980G1X12.667Y15.002
N5990G1X12.771Y15.026
N6000G1X12.818Y15.057
N6010G1X12.852Y15.098
N6020G1X12.873Y15.148
N6030G1X12.879Y15.207
N6040G1Y15.364
N6050G1Y15.538
N6060G1X13.259
N6070G1X13.347Y15.554
N6080G1X13.411Y15.603
N6090G1X13.450Y15.670
N6100G1X13.462Y15.745
N6110G1X13.450Y15.819
N6120G1X13.411Y15.888
N6130G1X13.347Y15.937
N6140G1X13.259Y15.953
N6150G1X12.879
N6160G1Y16.561
N6170G1X12.860Y16.652
N6180G1X12.803Y16.723
N6190G1X12.752Y16.755
N6200G1X12.698Y16.770
N6210G1X12.642Y16.768
N6220G1X12.583Y16.748
N6230G1X12.532Y16.716
N6240G1X12.494Y16.674
N6250G1X12.472Y16.622
N6260G1X12.465Y16.561
N6270G1Y15.953
N6280G1X11.748
N6290G1X12.320Y17.730
N6300G1X12.334Y17.802
N6310G1X12.324Y17.866
N6320G1X12.291Y17.922
N6330G1X12.235Y17.969
N6340G1X12.146Y18.000
N6350G1X12.056Y17.991
N6360G1X11.979Y17.945
N6370G1X11.929Y17.868
N6380G1X11.926Y17.862
N6390G1X11.926Y17.857
N6400G1X11.268Y15.809
N6410G1X11.260Y15.712
N6420G1X11.298Y15.623
N6430G1X11.370Y15.560
N6440G1X11.464Y15.538
N6450G1X12.465
N6460G1X12.466Y15.368
N6470G1X12.466Y15.207
N6480G00Z6.000
N6490G00X9.710Y15.078
N6500G1Z-0.500F480.0
N6510G1X10.030F1200.0
N6520G1X10.055Y15.115
N6530G1X10.068Y15.158
N6540G1X9.678
N6550G1X9.668Y15.206
N6560G1Y15.238
N6570G1X10.081
N6580G1Y15.318
N6590G1X9.668
N6600G1Y15.398
N6610G1X10.081
N6620G1Y15.478
N6630G1X9.668
N6640G1Y15.558
N6650G1X10.081
N6660G1Y15.638
N6670G1X9.668
N6680G1Y15.718
N6690G1X10.081
N6700G1Y15.798
N6710G1X9.668
N6720G1Y15.878
N6730G1X10.081
N6740G1Y15.958
N6750G1X9.668
N6760G1Y16.038
N6770G1X10.081
N6780G1Y16.118
N6790G1X9.668
N6800G1Y16.198
N6810G1X10.081
N6820G1Y16.278
N6830G1X9.668
N6840G1Y16.358
N6850G1X10.081
N6860G1Y16.438
N6870G1X9.668
N6880G1Y16.518
N6890G1X10.081
N6900G1Y16.598
N6910G1X9.668
N6920G1Y16.678
N6930G1X10.081
N6940G1Y16.758
N6950G1X9.668
N6960G1Y16.838
N6970G1X10.081
N6980G1Y16.918
N6990G1X9.668
N7000G1Y16.998
N7010G1X10.081
N7020G1Y17.078
N7030G1X9.668
N7040G1Y17.158
N7050G1X10.081
N7060G1Y17.238
N7070G1X9.668
N7080G1Y17.318
N7090G1X10.081
N7100G1Y17.398
N7110G1X9.668
N7120G1Y17.478
N7130G1X10.081
N7140G1Y17.558
N7150G1X9.668
N7160G1Y17.588
N7170G1X9.131
N7180G1X9.041Y17.607
N7190G1X8.992Y17.638
N7200G1X10.757
N7210G1X10.770Y17.647
N7220G1X10.808Y17.709
N7230G1X10.809Y17.718
N7240G1X8.937
N7250G1X8.926Y17.794
N7260G1X8.927Y17.798
N7270G1X10.820
N7280G1X10.807Y17.878
N7290G1X8.939
N7300G1X8.978Y17.940
N7310G1X9.005Y17.958
N7320G1X10.743
N7330G00Z6.000
N7340G00X10.081Y15.206
N7350G1Z-0.500F480.0
N7360G1Y17.588F1200.0
N7370G1X10.617
N7380G1X10.707Y17.606
N7390G1X10.770Y17.647
N7400G1X10.808Y17.709
N7410G1X10.820Y17.794
N7420G1X10.807Y17.878
N7430G1X10.769Y17.941
N7440G1X10.706Y17.982
N7450G1X10.617Y18.001
N7460G1X9.131
N7470G1X9.041Y17.981
N7480G1X8.978Y17.940
N7490G1X8.939Y17.878
N7500G1X8.926Y17.794
N7510G1X8.939Y17.710
N7520G1X8.977Y17.647
N7530G1X9.041Y17.607
N7540G1X9.131Y17.588
N7550G1X9.668
N7560G1Y15.206
N7570G1X9.686Y15.117
N7580G1X9.725Y15.053
N7590G1X9.785Y15.015
N7600G1X9.865Y15.001
N7610G1X9.947Y15.012
N7620G1X10.010Y15.050
N7630G1X10.055Y15.115
N7640G1X10.081Y15.206
N7650G00Z6.000
N7660G00X6.605Y15.055
N7670G1Z-0.500F480.0
N7680G1X8.454F1200.0
N7690G1X8.456Y15.056
N7700G1X8.495Y15.117
N7710G1X8.498Y15.135
N7720G1X6.556
N7730G1X6.538Y15.203
N7740G1Y15.215
N7750G1X8.506
N7760G1X8.497Y15.282
N7770G1X8.489Y15.295
N7780G1X6.538
N7790G1Y15.375
N7800G1X8.413
N7810G1X8.394Y15.387
N7820G1X8.303Y15.409
N7830G1X6.951Y15.408
N7840G1Y15.455
N7850G1X6.538
N7860G1Y15.535
N7870G1X6.951
N7880G1Y15.615
N7890G1X6.538
N7900G1Y15.695
N7910G1X6.951
N7920G1Y15.775
N7930G1X6.538
N7940G1Y15.855
N7950G1X6.951
N7960G1Y15.935
N7970G1X6.538
N7980G1Y16.015
N7990G1X6.951
N8000G1Y16.095
N8010G1X6.538
N8020G1Y16.175
N8030G1X6.951
N8040G1Y16.255
N8050G1X6.538
N8060G1Y16.335
N8070G1X6.951
N8080G1Y16.415
N8090G1X6.538
N8100G1Y16.495
N8110G1X6.951
N8120G1Y16.575
N8130G1X6.538
N8140G1Y16.655
N8150G1X6.951
N8160G1Y16.735
N8170G1X6.538
N8180G1Y16.815
N8190G1X6.951
N8200G1Y16.895
N8210G1X6.538
N8220G1Y16.975
N8230G1X6.951
N8240G1Y17.055
N8250G1X6.538
N8260G1Y17.135
N8270G1X6.951
N8280G1Y17.215
N8290G1X6.538
N8300G1Y17.295
N8310G1X6.951
N8320G1Y17.375
N8330G1X6.538
N8340G1Y17.455
N8350G1X6.951
N8360G1Y17.535
N8370G1X6.538
N8380G1Y17.615
N8390G1X6.951
N8400G1Y17.695
N8410G1X6.538
N8420G1Y17.775
N8430G1X6.951
N8440G1Y17.793
N8450G1X6.938Y17.855
N8460G1X6.554
N8470G1X6.563Y17.885
N8480G1X6.596Y17.935
N8490G1X6.900
N8500G00Z6.000
N8510G00X6.538Y15.203
N8520G1Z-0.500F480.0
N8530G1X6.561Y15.118F1200.0
N8540G1X6.604Y15.056
N8550G1X6.665Y15.016
N8560G1X6.746Y14.999
N8570G1X8.301
N8580G1X8.391Y15.017
N8590G1X8.456Y15.056
N8600G1X8.495Y15.117
N8610G1X8.509Y15.199
N8620G1X8.497Y15.282
N8630G1X8.458Y15.345
N8640G1X8.394Y15.387
N8650G1X8.303Y15.409
N8660G1X6.951Y15.408
N8670G1Y17.793
N8680G1X6.932Y17.882
N8690G1X6.893Y17.946
N8700G1X6.833Y17.986
N8710G1X6.751Y18.000
N8720G1X6.669Y17.989
N8730G1X6.606Y17.950
N8740G1X6.563Y17.885
N8750G1X6.538Y17.793
N8760G1Y15.203
N8770G00Z6.000
N8780G00X-7.953Y15.050
N8790G1Z-0.500F480.0
N8800G1X-7.334F1200.0
N8810G1X-7.289Y15.062
N8820G1X-7.151Y15.130
N8830G1X-8.141
N8840G1X-8.256Y15.210
N8850G1X-7.036
N8860G1X-6.987Y15.247
N8870G1X-6.947Y15.290
N8880G1X-8.346
N8890G1X-8.411Y15.354
N8900G1X-8.422Y15.370
N8910G1X-6.875
N8920G1X-6.832Y15.417
N8930G1X-6.813Y15.450
N8940G1X-7.449
N8950G1X-7.357Y15.488
N8960G1X-7.302Y15.530
N8970G1X-6.768
N8980G1X-6.723Y15.610
N8990G1X-7.212
N9000G1X-7.146Y15.687
N9010G1X-7.144Y15.690
N9020G1X-6.697
N9030G1X-6.673Y15.770
N9040G1X-7.106
N9050G1X-7.091Y15.803
N9060G1X-7.077Y15.849
N9070G1X-7.076Y15.850
N9080G1X-6.650
N9090G1X-6.648Y15.930
N9100G1X-7.063
N9110G1X-7.062Y16.010
N9120G1X-6.646
N9130G1X-6.644Y16.080
N9140G1X-6.645Y16.090
N9150G1X-7.063
N9160G1X-7.066Y16.131
N9170G1X-7.078Y16.170
N9180G1X-6.659
N9190G1X-6.669Y16.232
N9200G1X-6.674Y16.250
N9210G1X-7.110
N9220G1X-7.148Y16.320
N9230G1X-7.155Y16.330
N9240G1X-6.699
N9250G1X-6.713Y16.373
N9260G1X-6.730Y16.410
N9270G1X-7.217
N9280G1X-7.295Y16.480
N9290G1X-7.311Y16.490
N9300G1X-6.769
N9310G1X-6.776Y16.505
N9320G1X-6.819Y16.570
N9330G1X-7.473
N9340G1X-7.491Y16.577
N9350G1X-7.597Y16.596
N9360G1X-7.707Y16.594
N9370G1X-7.822Y16.571
N9380G1X-7.825Y16.570
N9390G1X-7.968
N9400G00Z6.000
N9410G00X-7.860Y15.450
N9420G1Z-0.500F480.0
N9430G1X-8.479F1200.0
N9440G1X-8.510Y15.494
N9450G1X-8.527Y15.530
N9460G1X-7.998
N9470G1X-8.016Y15.544
N9480G1X-8.074Y15.610
N9490G1X-8.565
N9500G1X-8.585Y15.651
N9510G1X-8.596Y15.690
N9520G1X-8.144
N9530G1X-8.150Y15.696
N9540G1X-8.184Y15.770
N9550G1X-8.618
N9560G1X-8.633Y15.824
N9570G1X-8.635Y15.850
N9580G1X-8.214
N9590G1X-8.226Y15.899
N9600G1X-8.239Y15.930
N9610G1X-8.623
N9620G1X-8.609Y15.968
N9630G1X-8.576Y16.010
N9640G1X-8.292
N9650G00Z6.000
N9660G00X-8.067Y16.650
N9670G1Z-0.500F480.0
N9680G1X-6.878F1200.0
N9690G1X-6.951Y16.730
N9700G1X-8.101
N9710G1X-8.103Y16.737
N9720G1X-8.101Y16.810
N9730G1X-7.046
N9740G1X-7.071Y16.830
N9750G1X-7.172Y16.890
N9760G1X-8.061
N9770G1X-8.059Y16.893
N9780G1X-7.997Y16.970
N9790G1X-7.359
N9800G1X-7.402Y16.981
N9810G1X-7.447Y16.991
N9820G1X-7.399Y17.050
N9830G1X-7.932
N9840G1X-7.867Y17.130
N9850G1X-7.334
N9860G1X-7.270Y17.210
N9870G1X-7.803
N9880G1X-7.738Y17.290
N9890G1X-7.205
N9900G1X-7.140Y17.370
N9910G1X-7.673
N9920G1X-7.608Y17.450
N9930G1X-7.075
N9940G1X-7.010Y17.530
N9950G1X-7.543
N9960G1X-7.498Y17.586
N9970G1X-8.191
N9980G1X-8.279Y17.604
N9990G1X-8.286Y17.610
N10000G1X-6.945
N10010G1X-6.902Y17.664
N10020G1X-6.887Y17.690
N10030G1X-8.367
N10040G1X-8.393Y17.737
N10050G1X-8.394Y17.770
N10060G1X-6.860
N10070G1X-6.858Y17.822
N10080G1X-6.866Y17.850
N10090G1X-8.389
N10100G1X-8.373Y17.904
N10110G1X-8.352Y17.930
N10120G1X-6.905
N10130G00Z6.000
N10140G00X-8.505Y16.056
N10150G1Z-0.500F480.0
N10160G1X-8.565Y16.023F1200.0
N10170G1X-8.609Y15.968
N10180G1X-8.636Y15.891
N10190G1X-8.635Y15.855
N10200G1X-8.633Y15.824
N10210G1X-8.585Y15.651
N10220G1X-8.510Y15.494
N10230G1X-8.411Y15.354
N10240G1X-8.285Y15.231
N10250G1X-8.141Y15.130
N10260G1X-7.985Y15.058
N10270G1X-7.816Y15.015
N10280G1X-7.636Y15.001
N10290G1X-7.457Y15.016
N10300G1X-7.289Y15.062
N10310G1X-7.133Y15.139
N10320G1X-6.987Y15.247
N10330G1X-6.832Y15.417
N10340G1X-6.716Y15.622
N10350G1X-6.650Y15.849
N10360G1X-6.644Y16.080
N10370G1X-6.669Y16.232
N10380G1X-6.713Y16.373
N10390G1X-6.776Y16.505
N10400G1X-6.858Y16.628
N10410G1X-6.958Y16.738
N10420G1X-7.071Y16.830
N10430G1X-7.199Y16.906
N10440G1X-7.341Y16.965
N10450G1X-7.357Y16.970
N10460G1X-7.402Y16.981
N10470G1X-7.447Y16.991
N10480G1X-6.902Y17.664
N10490G1X-6.861Y17.733
N10500G1X-6.858Y17.822
N10510G1X-6.882Y17.900
N10520G1X-6.924Y17.956
N10530G1X-6.985Y17.990
N10540G1X-7.063Y18.001
N10550G1X-8.192
N10560G1X-8.271Y17.990
N10570G1X-8.331Y17.958
N10580G1X-8.373Y17.904
N10590G1X-8.396Y17.828
N10600G1X-8.393Y17.737
N10610G1X-8.350Y17.659
N10620G1X-8.279Y17.604
N10630G1X-8.191Y17.586
N10640G1X-7.498
N10650G1X-8.059Y16.893
N10660G1X-8.101Y16.823
N10670G1X-8.103Y16.737
N10680G1X-8.093Y16.694
N10690G1X-8.051Y16.622
N10700G1X-7.990Y16.577
N10710G1X-7.926Y16.556
N10720G1X-7.858Y16.559
N10730G1X-7.830Y16.568
N10740G1X-7.822Y16.571
N10750G1X-7.707Y16.594
N10760G1X-7.597Y16.596
N10770G1X-7.491Y16.577
N10780G1X-7.389Y16.537
N10790G1X-7.295Y16.480
N10800G1X-7.215Y16.408
N10810G1X-7.148Y16.320
N10820G1X-7.094Y16.218
N10830G1X-7.066Y16.131
N10840G1X-7.061Y16.053
N10850G1X-7.064Y15.890
N10860G1X-7.077Y15.849
N10870G1X-7.091Y15.803
N10880G1X-7.146Y15.687
N10890G1X-7.241Y15.576
N10900G1X-7.357Y15.488
N10910G1X-7.476Y15.439
N10920G1X-7.680Y15.415
N10930G1X-7.773Y15.425
N10940G1X-7.860Y15.450
N10950G1X-7.941Y15.489
N10960G1X-8.016Y15.544
N10970G1X-8.150Y15.696
N10980G1X-8.205Y15.814
N10990G1X-8.226Y15.899
N11000G1X-8.257Y15.974
N11010G1X-8.315Y16.033
N11020G1X-8.427Y16.067
N11030G1X-8.505Y16.056
N11040G00Z6.000
N11050G00X-10.184Y15.078
N11060G1Z-0.500F480.0
N11070G1X-9.864F1200.0
N11080G1X-9.839Y15.115
N11090G1X-9.826Y15.158
N11100G1X-10.216
N11110G1X-10.226Y15.206
N11120G1Y15.238
N11130G1X-9.812
N11140G1Y15.318
N11150G1X-10.226
N11160G1Y15.398
N11170G1X-9.812
N11180G1Y15.478
N11190G1X-10.226
N11200G1Y15.558
N11210G1X-9.812
N11220G1Y15.638
N11230G1X-10.226
N11240G1Y15.718
N11250G1X-9.812
N11260G1Y15.798
N11270G1X-10.226
N11280G1Y15.878
N11290G1X-9.812
N11300G1Y15.958
N11310G1X-10.226
N11320G1Y16.038
N11330G1X-9.812
N11340G1Y16.118
N11350G1X-10.226
N11360G1Y16.198
N11370G1X-9.812
N11380G1Y16.278
N11390G1X-10.226
N11400G1Y16.358
N11410G1X-9.812
N11420G1Y16.438
N11430G1X-10.226
N11440G1Y16.518
N11450G1X-9.812
N11460G1Y16.598
N11470G1X-10.226
N11480G1Y16.678
N11490G1X-9.812
N11500G1Y16.758
N11510G1X-10.226
N11520G1Y16.838
N11530G1X-9.812
N11540G1Y16.918
N11550G1X-10.226
N11560G1Y16.998
N11570G1X-9.812
N11580G1Y17.078
N11590G1X-10.226
N11600G1Y17.158
N11610G1X-9.812
N11620G1Y17.238
N11630G1X-10.226
N11640G1Y17.318
N11650G1X-9.812
N11660G1Y17.398
N11670G1X-10.226
N11680G1Y17.478
N11690G1X-9.812
N11700G1Y17.558
N11710G1X-10.226
N11720G1Y17.588
N11730G1X-10.763
N11740G1X-10.853Y17.607
N11750G1X-10.902Y17.638
N11760G1X-9.137
N11770G1X-9.124Y17.647
N11780G1X-9.086Y17.709
N11790G1X-9.085Y17.718
N11800G1X-10.956
N11810G1X-10.968Y17.794
N11820G1X-10.967Y17.798
N11830G1X-9.074
N11840G1X-9.086Y17.878
N11850G1X-10.954
N11860G1X-10.916Y17.940
N11870G1X-10.889Y17.958
N11880G1X-9.151
N11890G00Z6.000
N11900G00X-9.812Y15.206
N11910G1Z-0.500F480.0
N11920G1Y17.588F1200.0
N11930G1X-9.276
N11940G1X-9.187Y17.606
N11950G1X-9.124Y17.647
N11960G1X-9.086Y17.709
N11970G1X-9.073Y17.794
N11980G1X-9.086Y17.878
N11990G1X-9.125Y17.941
N12000G1X-9.188Y17.982
N12010G1X-9.276Y18.001
N12020G1X-10.763
N12030G1X-10.852Y17.981
N12040G1X-10.916Y17.940
N12050G1X-10.955Y17.878
N12060G1X-10.968Y17.794
N12070G1X-10.955Y17.710
N12080G1X-10.917Y17.647
N12090G1X-10.853Y17.607
N12100G1X-10.763Y17.588
N12110G1X-10.226
N12120G1Y15.206
N12130G1X-10.208Y15.117
N12140G1X-10.169Y15.053
N12150G1X-10.109Y15.015
N12160G1X-10.029Y15.001
N12170G1X-9.947Y15.012
N12180G1X-9.883Y15.050
N12190G1X-9.839Y15.115
N12200G1X-9.812Y15.206
N12210G00Z6.000
N12220G00X-13.288Y15.055
N12230G1Z-0.500F480.0
N12240G1X-11.440F1200.0
N12250G1X-11.438Y15.056
N12260G1X-11.399Y15.117
N12270G1X-11.396Y15.135
N12280G1X-13.337
N12290G1X-13.356Y15.203
N12300G1Y15.215
N12310G1X-11.387
N12320G1X-11.397Y15.282
N12330G1X-11.405Y15.295
N12340G1X-13.356
N12350G1Y15.375
N12360G1X-11.481
N12370G1X-11.500Y15.387
N12380G1X-11.591Y15.409
N12390G1X-12.943Y15.408
N12400G1Y15.455
N12410G1X-13.356
N12420G1Y15.535
N12430G1X-12.943
N12440G1Y15.615
N12450G1X-13.356
N12460G1Y15.695
N12470G1X-12.943
N12480G1Y15.775
N12490G1X-13.356
N12500G1Y15.855
N12510G1X-12.943
N12520G1Y15.935
N12530G1X-13.356
N12540G1Y16.015
N12550G1X-12.943
N12560G1Y16.095
N12570G1X-13.356
N12580G1Y16.175
N12590G1X-12.943
N12600G1Y16.255
N12610G1X-13.356
N12620G1Y16.335
N12630G1X-12.943
N12640G1Y16.415
N12650G1X-13.356
N12660G1Y16.495
N12670G1X-12.943
N12680G1Y16.575
N12690G1X-13.356
N12700G1Y16.655
N12710G1X-12.943
N12720G1Y16.735
N12730G1X-13.356
N12740G1Y16.815
N12750G1X-12.943
N12760G1Y16.895
N12770G1X-13.356
N12780G1Y16.975
N12790G1X-12.943
N12800G1Y17.055
N12810G1X-13.356
N12820G1Y17.135
N12830G1X-12.943
N12840G1Y17.215
N12850G1X-13.356
N12860G1Y17.295
N12870G1X-12.943
N12880G1Y17.375
N12890G1X-13.356
N12900G1Y17.455
N12910G1X-12.943
N12920G1Y17.535
N12930G1X-13.356
N12940G1Y17.615
N12950G1X-12.943
N12960G1Y17.695
N12970G1X-13.356
N12980G1Y17.775
N12990G1X-12.943
N13000G1Y17.793
N13010G1X-12.956Y17.855
N13020G1X-13.339
N13030G1X-13.331Y17.885
N13040G1X-13.298Y17.935
N13050G1X-12.994
N13060G00Z6.000
N13070G00X-13.356Y15.203
N13080G1Z-0.500F480.0
N13090G1X-13.333Y15.118F1200.0
N13100G1X-13.290Y15.056
N13110G1X-13.229Y15.016
N13120G1X-13.148Y14.999
N13130G1X-11.592
N13140G1X-11.503Y15.017
N13150G1X-11.438Y15.056
N13160G1X-11.399Y15.117
N13170G1X-11.385Y15.199
N13180G1X-11.397Y15.282
N13190G1X-11.435Y15.345
N13200G1X-11.500Y15.387
N13210G1X-11.591Y15.409
N13220G1X-12.943Y15.408
N13230G1Y17.793
N13240G1X-12.962Y17.882
N13250G1X-13.001Y17.946
N13260G1X-13.061Y17.986
N13270G1X-13.142Y18.000
N13280G1X-13.224Y17.989
N13290G1X-13.287Y17.950
N13300G1X-13.331Y17.885
N13310G1X-13.356Y17.793
N13320G1Y15.203
N13330G00Z6.000
N13340G00X-12.500Y35.055
N13350G1Z-0.500F480.0
N13360G1X-10.652F1200.0
N13370G1X-10.650Y35.056
N13380G1X-10.611Y35.117
N13390G1X-10.608Y35.135
N13400G1X-12.549
N13410G1X-12.568Y35.203
N13420G1Y35.215
N13430G1X-10.599
N13440G1X-10.609Y35.282
N13450G1X-10.617Y35.295
N13460G1X-12.568
N13470G1Y35.375
N13480G1X-10.692
N13490G1X-10.712Y35.387
N13500G1X-10.803Y35.409
N13510G1X-12.155Y35.408
N13520G1Y35.455
N13530G1X-12.568
N13540G1Y35.535
N13550G1X-12.155
N13560G1Y35.615
N13570G1X-12.568
N13580G1Y35.695
N13590G1X-12.155
N13600G1Y35.775
N13610G1X-12.568
N13620G1Y35.855
N13630G1X-12.155
N13640G1Y35.935
N13650G1X-12.568
N13660G1Y36.015
N13670G1X-12.155
N13680G1Y36.095
N13690G1X-12.568
N13700G1Y36.175
N13710G1X-12.155
N13720G1Y36.255
N13730G1X-12.568
N13740G1Y36.335
N13750G1X-12.155
N13760G1Y36.415
N13770G1X-12.568
N13780G1Y36.495
N13790G1X-12.155
N13800G1Y36.575
N13810G1X-12.568
N13820G1Y36.655
N13830G1X-12.155
N13840G1Y36.735
N13850G1X-12.568
N13860G1Y36.815
N13870G1X-12.155
N13880G1Y36.895
N13890G1X-12.568
N13900G1Y36.975
N13910G1X-12.155
N13920G1Y37.055
N13930G1X-12.568
N13940G1Y37.135
N13950G1X-12.155
N13960G1Y37.215
N13970G1X-12.568
N13980G1Y37.295
N13990G1X-12.155
N14000G1Y37.375
N14010G1X-12.568
N14020G1Y37.455
N14030G1X-12.155
N14040G1Y37.535
N14050G1X-12.568
N14060G1Y37.615
N14070G1X-12.155
N14080G1Y37.695
N14090G1X-12.568
N14100G1Y37.775
N14110G1X-12.155
N14120G1Y37.793
N14130G1X-12.168Y37.855
N14140G1X-12.551
N14150G1X-12.543Y37.885
N14160G1X-12.510Y37.935
N14170G1X-12.206
N14180G00Z6.000
N14190G00X-12.568Y35.203
N14200G1Z-0.500F480.0
N14210G1X-12.545Y35.118F1200.0
N14220G1X-12.502Y35.056
N14230G1X-12.441Y35.016
N14240G1X-12.360Y34.999
N14250G1X-10.804
N14260G1X-10.714Y35.017
N14270G1X-10.650Y35.056
N14280G1X-10.611Y35.117
N14290G1X-10.597Y35.199
N14300G1X-10.609Y35.282
N14310G1X-10.647Y35.345
N14320G1X-10.712Y35.387
N14330G1X-10.803Y35.409
N14340G1X-12.155Y35.408
N14350G1Y37.793
N14360G1X-12.173Y37.882
N14370G1X-12.213Y37.946
N14380G1X-12.273Y37.986
N14390G1X-12.354Y38.000
N14400G1X-12.436Y37.989
N14410G1X-12.499Y37.950
N14420G1X-12.543Y37.885
N14430G1X-12.568Y37.793
N14440G1Y35.203
N14450G00Z6.000
N14460G00X-9.396Y35.078
N14470G1Z-0.500F480.0
N14480G1X-9.076F1200.0
N14490G1X-9.050Y35.115
N14500G1X-9.038Y35.158
N14510G1X-9.428
N14520G1X-9.437Y35.206
N14530G1Y35.238
N14540G1X-9.024
N14550G1Y35.318
N14560G1X-9.437
N14570G1Y35.398
N14580G1X-9.024
N14590G1Y35.478
N14600G1X-9.437
N14610G1Y35.558
N14620G1X-9.024
N14630G1Y35.638
N14640G1X-9.437
N14650G1Y35.718
N14660G1X-9.024
N14670G1Y35.798
N14680G1X-9.437
N14690G1Y35.878
N14700G1X-9.024
N14710G1Y35.958
N14720G1X-9.437
N14730G1Y36.038
N14740G1X-9.024
N14750G1Y36.118
N14760G1X-9.437
N14770G1Y36.198
N14780G1X-9.024
N14790G1Y36.278
N14800G1X-9.437
N14810G1Y36.358
N14820G1X-9.024
N14830G1Y36.438
N14840G1X-9.437
N14850G1Y36.518
N14860G1X-9.024
N14870G1Y36.598
N14880G1X-9.437
N14890G1Y36.678
N14900G1X-9.024
N14910G1Y36.758
N14920G1X-9.437
N14930G1Y36.838
N14940G1X-9.024
N14950G1Y36.918
N14960G1X-9.437
N14970G1Y36.998
N14980G1X-9.024
N14990G1Y37.078
N15000G1X-9.437
N15010G1Y37.158
N15020G1X-9.024
N15030G1Y37.238
N15040G1X-9.437
N15050G1Y37.318
N15060G1X-9.024
N15070G1Y37.398
N15080G1X-9.437
N15090G1Y37.478
N15100G1X-9.024
N15110G1Y37.558
N15120G1X-9.437
N15130G1Y37.588
N15140G1X-9.975
N15150G1X-10.065Y37.607
N15160G1X-10.114Y37.638
N15170G1X-8.349
N15180G1X-8.336Y37.647
N15190G1X-8.298Y37.709
N15200G1X-8.296Y37.718
N15210G1X-10.168
N15220G1X-10.179Y37.794
N15230G1X-10.179Y37.798
N15240G1X-8.286
N15250G1X-8.298Y37.878
N15260G1X-10.166
N15270G1X-10.128Y37.940
N15280G1X-10.100Y37.958
N15290G1X-8.363
N15300G00Z6.000
N15310G00X-9.024Y35.206
N15320G1Z-0.500F480.0
N15330G1Y37.588F1200.0
N15340G1X-8.488
N15350G1X-8.399Y37.606
N15360G1X-8.336Y37.647
N15370G1X-8.298Y37.709
N15380G1X-8.285Y37.794
N15390G1X-8.298Y37.878
N15400G1X-8.336Y37.941
N15410G1X-8.400Y37.982
N15420G1X-8.488Y38.001
N15430G1X-9.975
N15440G1X-10.064Y37.981
N15450G1X-10.128Y37.940
N15460G1X-10.166Y37.878
N15470G1X-10.179Y37.794
N15480G1X-10.167Y37.710
N15490G1X-10.129Y37.647
N15500G1X-10.065Y37.607
N15510G1X-9.975Y37.588
N15520G1X-9.437
N15530G1Y35.206
N15540G1X-9.420Y35.117
N15550G1X-9.381Y35.053
N15560G1X-9.321Y35.015
N15570G1X-9.240Y35.001
N15580G1X-9.159Y35.012
N15590G1X-9.095Y35.050
N15600G1X-9.050Y35.115
N15610G1X-9.024Y35.206
N15620G00Z6.000
N15630G00X-7.751Y35.032
N15640G1Z-0.500F480.0
N15650G1X-7.527F1200.0
N15660G1X-7.505Y35.043
N15670G1X-7.462Y35.095
N15680G1X-7.456Y35.112
N15690G1X-7.822
N15700G1X-7.826Y35.118
N15710G1X-7.844Y35.192
N15720G1X-7.434
N15730G1X-7.432Y35.209
N15740G1Y35.272
N15750G1X-7.848
N15760G1Y35.352
N15770G1X-7.432
N15780G1Y35.432
N15790G1X-7.848
N15800G1Y35.512
N15810G1X-7.432
N15820G1Y35.592
N15830G1X-7.848
N15840G1Y35.672
N15850G1X-7.432
N15860G1Y35.752
N15870G1X-7.848
N15880G1Y35.832
N15890G1X-7.432
N15900G1Y35.912
N15910G1X-7.848
N15920G1Y35.992
N15930G1X-7.432
N15940G1Y36.072
N15950G1X-7.848
N15960G1Y36.152
N15970G1X-7.432
N15980G1Y36.232
N15990G1X-7.848
N16000G1Y36.312
N16010G1X-7.432
N16020G1Y36.392
N16030G1X-7.848
N16040G1Y36.472
N16050G1X-7.432
N16060G1Y36.552
N16070G1X-7.848
N16080G1Y36.632
N16090G1X-7.432
N16100G1Y36.712
N16110G1X-7.848
N16120G1Y36.792
N16130G1X-7.432
N16140G1Y36.872
N16150G1X-7.848
N16160G1Y36.952
N16170G1X-7.432
N16180G1Y37.032
N16190G1X-7.848
N16200G1Y37.112
N16210G1X-7.432
N16220G1Y37.192
N16230G1X-7.848
N16240G1Y37.272
N16250G1X-7.432
N16260G1Y37.352
N16270G1X-7.848
N16280G1Y37.432
N16290G1X-7.432
N16300G1Y37.512
N16310G1X-7.848
N16320G1Y37.592
N16330G1X-7.432
N16340G1Y37.672
N16350G1X-7.848
N16360G1Y37.752
N16370G1X-7.432
N16380G1Y37.793
N16390G1X-7.441Y37.832
N16400G1X-7.842
N16410G1X-7.837Y37.859
N16420G1X-7.810Y37.912
N16430G1X-7.477
N16440G1X-7.495Y37.939
N16450G1X-7.569Y37.987
N16460G1X-7.606Y37.992
N16470G1X-7.679
N16480G00Z6.000
N16490G00X-7.450Y37.872
N16500G1Z-0.500F480.0
N16510G1X-7.495Y37.939F1200.0
N16520G1X-7.569Y37.987
N16530G1X-7.655Y37.999
N16540G1X-7.738Y37.976
N16550G1X-7.806Y37.920
N16560G1X-7.837Y37.859
N16570G1X-7.848Y37.793
N16580G1Y35.209
N16590G1X-7.826Y35.118
N16600G1X-7.792Y35.067
N16610G1X-7.750Y35.031
N16620G1X-7.700Y35.009
N16630G1X-7.641Y35.002
N16640G1X-7.565Y35.012
N16650G1X-7.505Y35.043
N16660G1X-7.462Y35.095
N16670G1X-7.436Y35.168
N16680G1X-7.432Y35.209
N16690G1Y37.793
N16700G1X-7.450Y37.872
N16710G00Z6.000
N16720G00X6.834Y35.055
N16730G1Z-0.500F480.0
N16740G1X8.683F1200.0
N16750G1X8.684Y35.056
N16760G1X8.723Y35.117
N16770G1X8.726Y35.135
N16780G1X6.785
N16790G1X6.766Y35.203
N16800G1Y35.215
N16810G1X8.735
N16820G1X8.725Y35.282
N16830G1X8.718Y35.295
N16840G1X6.766
N16850G1Y35.375
N16860G1X8.642
N16870G1X8.622Y35.387
N16880G1X8.531Y35.409
N16890G1X7.179Y35.408
N16900G1Y35.455
N16910G1X6.766
N16920G1Y35.535
N16930G1X7.179
N16940G1Y35.615
N16950G1X6.766
N16960G1Y35.695
N16970G1X7.179
N16980G1Y35.775
N16990G1X6.766
N17000G1Y35.855
N17010G1X7.179
N17020G1Y35.935
N17030G1X6.766
N17040G1Y36.015
N17050G1X7.179
N17060G1Y36.095
N17070G1X6.766
N17080G1Y36.175
N17090G1X7.179
N17100G1Y36.255
N17110G1X6.766
N17120G1Y36.335
N17130G1X7.179
N17140G1Y36.415
N17150G1X6.766
N17160G1Y36.495
N17170G1X7.179
N17180G1Y36.575
N17190G1X6.766
N17200G1Y36.655
N17210G1X7.179
N17220G1Y36.735
N17230G1X6.766
N17240G1Y36.815
N17250G1X7.179
N17260G1Y36.895
N17270G1X6.766
N17280G1Y36.975
N17290G1X7.179
N17300G1Y37.055
N17310G1X6.766
N17320G1Y37.135
N17330G1X7.179
N17340G1Y37.215
N17350G1X6.766
N17360G1Y37.295
N17370G1X7.179
N17380G1Y37.375
N17390G1X6.766
N17400G1Y37.455
N17410G1X7.179
N17420G1Y37.535
N17430G1X6.766
N17440G1Y37.615
N17450G1X7.179
N17460G1Y37.695
N17470G1X6.766
N17480G1Y37.775
N17490G1X7.179
N17500G1Y37.793
N17510G1X7.166Y37.855
N17520G1X6.783
N17530G1X6.791Y37.885
N17540G1X6.825Y37.935
N17550G1X7.129
N17560G00Z6.000
N17570G00X6.766Y35.203
N17580G1Z-0.500F480.0
N17590G1X6.790Y35.118F1200.0
N17600G1X6.832Y35.056
N17610G1X6.894Y35.016
N17620G1X6.974Y34.999
N17630G1X8.530
N17640G1X8.620Y35.017
N17650G1X8.684Y35.056
N17660G1X8.723Y35.117
N17670G1X8.737Y35.199
N17680G1X8.725Y35.282
N17690G1X8.687Y35.345
N17700G1X8.622Y35.387
N17710G1X8.531Y35.409
N17720G1X7.179Y35.408
N17730G1Y37.793
N17740G1X7.161Y37.882
N17750G1X7.121Y37.946
N17760G1X7.061Y37.986
N17770G1X6.980Y38.000
N17780G1X6.898Y37.989
N17790G1X6.835Y37.950
N17800G1X6.791Y37.885
N17810G1X6.766Y37.793
N17820G1Y35.203
N17830G00Z6.000
N17840G00X9.938Y35.078
N17850G1Z-0.500F480.0
N17860G1X10.258F1200.0
N17870G1X10.284Y35.115
N17880G1X10.296Y35.158
N17890G1X9.906
N17900G1X9.897Y35.206
N17910G1Y35.238
N17920G1X10.310
N17930G1Y35.318
N17940G1X9.897
N17950G1Y35.398
N17960G1X10.310
N17970G1Y35.478
N17980G1X9.897
N17990G1Y35.558
N18000G1X10.310
N18010G1Y35.638
N18020G1X9.897
N18030G1Y35.718
N18040G1X10.310
N18050G1Y35.798
N18060G1X9.897
N18070G1Y35.878
N18080G1X10.310
N18090G1Y35.958
N18100G1X9.897
N18110G1Y36.038
N18120G1X10.310
N18130G1Y36.118
N18140G1X9.897
N18150G1Y36.198
N18160G1X10.310
N18170G1Y36.278
N18180G1X9.897
N18190G1Y36.358
N18200G1X10.310
N18210G1Y36.438
N18220G1X9.897
N18230G1Y36.518
N18240G1X10.310
N18250G1Y36.598
N18260G1X9.897
N18270G1Y36.678
N18280G1X10.310
N18290G1Y36.758
N18300G1X9.897
N18310G1Y36.838
N18320G1X10.310
N18330G1Y36.918
N18340G1X9.897
N18350G1Y36.998
N18360G1X10.310
N18370G1Y37.078
N18380G1X9.897
N18390G1Y37.158
N18400G1X10.310
N18410G1Y37.238
N18420G1X9.897
N18430G1Y37.318
N18440G1X10.310
N18450G1Y37.398
N18460G1X9.897
N18470G1Y37.478
N18480G1X10.310
N18490G1Y37.558
N18500G1X9.897
N18510G1Y37.588
N18520G1X9.359
N18530G1X9.269Y37.607
N18540G1X9.220Y37.638
N18550G1X10.985
N18560G1X10.999Y37.647
N18570G1X11.036Y37.709
N18580G1X11.038Y37.718
N18590G1X9.166
N18600G1X9.155Y37.794
N18610G1X9.155Y37.798
N18620G1X11.048
N18630G1X11.036Y37.878
N18640G1X9.168
N18650G1X9.206Y37.940
N18660G1X9.234Y37.958
N18670G1X10.971
N18680G00Z6.000
N18690G00X10.310Y35.206
N18700G1Z-0.500F480.0
N18710G1Y37.588F1200.0
N18720G1X10.846
N18730G1X10.935Y37.606
N18740G1X10.999Y37.647
N18750G1X11.036Y37.709
N18760G1X11.049Y37.794
N18770G1X11.036Y37.878
N18780G1X10.998Y37.941
N18790G1X10.934Y37.982
N18800G1X10.846Y38.001
N18810G1X9.359
N18820G1X9.270Y37.981
N18830G1X9.206Y37.940
N18840G1X9.168Y37.878
N18850G1X9.155Y37.794
N18860G1X9.167Y37.710
N18870G1X9.205Y37.647
N18880G1X9.269Y37.607
N18890G1X9.359Y37.588
N18900G1X9.897
N18910G1Y35.206
N18920G1X9.915Y35.117
N18930G1X9.953Y35.053
N18940G1X10.013Y35.015
N18950G1X10.094Y35.001
N18960G1X10.176Y35.012
N18970G1X10.239Y35.050
N18980G1X10.284Y35.115
N18990G1X10.310Y35.206
N19000G00Z6.000
N19010G00X13.158Y35.039
N19020G1Z-0.500F480.0
N19030G1X11.581F1200.0
N19040G1X11.547Y35.062
N19050G1X11.508Y35.119
N19060G1X13.220
N19070G1X13.233Y35.199
N19080G1X11.488
N19090G1X11.486Y35.210
N19100G1X11.498Y35.279
N19110G1X13.225
N19120G1X13.224Y35.291
N19130G1X13.188Y35.357
N19140G1X13.184Y35.359
N19150G1X11.512
N19160G1X11.520Y35.406
N19170G1X11.528Y35.439
N19180G1X11.957
N19190G1X11.969Y35.477
N19200G1X11.984Y35.519
N19210G1X11.549
N19220G1X11.566Y35.584
N19230G1X11.572Y35.599
N19240G1X12.017
N19250G1X12.052Y35.679
N19260G1X11.601
N19270G1X11.630Y35.757
N19280G1X11.631Y35.759
N19290G1X12.098
N19300G1X12.139Y35.830
N19310G1X12.146Y35.839
N19320G1X11.670
N19330G1X11.709Y35.919
N19340G1X12.208
N19350G1X12.269Y35.999
N19360G1X11.756
N19370G1X11.805Y36.079
N19380G1X12.331
N19390G1X12.337Y36.088
N19400G1X12.412Y36.159
N19410G1X11.862
N19420G1X11.921Y36.239
N19430G1X12.513
N19440G1X12.546Y36.263
N19450G1X12.622Y36.319
N19460G1X11.992
N19470G1X12.049Y36.384
N19480G1X12.066Y36.399
N19490G1X12.731
N19500G1X12.768Y36.426
N19510G1X12.826Y36.479
N19520G1X12.153
N19530G1X12.185Y36.509
N19540G1X12.253Y36.559
N19550G1X12.911
N19560G1X12.987Y36.639
N19570G1X12.358
N19580G1X12.461Y36.719
N19590G1X13.052
N19600G1X13.111Y36.799
N19610G1X12.557
N19620G1X12.638Y36.879
N19630G1X13.153
N19640G1X13.187Y36.959
N19650G1X12.716
N19660G1X12.762Y37.022
N19670G1X12.770Y37.039
N19680G1X13.210
N19690G1X13.221Y37.119
N19700G1X12.801
N19710G1X12.813Y37.175
N19720G1X12.814Y37.199
N19730G1X13.230
N19740G1X13.222Y37.279
N19750G1X12.810
N19760G1X12.798Y37.339
N19770G1X12.788Y37.359
N19780G1X13.213
N19790G1X13.209Y37.396
N19800G1X13.194Y37.439
N19810G1X12.741
N19820G1X12.712Y37.475
N19830G1X12.656Y37.519
N19840G1X13.167
N19850G1X13.144Y37.587
N19860G1X13.136Y37.599
N19870G1X11.759
N19880G1X11.795Y37.666
N19890G1X11.807Y37.679
N19900G1X13.082
N19910G1X13.038Y37.745
N19920G1X13.021Y37.759
N19930G1X11.878
N19940G1X11.906Y37.791
N19950G1X11.972Y37.839
N19960G1X12.926
N19970G1X12.892Y37.868
N19980G1X12.785Y37.919
N19990G1X12.104
N20000G1X12.205Y37.966
N20010G1X12.363Y37.999
N20020G1X12.429
N20030G00Z6.000
N20040G00X11.883Y36.959
N20050G1Z-0.500F480.0
N20060G1X11.827F1200.0
N20070G1X11.755Y36.984
N20080G1X11.697Y37.039
N20090G1X12.031
N20100G1X12.038Y37.048
N20110G1X12.067Y37.113
N20120G1X12.067Y37.119
N20130G1X11.664
N20140G1X11.661Y37.131
N20150G1X11.660Y37.199
N20160G1X12.069
N20170G1X12.076Y37.279
N20180G1X11.663
N20190G1X11.668Y37.350
N20200G1X11.670Y37.359
N20210G1X12.099
N20220G1X12.112Y37.394
N20230G1X12.146Y37.439
N20240G1X11.693
N20250G1X11.716Y37.519
N20260G1X12.236
N20270G00Z6.000
N20280G00X11.547Y35.062
N20290G1Z-0.500F480.0
N20300G1X11.614Y35.017F1200.0
N20310G1X11.694Y35.002
N20320G1X13.030
N20330G1X13.117Y35.015
N20340G1X13.180Y35.052
N20350G1X13.219Y35.115
N20360G1X13.234Y35.203
N20370G1X13.224Y35.291
N20380G1X13.188Y35.357
N20390G1X13.126Y35.398
N20400G1X13.038Y35.417
N20410G1X11.951
N20420G1X11.969Y35.477
N20430G1X11.992Y35.541
N20440G1X12.056Y35.687
N20450G1X12.139Y35.830
N20460G1X12.337Y36.088
N20470G1X12.436Y36.182
N20480G1X12.546Y36.263
N20490G1X12.768Y36.426
N20500G1X12.895Y36.542
N20510G1X13.013Y36.666
N20520G1X13.133Y36.829
N20530G1X13.205Y37.005
N20540G1X13.231Y37.194
N20550G1X13.209Y37.396
N20560G1X13.144Y37.587
N20570G1X13.038Y37.745
N20580G1X12.892Y37.868
N20590G1X12.706Y37.957
N20600G1X12.535Y37.997
N20610G1X12.368Y38.000
N20620G1X12.205Y37.966
N20630G1X12.047Y37.893
N20640G1X11.906Y37.791
N20650G1X11.795Y37.666
N20660G1X11.716Y37.519
N20670G1X11.668Y37.350
N20680G1X11.660Y37.239
N20690G1X11.661Y37.131
N20700G1X11.690Y37.046
N20710G1X11.755Y36.984
N20720G1X11.841Y36.954
N20730G1X11.934Y36.965
N20740G1X11.992Y36.995
N20750G1X12.038Y37.048
N20760G1X12.067Y37.113
N20770G1X12.071Y37.179
N20780G1X12.070Y37.189
N20790G1X12.069Y37.198
N20800G1X12.078Y37.303
N20810G1X12.112Y37.394
N20820G1X12.171Y37.472
N20830G1X12.257Y37.535
N20840G1X12.355Y37.577
N20850G1X12.452Y37.590
N20860G1X12.548Y37.574
N20870G1X12.643Y37.529
N20880G1X12.712Y37.475
N20890G1X12.764Y37.412
N20900G1X12.798Y37.339
N20910G1X12.814Y37.258
N20920G1X12.813Y37.175
N20930G1X12.796Y37.096
N20940G1X12.762Y37.022
N20950G1X12.711Y36.952
N20960G1X12.530Y36.772
N20970G1X12.333Y36.619
N20980G1X12.185Y36.509
N20990G1X12.049Y36.384
N21000G1X11.924Y36.244
N21010G1X11.811Y36.089
N21020G1X11.711Y35.925
N21030G1X11.630Y35.757
N21040G1X11.566Y35.584
N21050G1X11.520Y35.406
N21060G1X11.502Y35.303
N21070G1X11.486Y35.210
N21080G1X11.501Y35.129
N21090G1X11.547Y35.062
N21100G00Z6.000
N21110G00X-7.547Y-4.981
N21120G1Z-0.500F480.0
N21130G1X-7.883F1200.0
N21140G1X-7.939Y-4.973
N21150G1X-8.093Y-4.924
N21160G1X-8.136Y-4.901
N21170G1X-7.279
N21180G1X-7.146Y-4.824
N21190G1X-7.143Y-4.821
N21200G1X-8.274
N21210G1X-8.380Y-4.741
N21220G1X-7.048
N21230G1X-7.019Y-4.717
N21240G1X-6.975Y-4.661
N21250G1X-8.464
N21260G1X-8.470Y-4.655
N21270G1X-8.518Y-4.583
N21280G1X-8.519Y-4.581
N21290G1X-7.823
N21300G1X-7.937Y-4.553
N21310G1X-8.023Y-4.501
N21320G1X-8.549
N21330G1X-8.554Y-4.445
N21340G1X-8.546Y-4.421
N21350G1X-8.120
N21360G1X-8.188Y-4.349
N21370G1X-8.196Y-4.341
N21380G1X-8.508
N21390G00Z6.000
N21400G00X-7.599Y-4.581
N21410G1Z-0.500F480.0
N21420G1X-6.911F1200.0
N21430G1X-6.879Y-4.541
N21440G1X-6.859Y-4.501
N21450G1X-7.391
N21460G1X-7.321Y-4.457
N21470G1X-7.291Y-4.421
N21480G1X-6.820
N21490G1X-6.781Y-4.341
N21500G1X-7.225
N21510G1X-7.221Y-4.336
N21520G1X-7.189Y-4.261
N21530G1X-6.760
N21540G1X-6.742Y-4.181
N21550G1X-7.154
N21560G1X-7.153Y-4.178
N21570G1X-7.142Y-4.101
N21580G1X-6.724
N21590G1X-6.726Y-4.021
N21600G1X-7.132
N21610G1X-7.129Y-4.002
N21620G1X-7.139Y-3.941
N21630G1X-6.729
N21640G1X-6.731Y-3.879
N21650G1X-6.735Y-3.861
N21660G1X-7.153
N21670G1X-7.161Y-3.818
N21680G1X-7.175Y-3.781
N21690G1X-6.753
N21700G1X-6.772Y-3.701
N21710G1X-7.214
N21720G1X-7.244Y-3.652
N21730G1X-7.273Y-3.621
N21740G1X-6.806
N21750G1X-6.841Y-3.541
N21760G1X-7.364
N21770G1X-7.377Y-3.531
N21780G1X-7.524Y-3.461
N21790G1X-6.891
N21800G1X-6.947Y-3.381
N21810G1X-8.429
N21820G1Y-3.301
N21830G1X-7.024
N21840G1X-7.095Y-3.234
N21850G1X-7.115Y-3.221
N21860G1X-8.429
N21870G1Y-3.141
N21880G1X-7.241
N21890G1X-7.260Y-3.129
N21900G1X-7.427Y-3.061
N21910G1X-7.995
N21920G00Z6.000
N21930G00X-8.058Y-3.541
N21940G1Z-0.500F480.0
N21950G1X-8.378F1200.0
N21960G1X-8.411Y-3.499
N21970G1X-8.419Y-3.461
N21980G1X-7.903
N21990G00Z6.000
N22000G00X-8.024Y-3.061
N22010G1Z-0.500F480.0
N22020G1X-8.429F1200.0
N22030G1Y-2.981
N22040G1X-8.024
N22050G1Y-2.901
N22060G1X-8.429
N22070G1Y-2.821
N22080G1X-8.024
N22090G1Y-2.741
N22100G1X-8.429
N22110G1Y-2.661
N22120G1X-8.024
N22130G1Y-2.581
N22140G1X-8.429
N22150G1Y-2.501
N22160G1X-8.024
N22170G1Y-2.421
N22180G1X-8.429
N22190G1Y-2.341
N22200G1X-7.124
N22210G1X-7.118Y-2.335
N22220G1X-7.086Y-2.280
N22230G1X-7.080Y-2.261
N22240G1X-8.429
N22250G1Y-2.201
N22260G1X-8.426Y-2.181
N22270G1X-7.069
N22280G1X-7.069Y-2.163
N22290G1X-7.089Y-2.110
N22300G1X-7.095Y-2.101
N22310G1X-8.401
N22320G1X-8.389Y-2.077
N22330G1X-8.348Y-2.034
N22340G1X-8.322Y-2.021
N22350G1X-7.184
N22360G00Z6.000
N22370G00X-8.293Y-2.008
N22380G1Z-0.500F480.0
N22390G1X-8.348Y-2.034F1200.0
N22400G1X-8.389Y-2.077
N22410G1X-8.418Y-2.137
N22420G1X-8.424Y-2.164
N22430G1X-8.429Y-2.201
N22440G1Y-3.413
N22450G1X-8.411Y-3.499
N22460G1X-8.357Y-3.569
N22470G1X-8.280Y-3.610
N22480G1X-8.191Y-3.614
N22490G1X-8.097Y-3.570
N22500G1X-8.023Y-3.515
N22510G1X-7.873Y-3.447
N22520G1X-7.709Y-3.425
N22530G1X-7.545Y-3.451
N22540G1X-7.377Y-3.531
N22550G1X-7.304Y-3.586
N22560G1X-7.244Y-3.652
N22570G1X-7.196Y-3.729
N22580G1X-7.161Y-3.818
N22590G1X-7.129Y-4.002
N22600G1X-7.153Y-4.178
N22610G1X-7.221Y-4.336
N22620G1X-7.321Y-4.457
N22630G1X-7.452Y-4.540
N22640G1X-7.615Y-4.586
N22650G1X-7.784Y-4.591
N22660G1X-7.937Y-4.553
N22670G1X-8.071Y-4.472
N22680G1X-8.188Y-4.349
N22690G1X-8.244Y-4.296
N22700G1X-8.320Y-4.268
N22710G1X-8.401Y-4.268
N22720G1X-8.471Y-4.301
N22730G1X-8.525Y-4.361
N22740G1X-8.554Y-4.445
N22750G1X-8.546Y-4.534
N22760G1X-8.533Y-4.559
N22770G1X-8.518Y-4.583
N22780G1X-8.470Y-4.655
N22790G1X-8.395Y-4.730
N22800G1X-8.240Y-4.847
N22810G1X-8.093Y-4.924
N22820G1X-7.939Y-4.973
N22830G1X-7.776Y-4.996
N22840G1X-7.607Y-4.992
N22850G1X-7.440Y-4.962
N22860G1X-7.286Y-4.906
N22870G1X-7.146Y-4.824
N22880G1X-7.019Y-4.717
N22890G1X-6.879Y-4.541
N22900G1X-6.777Y-4.332
N22910G1X-6.724Y-4.106
N22920G1X-6.731Y-3.879
N22930G1X-6.773Y-3.697
N22940G1X-6.851Y-3.518
N22950G1X-6.958Y-3.364
N22960G1X-7.095Y-3.234
N22970G1X-7.260Y-3.129
N22980G1X-7.441Y-3.056
N22990G1X-7.625Y-3.020
N23000G1X-7.812Y-3.022
N23010G1X-8.002Y-3.063
N23020G1X-8.024Y-3.070
N23030G1Y-2.405
N23040G1X-7.271
N23050G1X-7.210Y-2.397
N23060G1X-7.159Y-2.374
N23070G1X-7.118Y-2.335
N23080G1X-7.086Y-2.280
N23090G1X-7.068Y-2.220
N23100G1X-7.069Y-2.163
N23110G1X-7.089Y-2.110
N23120G1X-7.126Y-2.061
N23130G1X-7.193Y-2.015
N23140G1X-7.271Y-1.999
N23150G1X-8.226
N23160G1X-8.293Y-2.008
N23170G00Z6.000
N23180G00X-10.104Y-4.922
N23190G1Z-0.500F480.0
N23200G1X-9.784F1200.0
N23210G1X-9.759Y-4.885
N23220G1X-9.746Y-4.842
N23230G1X-10.136
N23240G1X-10.145Y-4.794
N23250G1Y-4.762
N23260G1X-9.732
N23270G1Y-4.682
N23280G1X-10.145
N23290G1Y-4.602
N23300G1X-9.732
N23310G1Y-4.522
N23320G1X-10.145
N23330G1Y-4.442
N23340G1X-9.732
N23350G1Y-4.362
N23360G1X-10.145
N23370G1Y-4.282
N23380G1X-9.732
N23390G1Y-4.202
N23400G1X-10.145
N23410G1Y-4.122
N23420G1X-9.732
N23430G1Y-4.042
N23440G1X-10.145
N23450G1Y-3.962
N23460G1X-9.732
N23470G1Y-3.882
N23480G1X-10.145
N23490G1Y-3.802
N23500G1X-9.732
N23510G1Y-3.722
N23520G1X-10.145
N23530G1Y-3.642
N23540G1X-9.732
N23550G1Y-3.562
N23560G1X-10.145
N23570G1Y-3.482
N23580G1X-9.732
N23590G1Y-3.402
N23600G1X-10.145
N23610G1Y-3.322
N23620G1X-9.732
N23630G1Y-3.242
N23640G1X-10.145
N23650G1Y-3.162
N23660G1X-9.732
N23670G1Y-3.082
N23680G1X-10.145
N23690G1Y-3.002
N23700G1X-9.732
N23710G1Y-2.922
N23720G1X-10.145
N23730G1Y-2.842
N23740G1X-9.732
N23750G1Y-2.762
N23760G1X-10.145
N23770G1Y-2.682
N23780G1X-9.732
N23790G1Y-2.602
N23800G1X-10.145
N23810G1Y-2.522
N23820G1X-9.732
N23830G1Y-2.442
N23840G1X-10.145
N23850G1Y-2.412
N23860G1X-10.683
N23870G1X-10.773Y-2.393
N23880G1X-10.822Y-2.362
N23890G1X-9.057
N23900G1X-9.044Y-2.353
N23910G1X-9.006Y-2.291
N23920G1X-9.004Y-2.282
N23930G1X-10.876
N23940G1X-10.887Y-2.206
N23950G1X-10.887Y-2.202
N23960G1X-8.994
N23970G1X-9.006Y-2.122
N23980G1X-10.874
N23990G1X-10.836Y-2.060
N24000G1X-10.808Y-2.042
N24010G1X-9.071
N24020G00Z6.000
N24030G00X-9.732Y-4.794
N24040G1Z-0.500F480.0
N24050G1Y-2.412F1200.0
N24060G1X-9.196
N24070G1X-9.107Y-2.394
N24080G1X-9.044Y-2.353
N24090G1X-9.006Y-2.291
N24100G1X-8.993Y-2.206
N24110G1X-9.006Y-2.122
N24120G1X-9.044Y-2.059
N24130G1X-9.108Y-2.018
N24140G1X-9.196Y-1.999
N24150G1X-10.683
N24160G1X-10.772Y-2.019
N24170G1X-10.836Y-2.060
N24180G1X-10.874Y-2.122
N24190G1X-10.887Y-2.206
N24200G1X-10.875Y-2.290
N24210G1X-10.837Y-2.353
N24220G1X-10.773Y-2.393
N24230G1X-10.683Y-2.412
N24240G1X-10.145
N24250G1Y-4.794
N24260G1X-10.128Y-4.883
N24270G1X-10.089Y-4.947
N24280G1X-10.029Y-4.985
N24290G1X-9.948Y-4.999
N24300G1X-9.867Y-4.988
N24310G1X-9.803Y-4.950
N24320G1X-9.759Y-4.885
N24330G1X-9.732Y-4.794
N24340G00Z6.000
N24350G00X-13.208Y-4.945
N24360G1Z-0.500F480.0
N24370G1X-11.360F1200.0
N24380G1X-11.358Y-4.944
N24390G1X-11.319Y-4.883
N24400G1X-11.316Y-4.865
N24410G1X-13.257
N24420G1X-13.276Y-4.797
N24430G1Y-4.785
N24440G1X-11.307
N24450G1X-11.317Y-4.718
N24460G1X-11.325Y-4.705
N24470G1X-13.276
N24480G1Y-4.625
N24490G1X-11.401
N24500G1X-11.420Y-4.613
N24510G1X-11.511Y-4.591
N24520G1X-12.863Y-4.592
N24530G1Y-4.545
N24540G1X-13.276
N24550G1Y-4.465
N24560G1X-12.863
N24570G1Y-4.385
N24580G1X-13.276
N24590G1Y-4.305
N24600G1X-12.863
N24610G1Y-4.225
N24620G1X-13.276
N24630G1Y-4.145
N24640G1X-12.863
N24650G1Y-4.065
N24660G1X-13.276
N24670G1Y-3.985
N24680G1X-12.863
N24690G1Y-3.905
N24700G1X-13.276
N24710G1Y-3.825
N24720G1X-12.863
N24730G1Y-3.745
N24740G1X-13.276
N24750G1Y-3.665
N24760G1X-12.863
N24770G1Y-3.585
N24780G1X-13.276
N24790G1Y-3.505
N24800G1X-12.863
N24810G1Y-3.425
N24820G1X-13.276
N24830G1Y-3.345
N24840G1X-12.863
N24850G1Y-3.265
N24860G1X-13.276
N24870G1Y-3.185
N24880G1X-12.863
N24890G1Y-3.105
N24900G1X-13.276
N24910G1Y-3.025
N24920G1X-12.863
N24930G1Y-2.945
N24940G1X-13.276
N24950G1Y-2.865
N24960G1X-12.863
N24970G1Y-2.785
N24980G1X-13.276
N24990G1Y-2.705
N25000G1X-12.863
N25010G1Y-2.625
N25020G1X-13.276
N25030G1Y-2.545
N25040G1X-12.863
N25050G1Y-2.465
N25060G1X-13.276
N25070G1Y-2.385
N25080G1X-12.863
N25090G1Y-2.305
N25100G1X-13.276
N25110G1Y-2.225
N25120G1X-12.863
N25130G1Y-2.207
N25140G1X-12.876Y-2.145
N25150G1X-13.259
N25160G1X-13.251Y-2.115
N25170G1X-13.218Y-2.065
N25180G1X-12.914
N25190G00Z6.000
N25200G00X-13.276Y-4.797
N25210G1Z-0.500F480.0
N25220G1X-13.253Y-4.882F1200.0
N25230G1X-13.210Y-4.944
N25240G1X-13.149Y-4.984
N25250G1X-13.068Y-5.001
N25260G1X-11.512
N25270G1X-11.422Y-4.983
N25280G1X-11.358Y-4.944
N25290G1X-11.319Y-4.883
N25300G1X-11.305Y-4.801
N25310G1X-11.317Y-4.718
N25320G1X-11.355Y-4.655
N25330G1X-11.420Y-4.613
N25340G1X-11.511Y-4.591
N25350G1X-12.863Y-4.592
N25360G1Y-2.207
N25370G1X-12.881Y-2.118
N25380G1X-12.921Y-2.054
N25390G1X-12.981Y-2.014
N25400G1X-13.062Y-2.000
N25410G1X-13.144Y-2.011
N25420G1X-13.207Y-2.050
N25430G1X-13.251Y-2.115
N25440G1X-13.276Y-2.207
N25450G1Y-4.797
N25460G00Z6.000
N25470G00X-13.126Y-24.945
N25480G1Z-0.500F480.0
N25490G1X-11.277F1200.0
N25500G1X-11.275Y-24.944
N25510G1X-11.236Y-24.883
N25520G1X-11.233Y-24.865
N25530G1X-13.175
N25540G1X-13.193Y-24.797
N25550G1Y-24.785
N25560G1X-11.225
N25570G1X-11.234Y-24.717
N25580G1X-11.242Y-24.705
N25590G1X-13.193
N25600G1Y-24.625
N25610G1X-11.318
N25620G1X-11.337Y-24.612
N25630G1X-11.428Y-24.590
N25640G1X-12.780Y-24.592
N25650G1Y-24.545
N25660G1X-13.193
N25670G1Y-24.465
N25680G1X-12.780
N25690G1Y-24.385
N25700G1X-13.193
N25710G1Y-24.305
N25720G1X-12.780
N25730G1Y-24.225
N25740G1X-13.193
N25750G1Y-24.145
N25760G1X-12.780
N25770G1Y-24.065
N25780G1X-13.193
N25790G1Y-23.985
N25800G1X-12.780
N25810G1Y-23.905
N25820G1X-13.193
N25830G1Y-23.825
N25840G1X-12.780
N25850G1Y-23.745
N25860G1X-13.193
N25870G1Y-23.665
N25880G1X-12.780
N25890G1Y-23.585
N25900G1X-13.193
N25910G1Y-23.505
N25920G1X-12.780
N25930G1Y-23.425
N25940G1X-13.193
N25950G1Y-23.345
N25960G1X-12.780
N25970G1Y-23.265
N25980G1X-13.193
N25990G1Y-23.185
N26000G1X-12.780
N26010G1Y-23.105
N26020G1X-13.193
N26030G1Y-23.025
N26040G1X-12.780
N26050G1Y-22.945
N26060G1X-13.193
N26070G1Y-22.865
N26080G1X-12.780
N26090G1Y-22.785
N26100G1X-13.193
N26110G1Y-22.705
N26120G1X-12.780
N26130G1Y-22.625
N26140G1X-13.193
N26150G1Y-22.545
N26160G1X-12.780
N26170G1Y-22.465
N26180G1X-13.193
N26190G1Y-22.385
N26200G1X-12.780
N26210G1Y-22.305
N26220G1X-13.193
N26230G1Y-22.225
N26240G1X-12.780
N26250G1Y-22.207
N26260G1X-12.793Y-22.145
N26270G1X-13.177
N26280G1X-13.169Y-22.115
N26290G1X-13.135Y-22.065
N26300G1X-12.831
N26310G00Z6.000
N26320G00X-13.193Y-24.797
N26330G1Z-0.500F480.0
N26340G1X-13.170Y-24.882F1200.0
N26350G1X-13.128Y-24.944
N26360G1X-13.066Y-24.983
N26370G1X-12.985Y-25.000
N26380G1X-11.430
N26390G1X-11.340Y-24.983
N26400G1X-11.275Y-24.944
N26410G1X-11.236Y-24.883
N26420G1X-11.222Y-24.801
N26430G1X-11.234Y-24.717
N26440G1X-11.273Y-24.655
N26450G1X-11.337Y-24.612
N26460G1X-11.428Y-24.590
N26470G1X-12.780Y-24.592
N26480G1Y-22.207
N26490G1X-12.799Y-22.118
N26500G1X-12.838Y-22.053
N26510G1X-12.898Y-22.014
N26520G1X-12.980Y-22.000
N26530G1X-13.062Y-22.011
N26540G1X-13.125Y-22.050
N26550G1X-13.169Y-22.115
N26560G1X-13.193Y-22.207
N26570G1Y-24.797
N26580G00Z6.000
N26590G00X-10.021Y-24.922
N26600G1Z-0.500F480.0
N26610G1X-9.702F1200.0
N26620G1X-9.676Y-24.885
N26630G1X-9.664Y-24.842
N26640G1X-10.053
N26650G1X-10.063Y-24.794
N26660G1Y-24.762
N26670G1X-9.650
N26680G1Y-24.682
N26690G1X-10.063
N26700G1Y-24.602
N26710G1X-9.650
N26720G1Y-24.522
N26730G1X-10.063
N26740G1Y-24.442
N26750G1X-9.650
N26760G1Y-24.362
N26770G1X-10.063
N26780G1Y-24.282
N26790G1X-9.650
N26800G1Y-24.202
N26810G1X-10.063
N26820G1Y-24.122
N26830G1X-9.650
N26840G1Y-24.042
N26850G1X-10.063
N26860G1Y-23.962
N26870G1X-9.650
N26880G1Y-23.882
N26890G1X-10.063
N26900G1Y-23.802
N26910G1X-9.650
N26920G1Y-23.722
N26930G1X-10.063
N26940G1Y-23.642
N26950G1X-9.650
N26960G1Y-23.562
N26970G1X-10.063
N26980G1Y-23.482
N26990G1X-9.650
N27000G1Y-23.402
N27010G1X-10.063
N27020G1Y-23.322
N27030G1X-9.650
N27040G1Y-23.242
N27050G1X-10.063
N27060G1Y-23.162
N27070G1X-9.650
N27080G1Y-23.082
N27090G1X-10.063
N27100G1Y-23.002
N27110G1X-9.650
N27120G1Y-22.922
N27130G1X-10.063
N27140G1Y-22.842
N27150G1X-9.650
N27160G1Y-22.762
N27170G1X-10.063
N27180G1Y-22.682
N27190G1X-9.650
N27200G1Y-22.602
N27210G1X-10.063
N27220G1Y-22.522
N27230G1X-9.650
N27240G1Y-22.442
N27250G1X-10.063
N27260G1Y-22.412
N27270G1X-10.601
N27280G1X-10.690Y-22.393
N27290G1X-10.740Y-22.362
N27300G1X-8.974
N27310G1X-8.961Y-22.353
N27320G1X-8.923Y-22.291
N27330G1X-8.922Y-22.282
N27340G1X-10.794
N27350G1X-10.805Y-22.206
N27360G1X-10.804Y-22.202
N27370G1X-8.911
N27380G1X-8.924Y-22.122
N27390G1X-10.792
N27400G1X-10.753Y-22.059
N27410G1X-10.726Y-22.042
N27420G1X-8.988
N27430G00Z6.000
N27440G00X-9.650Y-24.794
N27450G1Z-0.500F480.0
N27460G1Y-22.412F1200.0
N27470G1X-9.114
N27480G1X-9.025Y-22.394
N27490G1X-8.961Y-22.353
N27500G1X-8.923Y-22.291
N27510G1X-8.911Y-22.206
N27520G1X-8.924Y-22.121
N27530G1X-8.962Y-22.059
N27540G1X-9.025Y-22.018
N27550G1X-9.114Y-21.999
N27560G1X-10.601
N27570G1X-10.690Y-22.018
N27580G1X-10.753Y-22.059
N27590G1X-10.792Y-22.122
N27600G1X-10.805Y-22.206
N27610G1X-10.792Y-22.290
N27620G1X-10.754Y-22.352
N27630G1X-10.690Y-22.393
N27640G1X-10.601Y-22.412
N27650G1X-10.063
N27660G1Y-24.794
N27670G1X-10.045Y-24.883
N27680G1X-10.006Y-24.946
N27690G1X-9.947Y-24.985
N27700G1X-9.866Y-24.999
N27710G1X-9.784Y-24.987
N27720G1X-9.721Y-24.949
N27730G1X-9.676Y-24.885
N27740G1X-9.650Y-24.794
N27750G00Z6.000
N27760G00X-7.699Y-24.943
N27770G1Z-0.500F480.0
N27780G1X-7.979F1200.0
N27790G1X-8.001Y-24.927
N27800G1X-8.038Y-24.870
N27810G1X-8.039Y-24.863
N27820G1X-7.645
N27830G1X-7.641Y-24.855
N27840G1X-7.618Y-24.783
N27850G1X-8.046
N27860G1X-8.035Y-24.728
N27870G1X-8.027Y-24.703
N27880G1X-7.593
N27890G1X-7.567Y-24.623
N27900G1X-8.002
N27910G1X-7.976Y-24.543
N27920G1X-7.542
N27930G1X-7.516Y-24.463
N27940G1X-7.951
N27950G1X-7.926Y-24.383
N27960G1X-7.491
N27970G1X-7.465Y-24.303
N27980G1X-7.900
N27990G1X-7.875Y-24.223
N28000G1X-7.440
N28010G1X-7.414Y-24.143
N28020G1X-7.849
N28030G1X-7.824Y-24.063
N28040G1X-7.389
N28050G1X-7.363Y-23.983
N28060G1X-7.798
N28070G1X-7.773Y-23.903
N28080G1X-7.338
N28090G1X-7.312Y-23.823
N28100G1X-7.747
N28110G1X-7.722Y-23.743
N28120G1X-7.287
N28130G1X-7.261Y-23.663
N28140G1X-7.696
N28150G1X-7.671Y-23.583
N28160G1X-7.236
N28170G1X-7.210Y-23.503
N28180G1X-7.646
N28190G1X-7.620Y-23.423
N28200G1X-7.185
N28210G1X-7.159Y-23.343
N28220G1X-7.595
N28230G1X-7.569Y-23.263
N28240G1X-7.134
N28250G1X-7.108Y-23.183
N28260G1X-7.544
N28270G1X-7.518Y-23.103
N28280G1X-7.083
N28290G1X-7.057Y-23.023
N28300G1X-7.493
N28310G1X-7.467Y-22.943
N28320G1X-7.032
N28330G1X-7.006Y-22.863
N28340G1X-7.442
N28350G1X-7.416Y-22.783
N28360G1X-6.981
N28370G1X-6.955Y-22.703
N28380G1X-7.391
N28390G1X-7.366Y-22.623
N28400G1X-6.929
N28410G1X-6.904Y-22.543
N28420G1X-7.340
N28430G1X-7.315Y-22.463
N28440G1X-6.878
N28450G1X-6.853Y-22.383
N28460G1X-8.376
N28470G1X-8.421Y-22.347
N28480G1X-8.447Y-22.303
N28490G1X-6.827
N28500G1X-6.817Y-22.268
N28510G1X-6.812Y-22.223
N28520G1X-8.469
N28530G1X-8.472Y-22.206
N28540G1X-8.461Y-22.143
N28550G1X-6.820
N28560G1X-6.847Y-22.084
N28570G1X-6.872Y-22.063
N28580G1X-8.420
N28590G00Z6.000
N28600G00X-8.358Y-22.015
N28610G1Z-0.500F480.0
N28620G1X-8.421Y-22.064F1200.0
N28630G1X-8.459Y-22.132
N28640G1X-8.472Y-22.206
N28650G1X-8.459Y-22.280
N28660G1X-8.421Y-22.347
N28670G1X-8.358Y-22.396
N28680G1X-8.270Y-22.412
N28690G1X-7.299
N28700G1X-8.035Y-24.728
N28710G1X-8.050Y-24.804
N28720G1X-8.038Y-24.870
N28730G1X-8.001Y-24.927
N28740G1X-7.937Y-24.973
N28750G1X-7.864Y-25.000
N28760G1X-7.796Y-25.001
N28770G1X-7.734Y-24.975
N28780G1X-7.678Y-24.923
N28790G1X-7.641Y-24.855
N28800G1X-6.817Y-22.268
N28810G1X-6.807Y-22.172
N28820G1X-6.847Y-22.084
N28830G1X-6.922Y-22.020
N28840G1X-7.016Y-21.999
N28850G1X-8.270
N28860G1X-8.358Y-22.015
N28870G00Z6.000
N28880G00X6.854Y-24.945
N28890G1Z-0.500F480.0
N28900G1X8.703F1200.0
N28910G1X8.705Y-24.944
N28920G1X8.744Y-24.883
N28930G1X8.747Y-24.865
N28940G1X6.805
N28950G1X6.787Y-24.797
N28960G1Y-24.785
N28970G1X8.755
N28980G1X8.746Y-24.718
N28990G1X8.738Y-24.705
N29000G1X6.787
N29010G1Y-24.625
N29020G1X8.662
N29030G1X8.643Y-24.613
N29040G1X8.552Y-24.591
N29050G1X7.200Y-24.592
N29060G1Y-24.545
N29070G1X6.787
N29080G1Y-24.465
N29090G1X7.200
N29100G1Y-24.385
N29110G1X6.787
N29120G1Y-24.305
N29130G1X7.200
N29140G1Y-24.225
N29150G1X6.787
N29160G1Y-24.145
N29170G1X7.200
N29180G1Y-24.065
N29190G1X6.787
N29200G1Y-23.985
N29210G1X7.200
N29220G1Y-23.905
N29230G1X6.787
N29240G1Y-23.825
N29250G1X7.200
N29260G1Y-23.745
N29270G1X6.787
N29280G1Y-23.665
N29290G1X7.200
N29300G1Y-23.585
N29310G1X6.787
N29320G1Y-23.505
N29330G1X7.200
N29340G1Y-23.425
N29350G1X6.787
N29360G1Y-23.345
N29370G1X7.200
N29380G1Y-23.265
N29390G1X6.787
N29400G1Y-23.185
N29410G1X7.200
N29420G1Y-23.105
N29430G1X6.787
N29440G1Y-23.025
N29450G1X7.200
N29460G1Y-22.945
N29470G1X6.787
N29480G1Y-22.865
N29490G1X7.200
N29500G1Y-22.785
N29510G1X6.787
N29520G1Y-22.705
N29530G1X7.200
N29540G1Y-22.625
N29550G1X6.787
N29560G1Y-22.545
N29570G1X7.200
N29580G1Y-22.465
N29590G1X6.787
N29600G1Y-22.385
N29610G1X7.200
N29620G1Y-22.305
N29630G1X6.787
N29640G1Y-22.225
N29650G1X7.200
N29660G1Y-22.207
N29670G1X7.187Y-22.145
N29680G1X6.803
N29690G1X6.812Y-22.115
N29700G1X6.845Y-22.065
N29710G1X7.149
N29720G00Z6.000
N29730G00X6.787Y-24.797
N29740G1Z-0.500F480.0
N29750G1X6.810Y-24.882F1200.0
N29760G1X6.853Y-24.944
N29770G1X6.914Y-24.984
N29780G1X6.995Y-25.001
N29790G1X8.550
N29800G1X8.640Y-24.983
N29810G1X8.705Y-24.944
N29820G1X8.744Y-24.883
N29830G1X8.758Y-24.801
N29840G1X8.746Y-24.718
N29850G1X8.707Y-24.655
N29860G1X8.643Y-24.613
N29870G1X8.552Y-24.591
N29880G1X7.200Y-24.592
N29890G1Y-22.207
N29900G1X7.181Y-22.118
N29910G1X7.142Y-22.054
N29920G1X7.082Y-22.014
N29930G1X7.001Y-22.000
N29940G1X6.918Y-22.011
N29950G1X6.855Y-22.050
N29960G1X6.812Y-22.115
N29970G1X6.787Y-22.207
N29980G1Y-24.797
N29990G00Z6.000
N30000G00X9.959Y-24.922
N30010G1Z-0.500F480.0
N30020G1X10.279F1200.0
N30030G1X10.304Y-24.885
N30040G1X10.317Y-24.842
N30050G1X9.927
N30060G1X9.917Y-24.794
N30070G1Y-24.762
N30080G1X10.330
N30090G1Y-24.682
N30100G1X9.917
N30110G1Y-24.602
N30120G1X10.330
N30130G1Y-24.522
N30140G1X9.917
N30150G1Y-24.442
N30160G1X10.330
N30170G1Y-24.362
N30180G1X9.917
N30190G1Y-24.282
N30200G1X10.330
N30210G1Y-24.202
N30220G1X9.917
N30230G1Y-24.122
N30240G1X10.330
N30250G1Y-24.042
N30260G1X9.917
N30270G1Y-23.962
N30280G1X10.330
N30290G1Y-23.882
N30300G1X9.917
N30310G1Y-23.802
N30320G1X10.330
N30330G1Y-23.722
N30340G1X9.917
N30350G1Y-23.642
N30360G1X10.330
N30370G1Y-23.562
N30380G1X9.917
N30390G1Y-23.482
N30400G1X10.330
N30410G1Y-23.402
N30420G1X9.917
N30430G1Y-23.322
N30440G1X10.330
N30450G1Y-23.242
N30460G1X9.917
N30470G1Y-23.162
N30480G1X10.330
N30490G1Y-23.082
N30500G1X9.917
N30510G1Y-23.002
N30520G1X10.330
N30530G1Y-22.922
N30540G1X9.917
N30550G1Y-22.842
N30560G1X10.330
N30570G1Y-22.762
N30580G1X9.917
N30590G1Y-22.682
N30600G1X10.330
N30610G1Y-22.602
N30620G1X9.917
N30630G1Y-22.522
N30640G1X10.330
N30650G1Y-22.442
N30660G1X9.917
N30670G1Y-22.412
N30680G1X9.380
N30690G1X9.290Y-22.393
N30700G1X9.241Y-22.362
N30710G1X11.006
N30720G1X11.019Y-22.353
N30730G1X11.057Y-22.291
N30740G1X11.058Y-22.282
N30750G1X9.186
N30760G1X9.175Y-22.206
N30770G1X9.176Y-22.202
N30780G1X11.069
N30790G1X11.056Y-22.122
N30800G1X9.188
N30810G1X9.227Y-22.060
N30820G1X9.254Y-22.042
N30830G1X10.992
N30840G00Z6.000
N30850G00X10.330Y-24.794
N30860G1Z-0.500F480.0
N30870G1Y-22.412F1200.0
N30880G1X10.867
N30890G1X10.956Y-22.394
N30900G1X11.019Y-22.353
N30910G1X11.057Y-22.291
N30920G1X11.069Y-22.206
N30930G1X11.056Y-22.122
N30940G1X11.018Y-22.059
N30950G1X10.955Y-22.018
N30960G1X10.867Y-21.999
N30970G1X9.380
N30980G1X9.290Y-22.019
N30990G1X9.227Y-22.060
N31000G1X9.188Y-22.122
N31010G1X9.175Y-22.206
N31020G1X9.188Y-22.290
N31030G1X9.226Y-22.353
N31040G1X9.290Y-22.393
N31050G1X9.380Y-22.412
N31060G1X9.917
N31070G1Y-24.794
N31080G1X9.935Y-24.883
N31090G1X9.974Y-24.947
N31100G1X10.034Y-24.985
N31110G1X10.114Y-24.999
N31120G1X10.196Y-24.988
N31130G1X10.259Y-24.950
N31140G1X10.304Y-24.885
N31150G1X10.330Y-24.794
N31160G00Z6.000
N31170G00X12.643Y-24.952
N31180G1Z-0.500F480.0
N31190G1X12.091F1200.0
N31200G1X11.951Y-24.897
N31210G1X11.915Y-24.872
N31220G1X12.806
N31230G1X12.894Y-24.813
N31240G1X12.916Y-24.792
N31250G1X11.805
N31260G1X11.778Y-24.772
N31270G1X11.728Y-24.712
N31280G1X12.998
N31290G1X13.034Y-24.676
N31300G1X13.062Y-24.632
N31310G1X11.661
N31320G1X11.641Y-24.607
N31330G1X11.615Y-24.552
N31340G1X12.200
N31350G1X12.110Y-24.508
N31360G1X12.070Y-24.472
N31370G1X11.577
N31380G1X11.549Y-24.413
N31390G1X11.544Y-24.392
N31400G1X11.998
N31410G1X11.953Y-24.312
N31420G1X11.526
N31430G1X11.513Y-24.256
N31440G1X11.512Y-24.232
N31450G1X11.931
N31460G1X11.920Y-24.184
N31470G1X11.921Y-24.152
N31480G1X11.509
N31490G1X11.507Y-24.101
N31500G1X11.511Y-24.072
N31510G1X11.924
N31520G1X11.924Y-24.068
N31530G1X11.950Y-23.992
N31540G1X11.523
N31550G1X11.529Y-23.949
N31560G1X11.542Y-23.912
N31570G1X11.994
N31580G1X12.032Y-23.856
N31590G1X12.059Y-23.832
N31600G1X11.570
N31610G1X11.581Y-23.798
N31620G1X11.603Y-23.752
N31630G1X12.168
N31640G1X12.229Y-23.722
N31650G1X12.344Y-23.706
N31660G1X12.471Y-23.722
N31670G1X12.539Y-23.752
N31680G1X13.114
N31690G1X13.150Y-23.819
N31700G1X13.154Y-23.832
N31710G1X12.658
N31720G1X12.707Y-23.879
N31730G1X12.725Y-23.912
N31740G1X13.178
N31750G1X13.198Y-23.978
N31760G1X13.199Y-23.992
N31770G1X12.768
N31780G1X12.776Y-24.006
N31790G1X12.787Y-24.072
N31800G1X13.206
N31810G1X13.213Y-24.151
N31820G1X13.213Y-24.152
N31830G1X12.798
N31840G1X12.791Y-24.232
N31850G1X13.205
N31860G1X13.197Y-24.312
N31870G1X12.768
N31880G1X12.767Y-24.316
N31890G1X12.726Y-24.390
N31900G1X12.725Y-24.392
N31910G1X13.177
N31920G1X13.150Y-24.472
N31930G1X12.652
N31940G1X12.602Y-24.513
N31950G1X12.530Y-24.552
N31960G1X13.113
N31970G00Z6.000
N31980G00X13.071Y-23.672
N31990G1Z-0.500F480.0
N32000G1X11.658F1200.0
N32010G1X11.714Y-23.592
N32020G1X13.004
N32030G1X12.961Y-23.540
N32040G1X12.953Y-23.534
N32050G1X12.947Y-23.527
N32060G1X12.937Y-23.512
N32070G1X11.791
N32080G1X11.803Y-23.501
N32090G1X11.746Y-23.446
N32100G1X11.734Y-23.432
N32110G1X12.986
N32120G1X13.053Y-23.352
N32130G1X11.670
N32140G1X11.619Y-23.272
N32150G1X12.247
N32160G1X12.152Y-23.243
N32170G1X12.086Y-23.203
N32180G1X12.074Y-23.192
N32190G1X11.579
N32200G1X11.551Y-23.112
N32210G1X12.003
N32220G1X11.984Y-23.085
N32230G1X11.960Y-23.032
N32240G1X11.531
N32250G1X11.521Y-22.952
N32260G1X11.936
N32270G1X11.920Y-22.872
N32280G1X11.511
N32290G1X11.509Y-22.855
N32300G1X11.516Y-22.792
N32310G1X11.930
N32320G1X11.938Y-22.733
N32330G1X11.949Y-22.712
N32340G1X11.525
N32350G1X11.533Y-22.644
N32360G1X11.537Y-22.632
N32370G1X11.988
N32380G1X11.998Y-22.610
N32390G1X12.050Y-22.552
N32400G1X11.567
N32410G1X11.597Y-22.472
N32420G1X12.144
N32430G1X12.197Y-22.437
N32440G1X12.309Y-22.407
N32450G1X12.426Y-22.415
N32460G1X12.548Y-22.461
N32470G1X12.565Y-22.472
N32480G1X13.119
N32490G1X13.158Y-22.552
N32500G1X12.673
N32510G1X12.736Y-22.624
N32520G1X12.739Y-22.632
N32530G1X13.180
N32540G1X13.201Y-22.712
N32550G1X12.775
N32560G1X12.783Y-22.731
N32570G1X12.791Y-22.792
N32580G1X13.206
N32590G1X13.211Y-22.872
N32600G1X12.796
N32610G1X12.783Y-22.952
N32620G1X13.203
N32630G1X13.194Y-23.032
N32640G1X12.765
N32650G1X12.737Y-23.088
N32660G1X12.718Y-23.112
N32670G1X13.171
N32680G1X13.146Y-23.192
N32690G1X12.631
N32700G1X12.572Y-23.236
N32710G1X12.470Y-23.272
N32720G1X13.102
N32730G00Z6.000
N32740G00X13.074Y-22.392
N32750G1Z-0.500F480.0
N32760G1X11.648F1200.0
N32770G1X11.702Y-22.312
N32780G1X13.015
N32790G1X12.994Y-22.283
N32800G1X12.940Y-22.232
N32810G1X11.784
N32820G1X11.852Y-22.168
N32830G1X11.880Y-22.152
N32840G1X12.841
N32850G1X12.791Y-22.117
N32860G1X12.696Y-22.072
N32870G1X12.016
N32880G00Z6.000
N32890G00X13.145Y-23.195
N32900G1Z-0.500F480.0
N32910G1X13.193Y-23.043F1200.0
N32920G1X13.212Y-22.879
N32930G1X13.202Y-22.714
N32940G1X13.162Y-22.560
N32950G1X13.092Y-22.416
N32960G1X12.994Y-22.283
N32970G1X12.898Y-22.192
N32980G1X12.791Y-22.117
N32990G1X12.672Y-22.060
N33000G1X12.540Y-22.020
N33010G1X12.405Y-22.000
N33020G1X12.273Y-22.002
N33030G1X12.144Y-22.025
N33040G1X12.019Y-22.069
N33050G1X11.852Y-22.168
N33060G1X11.710Y-22.301
N33070G1X11.601Y-22.461
N33080G1X11.533Y-22.644
N33090G1X11.509Y-22.855
N33100G1X11.536Y-23.072
N33110G1X11.595Y-23.235
N33120G1X11.693Y-23.386
N33130G1X11.746Y-23.446
N33140G1X11.803Y-23.501
N33150G1X11.762Y-23.538
N33160G1X11.725Y-23.575
N33170G1X11.606Y-23.745
N33180G1X11.581Y-23.798
N33190G1X11.529Y-23.949
N33200G1X11.507Y-24.101
N33210G1X11.513Y-24.256
N33220G1X11.549Y-24.413
N33230G1X11.641Y-24.607
N33240G1X11.778Y-24.772
N33250G1X11.951Y-24.897
N33260G1X12.150Y-24.974
N33270G1X12.277Y-24.996
N33280G1X12.401Y-25.000
N33290G1X12.520Y-24.986
N33300G1X12.635Y-24.955
N33310G1X12.774Y-24.893
N33320G1X12.894Y-24.813
N33330G1X13.034Y-24.676
N33340G1X13.134Y-24.520
N33350G1X13.193Y-24.345
N33360G1X13.213Y-24.151
N33370G1X13.198Y-23.978
N33380G1X13.150Y-23.819
N33390G1X13.072Y-23.673
N33400G1X12.961Y-23.540
N33410G1X12.953Y-23.534
N33420G1X12.947Y-23.527
N33430G1X12.925Y-23.493
N33440G1X12.961Y-23.461
N33450G1X13.068Y-23.334
N33460G1X13.145Y-23.195
N33470G00Z6.000
N33480G00X12.690Y-23.148
N33490G1Z-0.500F480.0
N33500G1X12.572Y-23.236F1200.0
N33510G1X12.437Y-23.283
N33520G1X12.294Y-23.286
N33530G1X12.152Y-23.243
N33540G1X12.086Y-23.203
N33550G1X12.030Y-23.151
N33560G1X11.984Y-23.085
N33570G1X11.948Y-23.006
N33580G1X11.919Y-22.867
N33590G1X11.938Y-22.733
N33600G1X11.998Y-22.610
N33610G1X12.091Y-22.506
N33620G1X12.197Y-22.437
N33630G1X12.309Y-22.407
N33640G1X12.426Y-22.415
N33650G1X12.548Y-22.461
N33660G1X12.658Y-22.534
N33670G1X12.736Y-22.624
N33680G1X12.783Y-22.731
N33690G1X12.799Y-22.855
N33700G1X12.771Y-23.019
N33710G1X12.737Y-23.088
N33720G1X12.690Y-23.148
N33730G00Z6.000
N33740G00X12.229Y-23.722
N33750G1Z-0.500F480.0
N33760G1X12.344Y-23.706F1200.0
N33770G1X12.471Y-23.722
N33780G1X12.602Y-23.779
N33790G1X12.707Y-23.879
N33800G1X12.776Y-24.006
N33810G1X12.799Y-24.147
N33820G1X12.791Y-24.235
N33830G1X12.767Y-24.316
N33840G1X12.726Y-24.390
N33850G1X12.670Y-24.457
N33860G1X12.602Y-24.513
N33870G1X12.528Y-24.553
N33880G1X12.447Y-24.577
N33890G1X12.359Y-24.585
N33900G1X12.229Y-24.566
N33910G1X12.110Y-24.508
N33920G1X12.013Y-24.419
N33930G1X11.949Y-24.305
N33940G1X11.920Y-24.184
N33950G1X11.924Y-24.068
N33960G1X11.961Y-23.959
N33970G1X12.032Y-23.856
N33980G1X12.125Y-23.773
N33990G1X12.229Y-23.722
N34000G00Z6.000
N34010G00Z20.000
N34020G00X0.000Y0.000
N34030M09
N34040M30
%
