( PCB_CUTOUT )
( File created: Friday December 27 2019 - 09:46 AM)
( USBCNC Postprocessor )
( Material Size)
( X= 38.000, Y= 90.000, Z= 2.000)
()
(Toolpaths used in this file:)
(Profile 1)
(Profile 2)
(Tools used in this file: )
(1 = End Mill {2 mm})
N110G00G21G17G90G40G49
N120G80
N130 (End Mill {2 mm})
N140G00G43Z20.000H1
N150S12000M03
N160(Toolpath:- Profile 1)
N170()
N180G94
N190X0.000Y0.000F3600.0
N200G00X0.000Y29.000Z6.000
N210G1Z-0.500F1200.0
N220G2X-1.000Y30.000I0.000J1.000F3600.0
N230G2X0.000Y31.000I1.000J0.000
N240G2X1.000Y30.000I0.000J-1.000
N250G2X0.000Y29.000I-1.000J0.000
N260G1Z-1.000F1200.0
N270G2X-1.000Y30.000I0.000J1.000F3600.0
N280G2X0.000Y31.000I1.000J0.000
N290G2X1.000Y30.000I0.000J-1.000
N300G2X0.000Y29.000I-1.000J0.000
N310G1Z-1.500F1200.0
N320G2X-1.000Y30.000I0.000J1.000F3600.0
N330G2X0.000Y31.000I1.000J0.000
N340G2X1.000Y30.000I0.000J-1.000
N350G2X0.000Y29.000I-1.000J0.000
N360G1Z-2.000F1200.0
N370G2X-1.000Y30.000I0.000J1.000F3600.0
N380G2X0.000Y31.000I1.000J0.000
N390G2X1.000Y30.000I0.000J-1.000
N400G2X0.000Y29.000I-1.000J0.000
N410G00Z6.000
N420G00Y-29.000
N430G1Z-0.500F1200.0
N440G2X1.000Y-30.000I0.000J-1.000F3600.0
N450G2X0.000Y-31.000I-1.000J0.000
N460G2X-1.000Y-30.000I0.000J1.000
N470G2X0.000Y-29.000I1.000J0.000
N480G1Z-1.000F1200.0
N490G2X1.000Y-30.000I0.000J-1.000F3600.0
N500G2X0.000Y-31.000I-1.000J0.000
N510G2X-1.000Y-30.000I0.000J1.000
N520G2X0.000Y-29.000I1.000J0.000
N530G1Z-1.500F1200.0
N540G2X1.000Y-30.000I0.000J-1.000F3600.0
N550G2X0.000Y-31.000I-1.000J0.000
N560G2X-1.000Y-30.000I0.000J1.000
N570G2X0.000Y-29.000I1.000J0.000
N580G1Z-2.000F1200.0
N590G2X1.000Y-30.000I0.000J-1.000F3600.0
N600G2X0.000Y-31.000I-1.000J0.000
N610G2X-1.000Y-30.000I0.000J1.000
N620G2X0.000Y-29.000I1.000J0.000
N630G00Z6.000
N640S12000M03
(Profile 2)
()
N670G00X-16.000Y-35.000Z6.000
N680G1Z-0.500F1200.0
N690G3X-12.500Y-38.500I3.500J0.000F3600.0
N700G1X12.500
N710G3X16.000Y-35.000I0.000J3.500
N720G1Y35.000
N730G3X12.500Y38.500I-3.500J0.000
N740G1X-12.500
N750G3X-16.000Y35.000I0.000J-3.500
N760G1Y-35.000
N770G1Z-1.000F1200.0
N780G3X-12.500Y-38.500I3.500J0.000F3600.0
N790G1X12.500
N800G3X16.000Y-35.000I0.000J3.500
N810G1Y35.000
N820G3X12.500Y38.500I-3.500J0.000
N830G1X-12.500
N840G3X-16.000Y35.000I0.000J-3.500
N850G1Y-35.000
N860G1Z-1.500F1200.0
N870G3X-12.500Y-38.500I3.500J0.000F3600.0
N880G1X12.500
N890G3X16.000Y-35.000I0.000J3.500
N900G1Y35.000
N910G3X12.500Y38.500I-3.500J0.000
N920G1X-12.500
N930G3X-16.000Y35.000I0.000J-3.500
N940G1Y-35.000
N950G1Z-2.000F1200.0
N960G3X-12.500Y-38.500I3.500J0.000F3600.0
N970G1X12.500
N980G3X16.000Y-35.000I0.000J3.500
N990G1Y35.000
N1000G3X12.500Y38.500I-3.500J0.000
N1010G1X-12.500
N1020G3X-16.000Y35.000I0.000J-3.500
N1030G1Y-35.000
N1040G00Z6.000
N1050G00Z20.000
N1060G00X0.000Y0.000
N1070M09
N1080M30
%
