( SWITCH_PANEL_ENGRAVE )
( File created: Friday December 20 2019 - 12:51 PM)
( USBCNC Postprocessor )
( Material Size)
( X= 250.000, Y= 250.000, Z= 2.000)
()
(Toolpaths used in this file:)
(SWITCH_PANEL_ENGRAVE)
(Tools used in this file: )
(1 = Engraving Tool)
N100G00G21G17G90G40G49
N110G80
N120 (Engraving Tool)
N130G00G43Z20.000H1
N140S12000M03
N150(Toolpath:- SWITCH_PANEL_ENGRAVE)
N160()
N170G94
N180X0.000Y0.000F1200.0
N190G00X7.034Y-4.180Z6.000
N200G1Z-0.500F480.0
N210G1X7.819F1200.0
N220G1X7.929Y-4.138
N230G1X7.983Y-4.100
N240G1X6.773
N250G1X6.745Y-4.088
N260G1X6.661Y-4.020
N270G1X8.095
N280G1X8.165Y-3.940
N290G1X6.587
N300G1X6.528Y-3.860
N310G1X8.229
N320G1X8.272Y-3.780
N330G1X7.729
N340G1X7.777Y-3.758
N350G1X7.837Y-3.700
N360G1X8.314
N370G1X8.314Y-3.699
N380G1X8.333Y-3.620
N390G1X7.893
N400G1X7.929Y-3.556
N410G1X7.932Y-3.540
N420G1X8.353
N430G1X8.361Y-3.508
N440G1X8.362Y-3.460
N450G1X7.950
N460G1X7.956Y-3.433
N470G1X7.951Y-3.380
N480G1X8.365
N490G1X8.365Y-3.370
N500G1X8.357Y-3.300
N510G1X7.941
N520G1X7.909Y-3.220
N530G1X8.344
N540G1X8.320Y-3.140
N550G1X7.857
N560G1X7.816Y-3.090
N570G1X7.767Y-3.060
N580G1X8.292
N590G1X8.249Y-2.980
N600G1X7.611
N610G1X7.428Y-2.900
N620G1X8.194
N630G1X8.127Y-2.820
N640G1X7.246
N650G1X7.063Y-2.740
N660G1X8.029
N670G1X7.990Y-2.709
N680G1X7.966Y-2.695
N690G1X7.943Y-2.681
N700G1X7.920Y-2.668
N710G1X7.904Y-2.660
N720G1X6.924
N730G1X6.854Y-2.615
N740G1X6.818Y-2.580
N750G1X7.724
N760G1X7.542Y-2.500
N770G1X6.735
N780G1X6.735Y-2.499
N790G1X6.683Y-2.420
N800G1X7.361
N810G1X7.193Y-2.346
N820G1X7.179Y-2.340
N830G1X6.638
N840G1X6.609Y-2.260
N850G1X7.069
N860G1X7.026Y-2.205
N870G1X7.015Y-2.180
N880G1X6.586
N890G1X6.574Y-2.100
N900G1X6.987
N910G1X6.978Y-2.060
N920G1X6.979Y-2.020
N930G1X6.564
N940G1X6.570Y-1.940
N950G1X6.982
N960G1X6.982Y-1.935
N970G1X7.014Y-1.860
N980G1X6.576
N990G1X6.576Y-1.857
N1000G1X6.602Y-1.780
N1010G1X7.063
N1020G1X7.088Y-1.748
N1030G1X7.152Y-1.700
N1040G1X6.629
N1050G1X6.631Y-1.693
N1060G1X6.677Y-1.620
N1070G1X8.123
N1080G1X8.090Y-1.559
N1090G1X8.073Y-1.540
N1100G1X6.728
N1110G1X6.728Y-1.539
N1120G1X6.805Y-1.460
N1130G1X8.002
N1140G1X7.970Y-1.424
N1150G1X7.899Y-1.380
N1160G1X6.900
N1170G1X7.000Y-1.316
N1180G1X7.046Y-1.300
N1190G1X7.739
N1200G00Z6.000
N1210G00X7.095Y-3.780
N1220G1Z-0.500F480.0
N1230G1X6.491F1200.0
N1240G1X6.455Y-3.700
N1250G1X6.947
N1260G1X6.899Y-3.644
N1270G1X6.887Y-3.620
N1280G1X6.431
N1290G1X6.421Y-3.584
N1300G1X6.412Y-3.540
N1310G1X6.847
N1320G1X6.844Y-3.533
N1330G1X6.822Y-3.460
N1340G1X6.401
N1350G1X6.403Y-3.382
N1360G1X6.404Y-3.380
N1370G1X6.799
N1380G1X6.798Y-3.377
N1390G1X6.747Y-3.300
N1400G1X6.450
N1410G00Z6.000
N1420G00X7.929Y-2.100
N1430G1Z-0.500F480.0
N1440G1X8.236F1200.0
N1450G1X8.266Y-2.054
N1460G1X8.276Y-2.020
N1470G1X7.877
N1480G1X7.840Y-1.940
N1490G1X8.281
N1500G1X8.280Y-1.924
N1510G1X8.267Y-1.886
N1520G1X8.253Y-1.860
N1530G1X7.799
N1540G1X7.759Y-1.797
N1550G1X7.741Y-1.780
N1560G1X8.210
N1570G1X8.166Y-1.700
N1580G1X7.635
N1590G00Z6.000
N1600G00X7.164Y-1.260
N1610G1Z-0.500F480.0
N1620G1X7.000Y-1.316F1200.0
N1630G1X6.855Y-1.409
N1640G1X6.728Y-1.539
N1650G1X6.631Y-1.693
N1660G1X6.576Y-1.857
N1670G1X6.563Y-2.030
N1680G1X6.591Y-2.213
N1690G1X6.647Y-2.365
N1700G1X6.735Y-2.499
N1710G1X6.854Y-2.615
N1720G1X7.004Y-2.712
N1730G1X7.026Y-2.724
N1740G1X7.705Y-3.021
N1750G1X7.816Y-3.090
N1760G1X7.895Y-3.187
N1770G1X7.943Y-3.306
N1780G1X7.956Y-3.433
N1790G1X7.929Y-3.556
N1800G1X7.864Y-3.674
N1810G1X7.777Y-3.758
N1820G1X7.667Y-3.809
N1830G1X7.535Y-3.826
N1840G1X7.257Y-3.815
N1850G1X7.047Y-3.770
N1860G1X6.967Y-3.723
N1870G1X6.899Y-3.644
N1880G1X6.844Y-3.533
N1890G1X6.802Y-3.390
N1900G1X6.798Y-3.377
N1910G1X6.735Y-3.281
N1920G1X6.637Y-3.234
N1930G1X6.536Y-3.240
N1940G1X6.453Y-3.295
N1950G1X6.403Y-3.382
N1960G1X6.401Y-3.481
N1970G1X6.421Y-3.584
N1980G1X6.448Y-3.683
N1990G1X6.525Y-3.855
N2000G1X6.624Y-3.990
N2010G1X6.745Y-4.088
N2020G1X6.889Y-4.150
N2030G1X7.205Y-4.215
N2040G1X7.538Y-4.237
N2050G1X7.736Y-4.212
N2060G1X7.929Y-4.138
N2070G1X8.090Y-4.026
N2080G1X8.221Y-3.876
N2090G1X8.314Y-3.699
N2100G1X8.361Y-3.508
N2110G1X8.365Y-3.370
N2120G1X8.349Y-3.237
N2130G1X8.301Y-3.077
N2140G1X8.225Y-2.936
N2150G1X8.121Y-2.814
N2160G1X7.990Y-2.709
N2170G1X7.966Y-2.695
N2180G1X7.943Y-2.681
N2190G1X7.920Y-2.668
N2200G1X7.893Y-2.655
N2210G1X7.870Y-2.645
N2220G1X7.193Y-2.346
N2230G1X7.176Y-2.339
N2240G1X7.160Y-2.331
N2250G1X7.143Y-2.322
N2260G1X7.130Y-2.312
N2270G1X7.071Y-2.263
N2280G1X7.026Y-2.205
N2290G1X6.995Y-2.137
N2300G1X6.978Y-2.060
N2310G1X6.982Y-1.935
N2320G1X7.031Y-1.821
N2330G1X7.088Y-1.748
N2340G1X7.158Y-1.695
N2350G1X7.239Y-1.663
N2360G1X7.331Y-1.652
N2370G1X7.466Y-1.656
N2380G1X7.561Y-1.672
N2390G1X7.628Y-1.696
N2400G1X7.690Y-1.731
N2410G1X7.759Y-1.797
N2420G1X7.811Y-1.878
N2430G1X7.892Y-2.051
N2440G1X7.951Y-2.129
N2450G1X8.031Y-2.169
N2460G1X8.118Y-2.172
N2470G1X8.198Y-2.136
N2480G1X8.229Y-2.110
N2490G1X8.266Y-2.054
N2500G1X8.285Y-1.992
N2510G1X8.280Y-1.924
N2520G1X8.267Y-1.886
N2530G1X8.090Y-1.559
N2540G1X7.970Y-1.424
N2550G1X7.807Y-1.322
N2560G1X7.659Y-1.274
N2570G1X7.507Y-1.246
N2580G1X7.346Y-1.241
N2590G1X7.164Y-1.260
N2600G00Z6.000
N2610G00X9.300Y-4.180
N2620G1Z-0.500F480.0
N2630G1X9.583F1200.0
N2640G1X9.600Y-4.162
N2650G1X9.635Y-4.100
N2660G1X9.248
N2670G1X9.235Y-4.073
N2680G1X9.225Y-4.020
N2690G1X9.660
N2700G1X9.683Y-3.940
N2710G1X9.209
N2720G1X9.194Y-3.860
N2730G1X9.706
N2740G1X9.730Y-3.780
N2750G1X9.178
N2760G1X9.162Y-3.700
N2770G1X9.753
N2780G1X9.776Y-3.620
N2790G1X9.147
N2800G1X9.131Y-3.540
N2810G1X9.799
N2820G1X9.823Y-3.460
N2830G1X9.115
N2840G1X9.100Y-3.380
N2850G1X9.846
N2860G1X9.869Y-3.300
N2870G1X9.084
N2880G1X9.068Y-3.220
N2890G1X9.892
N2900G1X9.916Y-3.140
N2910G1X9.484
N2920G1X9.507Y-3.060
N2930G1X9.939
N2940G1X9.962Y-2.980
N2950G1X9.531
N2960G1X9.554Y-2.900
N2970G1X9.985
N2980G1X10.009Y-2.820
N2990G1X9.578
N3000G1X9.601Y-2.740
N3010G1X10.032
N3020G1X10.055Y-2.660
N3030G1X9.624
N3040G1X9.648Y-2.580
N3050G1X10.078
N3060G1X10.102Y-2.500
N3070G1X9.671
N3080G1X9.694Y-2.420
N3090G1X10.125
N3100G1X10.148Y-2.340
N3110G1X9.718
N3120G1X9.741Y-2.260
N3130G1X10.171
N3140G1X10.188Y-2.204
N3150G1X10.204Y-2.260
N3160G1X10.636
N3170G1X10.659Y-2.340
N3180G1X10.227
N3190G1X10.251Y-2.420
N3200G1X10.683
N3210G1X10.706Y-2.500
N3220G1X10.274
N3230G1X10.298Y-2.580
N3240G1X10.730
N3250G1X10.753Y-2.660
N3260G1X10.321
N3270G1X10.345Y-2.740
N3280G1X10.776
N3290G1X10.800Y-2.820
N3300G1X10.368
N3310G1X10.391Y-2.900
N3320G1X10.823
N3330G1X10.847Y-2.980
N3340G1X10.415
N3350G1X10.438Y-3.060
N3360G1X10.870
N3370G1X10.893Y-3.140
N3380G1X10.462
N3390G1X10.485Y-3.220
N3400G1X11.309
N3410G1X11.293Y-3.300
N3420G1X10.509
N3430G1X10.532Y-3.380
N3440G1X11.277
N3450G1X11.261Y-3.460
N3460G1X10.556
N3470G1X10.579Y-3.540
N3480G1X11.246
N3490G1X11.230Y-3.620
N3500G1X10.602
N3510G1X10.626Y-3.700
N3520G1X11.214
N3530G1X11.199Y-3.780
N3540G1X10.649
N3550G1X10.673Y-3.860
N3560G1X11.183
N3570G1X11.167Y-3.940
N3580G1X10.696
N3590G1X10.720Y-4.020
N3600G1X11.152
N3610G1X11.141Y-4.073
N3620G1X11.130Y-4.100
N3630G1X10.745
N3640G1X10.779Y-4.161
N3650G1X10.798Y-4.180
N3660G1X11.084
N3670G00Z6.000
N3680G00X9.473Y-3.140
N3690G1Z-0.500F480.0
N3700G1X9.052F1200.0
N3710G1X9.037Y-3.060
N3720G1X9.457
N3730G1X9.442Y-2.980
N3740G1X9.021
N3750G1X9.005Y-2.900
N3760G1X9.426
N3770G1X9.411Y-2.820
N3780G1X8.990
N3790G1X8.974Y-2.740
N3800G1X9.395
N3810G1X9.380Y-2.660
N3820G1X8.958
N3830G1X8.943Y-2.580
N3840G1X9.365
N3850G1X9.349Y-2.500
N3860G1X8.927
N3870G1X8.911Y-2.420
N3880G1X9.334
N3890G1X9.318Y-2.340
N3900G1X8.896
N3910G1X8.880Y-2.260
N3920G1X9.303
N3930G1X9.287Y-2.180
N3940G1X8.864
N3950G1X8.849Y-2.100
N3960G1X9.272
N3970G1X9.257Y-2.020
N3980G1X8.833
N3990G1X8.817Y-1.940
N4000G1X9.241
N4010G1X9.226Y-1.860
N4020G1X8.802
N4030G1X8.786Y-1.780
N4040G1X9.210
N4050G1X9.195Y-1.700
N4060G1X8.770
N4070G1X8.755Y-1.620
N4080G1X9.179
N4090G1X9.164Y-1.540
N4100G1X8.739
N4110G1X8.729Y-1.486
N4120G1X8.731Y-1.460
N4130G1X9.149
N4140G1X9.139Y-1.408
N4150G1X9.124Y-1.380
N4160G1X8.745
N4170G1X8.770Y-1.321
N4180G1X8.793Y-1.300
N4190G1X9.069
N4200G00Z6.000
N4210G00X11.324Y-3.140
N4220G1Z-0.500F480.0
N4230G1X10.904F1200.0
N4240G1X10.919Y-3.060
N4250G1X11.340
N4260G1X11.356Y-2.980
N4270G1X10.935
N4280G1X10.951Y-2.900
N4290G1X11.371
N4300G1X11.387Y-2.820
N4310G1X10.966
N4320G1X10.982Y-2.740
N4330G1X11.403
N4340G1X11.418Y-2.660
N4350G1X10.998
N4360G1X11.013Y-2.580
N4370G1X11.434
N4380G1X11.450Y-2.500
N4390G1X11.029
N4400G1X11.045Y-2.420
N4410G1X11.465
N4420G1X11.481Y-2.340
N4430G1X11.060
N4440G1X11.076Y-2.260
N4450G1X11.497
N4460G1X11.512Y-2.180
N4470G1X11.091
N4480G1X11.107Y-2.100
N4490G1X11.528
N4500G1X11.544Y-2.020
N4510G1X11.123
N4520G1X11.138Y-1.940
N4530G1X11.559
N4540G1X11.575Y-1.860
N4550G1X11.154
N4560G1X11.170Y-1.780
N4570G1X11.591
N4580G1X11.606Y-1.700
N4590G1X11.185
N4600G1X11.201Y-1.620
N4610G1X11.622
N4620G1X11.638Y-1.540
N4630G1X11.217
N4640G1X11.232Y-1.460
N4650G1X11.647
N4660G1X11.643Y-1.395
N4670G1X11.637Y-1.380
N4680G1X11.255
N4690G1X11.281Y-1.324
N4700G1X11.304Y-1.300
N4710G1X11.587
N4720G00Z6.000
N4730G00X10.613Y-2.180
N4740G1Z-0.500F480.0
N4750G1X9.765F1200.0
N4760G1X9.788Y-2.100
N4770G1X10.589
N4780G1X10.566Y-2.020
N4790G1X9.811
N4800G1X9.835Y-1.940
N4810G1X10.542
N4820G1X10.519Y-1.860
N4830G1X9.858
N4840G1X9.881Y-1.780
N4850G1X10.495
N4860G1X10.472Y-1.700
N4870G1X9.905
N4880G1X9.928Y-1.620
N4890G1X10.449
N4900G1X10.425Y-1.540
N4910G1X9.952
N4920G1X9.975Y-1.460
N4930G1X10.402
N4940G1X10.387Y-1.408
N4950G1X10.372Y-1.380
N4960G1X10.006
N4970G1X10.026Y-1.345
N4980G1X10.071Y-1.300
N4990G1X10.314
N5000G00Z6.000
N5010G00X8.729Y-1.486
N5020G1Z-0.500F480.0
N5030G1X9.235Y-4.073F1200.0
N5040G1X9.269Y-4.143
N5050G1X9.313Y-4.194
N5060G1X9.367Y-4.227
N5070G1X9.432Y-4.242
N5080G1X9.497Y-4.236
N5090G1X9.553Y-4.210
N5100G1X9.600Y-4.162
N5110G1X9.638Y-4.094
N5120G1X10.188Y-2.204
N5130G1X10.741Y-4.094
N5140G1X10.779Y-4.161
N5150G1X10.826Y-4.207
N5160G1X10.883Y-4.234
N5170G1X10.950Y-4.242
N5180G1X11.016Y-4.229
N5190G1X11.070Y-4.196
N5200G1X11.112Y-4.145
N5210G1X11.141Y-4.073
N5220G1X11.648Y-1.486
N5230G1X11.643Y-1.395
N5240G1X11.614Y-1.325
N5250G1X11.561Y-1.276
N5260G1X11.483Y-1.247
N5270G1X11.401Y-1.244
N5280G1X11.333Y-1.269
N5290G1X11.281Y-1.324
N5300G1X11.242Y-1.408
N5310G1X10.900Y-3.160
N5320G1X10.387Y-1.408
N5330G1X10.353Y-1.341
N5340G1X10.309Y-1.294
N5350G1X10.255Y-1.267
N5360G1X10.191Y-1.259
N5370G1X10.127Y-1.270
N5380G1X10.072Y-1.298
N5390G1X10.026Y-1.345
N5400G1X9.990Y-1.408
N5410G1X9.477Y-3.163
N5420G1X9.139Y-1.408
N5430G1X9.095Y-1.325
N5440G1X9.040Y-1.270
N5450G1X8.973Y-1.243
N5460G1X8.896Y-1.245
N5470G1X8.822Y-1.272
N5480G1X8.770Y-1.321
N5490G1X8.739Y-1.392
N5500G1X8.729Y-1.486
N5510G00Z6.000
N5520G00X12.707Y-4.185
N5530G1Z-0.500F480.0
N5540G1X12.427F1200.0
N5550G1X12.405Y-4.169
N5560G1X12.368Y-4.113
N5570G1X12.366Y-4.105
N5580G1X12.761
N5590G1X12.764Y-4.098
N5600G1X12.788Y-4.025
N5610G1X12.360
N5620G1X12.370Y-3.971
N5630G1X12.378Y-3.945
N5640G1X12.813
N5650G1X12.839Y-3.865
N5660G1X12.404
N5670G1X12.429Y-3.785
N5680G1X12.864
N5690G1X12.890Y-3.705
N5700G1X12.455
N5710G1X12.480Y-3.625
N5720G1X12.915
N5730G1X12.941Y-3.545
N5740G1X12.506
N5750G1X12.531Y-3.465
N5760G1X12.966
N5770G1X12.992Y-3.385
N5780G1X12.557
N5790G1X12.582Y-3.305
N5800G1X13.017
N5810G1X13.043Y-3.225
N5820G1X12.608
N5830G1X12.633Y-3.145
N5840G1X13.068
N5850G1X13.094Y-3.065
N5860G1X12.658
N5870G1X12.684Y-2.985
N5880G1X13.119
N5890G1X13.145Y-2.905
N5900G1X12.709
N5910G1X12.735Y-2.825
N5920G1X13.170
N5930G1X13.196Y-2.745
N5940G1X12.760
N5950G1X12.786Y-2.665
N5960G1X13.221
N5970G1X13.247Y-2.585
N5980G1X12.811
N5990G1X12.837Y-2.505
N6000G1X13.272
N6010G1X13.298Y-2.425
N6020G1X12.862
N6030G1X12.888Y-2.345
N6040G1X13.323
N6050G1X13.349Y-2.265
N6060G1X12.913
N6070G1X12.938Y-2.185
N6080G1X13.374
N6090G1X13.400Y-2.105
N6100G1X12.964
N6110G1X12.989Y-2.025
N6120G1X13.425
N6130G1X13.451Y-1.945
N6140G1X13.015
N6150G1X13.040Y-1.865
N6160G1X13.476
N6170G1X13.502Y-1.785
N6180G1X13.066
N6190G1X13.091Y-1.705
N6200G1X13.527
N6210G1X13.553Y-1.625
N6220G1X12.030
N6230G1X11.984Y-1.590
N6240G1X11.959Y-1.545
N6250G1X13.578
N6260G1X13.589Y-1.511
N6270G1X13.594Y-1.465
N6280G1X11.937
N6290G1X11.934Y-1.449
N6300G1X11.945Y-1.385
N6310G1X13.586
N6320G1X13.559Y-1.326
N6330G1X13.534Y-1.305
N6340G1X11.986
N6350G00Z6.000
N6360G00X12.048Y-1.258
N6370G1Z-0.500F480.0
N6380G1X11.984Y-1.307F1200.0
N6390G1X11.946Y-1.375
N6400G1X11.934Y-1.449
N6410G1X11.946Y-1.522
N6420G1X11.984Y-1.590
N6430G1X12.048Y-1.638
N6440G1X12.136Y-1.654
N6450G1X13.107
N6460G1X12.370Y-3.971
N6470G1X12.356Y-4.047
N6480G1X12.368Y-4.113
N6490G1X12.405Y-4.169
N6500G1X12.469Y-4.215
N6510G1X12.542Y-4.243
N6520G1X12.610Y-4.244
N6530G1X12.672Y-4.218
N6540G1X12.728Y-4.165
N6550G1X12.764Y-4.098
N6560G1X13.589Y-1.511
N6570G1X13.599Y-1.415
N6580G1X13.559Y-1.326
N6590G1X13.484Y-1.263
N6600G1X13.390Y-1.241
N6610G1X12.136
N6620G1X12.048Y-1.258
N6630G00Z6.000
N6640G00X10.292Y-8.718
N6650G1Z-0.500F480.0
N6660G1X10.535F1200.0
N6670G1X10.553Y-8.707
N6680G1X10.596Y-8.643
N6690G1X10.597Y-8.638
N6700G1X10.231
N6710G1X10.209Y-8.558
N6720G1X10.620
N6730G1X10.621Y-8.553
N6740G1Y-8.478
N6750G1X10.208
N6760G1Y-8.398
N6770G1X10.621
N6780G1Y-8.318
N6790G1X10.208
N6800G1Y-8.238
N6810G1X10.621
N6820G1Y-8.158
N6830G1X10.208
N6840G1Y-8.078
N6850G1X10.621
N6860G1Y-7.998
N6870G1X10.208
N6880G1Y-7.918
N6890G1X10.621
N6900G1Y-7.838
N6910G1X10.208
N6920G1Y-7.758
N6930G1X10.621
N6940G1Y-7.678
N6950G1X10.208
N6960G1Y-7.598
N6970G1X10.621
N6980G1Y-7.518
N6990G1X10.208
N7000G1Y-7.438
N7010G1X10.621
N7020G1Y-7.358
N7030G1X10.208
N7040G1Y-7.278
N7050G1X10.621
N7060G1Y-7.198
N7070G1X10.208
N7080G1Y-7.118
N7090G1X10.621
N7100G1Y-7.038
N7110G1X10.208
N7120G1Y-6.958
N7130G1X10.621
N7140G1Y-6.878
N7150G1X10.208
N7160G1Y-6.798
N7170G1X10.621
N7180G1Y-6.718
N7190G1X10.208
N7200G1Y-6.638
N7210G1X11.074
N7220G1X11.024Y-6.558
N7230G1X10.208
N7240G1Y-6.478
N7250G1X10.975
N7260G1X10.925Y-6.398
N7270G1X10.208
N7280G1Y-6.318
N7290G1X10.875
N7300G1X10.825Y-6.238
N7310G1X10.208
N7320G1Y-6.158
N7330G1X10.775
N7340G1X10.725Y-6.078
N7350G1X10.208
N7360G1Y-5.998
N7370G1X10.676
N7380G1X10.626Y-5.918
N7390G1X10.220
N7400G1X10.226Y-5.896
N7410G1X10.258Y-5.839
N7420G1X10.259Y-5.838
N7430G1X10.572
N7440G1X10.540Y-5.798
N7450G1X10.487Y-5.764
N7460G1X10.456Y-5.758
N7470G1X10.401
N7480G00Z6.000
N7490G00X11.901Y-8.718
N7500G1Z-0.500F480.0
N7510G1X12.150F1200.0
N7520G1X12.194Y-8.679
N7530G1X12.214Y-8.638
N7540G1X11.837
N7550G1X11.787Y-8.558
N7560G1X12.230
N7570G1X12.231Y-8.553
N7580G1Y-8.478
N7590G1X11.737
N7600G1X11.687Y-8.398
N7610G1X12.231
N7620G1Y-8.318
N7630G1X11.637
N7640G1X11.587Y-8.238
N7650G1X12.231
N7660G1Y-8.158
N7670G1X11.538
N7680G1X11.488Y-8.078
N7690G1X12.231
N7700G1Y-7.998
N7710G1X11.438
N7720G1X11.388Y-7.918
N7730G1X12.231
N7740G1Y-7.838
N7750G1X11.338
N7760G1X11.288Y-7.758
N7770G1X11.772
N7780G1X11.722Y-7.678
N7790G1X11.238
N7800G1X11.188Y-7.598
N7810G1X11.672
N7820G1X11.622Y-7.518
N7830G1X11.138
N7840G1X11.089Y-7.438
N7850G1X11.572
N7860G1X11.523Y-7.358
N7870G1X11.039
N7880G1X10.989Y-7.278
N7890G1X11.473
N7900G1X11.423Y-7.198
N7910G1X10.939
N7920G1X10.889Y-7.118
N7930G1X11.373
N7940G1X11.323Y-7.038
N7950G1X10.839
N7960G1X10.789Y-6.958
N7970G1X11.273
N7980G1X11.224Y-6.878
N7990G1X10.739
N8000G1X10.689Y-6.798
N8010G1X11.174
N8020G1X11.124Y-6.718
N8030G1X10.640
N8040G00Z6.000
N8050G00X11.818Y-7.758
N8060G1Z-0.500F480.0
N8070G1X12.231F1200.0
N8080G1Y-7.678
N8090G1X11.818
N8100G1Y-7.598
N8110G1X12.231
N8120G1Y-7.518
N8130G1X11.818
N8140G1Y-7.438
N8150G1X12.231
N8160G1Y-7.358
N8170G1X11.818
N8180G1Y-7.278
N8190G1X12.231
N8200G1Y-7.198
N8210G1X11.818
N8220G1Y-7.118
N8230G1X12.231
N8240G1Y-7.038
N8250G1X11.818
N8260G1Y-6.958
N8270G1X12.231
N8280G1Y-6.878
N8290G1X11.818
N8300G1Y-6.798
N8310G1X12.231
N8320G1Y-6.718
N8330G1X11.818
N8340G1Y-6.638
N8350G1X12.231
N8360G1Y-6.558
N8370G1X11.818
N8380G1Y-6.478
N8390G1X12.231
N8400G1Y-6.398
N8410G1X11.818
N8420G1Y-6.318
N8430G1X12.231
N8440G1Y-6.238
N8450G1X11.818
N8460G1Y-6.158
N8470G1X12.231
N8480G1Y-6.078
N8490G1X11.818
N8500G1Y-5.998
N8510G1X12.231
N8520G1Y-5.966
N8530G1X12.221Y-5.918
N8540G1X11.830
N8550G1X11.842Y-5.874
N8560G1X11.866Y-5.838
N8570G1X12.190
N8580G00Z6.000
N8590G00X10.208Y-8.553
N8600G1Z-0.500F480.0
N8610G1X10.232Y-8.643F1200.0
N8620G1X10.275Y-8.707
N8630G1X10.335Y-8.745
N8640G1X10.414Y-8.758
N8650G1X10.492Y-8.745
N8660G1X10.553Y-8.707
N8670G1X10.596Y-8.643
N8680G1X10.621Y-8.553
N8690G1Y-6.688
N8700G1X11.851Y-8.661
N8710G1X11.897Y-8.715
N8720G1X11.950Y-8.748
N8730G1X12.012Y-8.759
N8740G1X12.082Y-8.748
N8750G1X12.147Y-8.721
N8760G1X12.194Y-8.679
N8770G1X12.222Y-8.623
N8780G1X12.231Y-8.553
N8790G1Y-5.966
N8800G1X12.213Y-5.876
N8810G1X12.174Y-5.811
N8820G1X12.113Y-5.772
N8830G1X12.031Y-5.758
N8840G1X11.948Y-5.771
N8850G1X11.885Y-5.809
N8860G1X11.842Y-5.874
N8870G1X11.818Y-5.966
N8880G1Y-7.832
N8890G1X10.587Y-5.856
N8900G1X10.540Y-5.798
N8910G1X10.487Y-5.764
N8920G1X10.428Y-5.753
N8930G1X10.364Y-5.765
N8940G1X10.304Y-5.796
N8950G1X10.258Y-5.839
N8960G1X10.226Y-5.896
N8970G1X10.208Y-5.966
N8980G1Y-8.553
N8990G00Z6.000
N9000G00X8.647Y-8.727
N9010G1Z-0.500F480.0
N9020G1X9.032F1200.0
N9030G1X9.103Y-8.703
N9040G1X9.203Y-8.647
N9050G1X8.431
N9060G1X8.329Y-8.593
N9070G1X8.299Y-8.567
N9080G1X9.301
N9090G1X9.394Y-8.487
N9100G1X8.206
N9110G1X8.172Y-8.458
N9120G1X8.134Y-8.407
N9130G1X9.463
N9140G1X9.523Y-8.327
N9150G1X8.926
N9160G1X8.969Y-8.310
N9170G1X9.047Y-8.250
N9180G1X9.050Y-8.247
N9190G1X9.580
N9200G1X9.620Y-8.167
N9210G1X9.119
N9220G1X9.177Y-8.100
N9230G1X9.185Y-8.087
N9240G1X9.660
N9250G1X9.667Y-8.072
N9260G1X9.691Y-8.007
N9270G1X9.232
N9280G1X9.272Y-7.941
N9290G1X9.276Y-7.927
N9300G1X9.720
N9310G1X9.738Y-7.878
N9320G1X9.745Y-7.847
N9330G1X9.303
N9340G1X9.330Y-7.767
N9350G1X9.765
N9360G1X9.784Y-7.687
N9370G1X9.347
N9380G1X9.360Y-7.607
N9390G1X9.796
N9400G1X9.806Y-7.527
N9410G1X9.373
N9420G1X9.378Y-7.498
N9430G1X9.380Y-7.447
N9440G1X9.815
N9450G1X9.817Y-7.367
N9460G1X9.383
N9470G1X9.386Y-7.287
N9480G1X9.819
N9490G1X9.820Y-7.244
N9500G1X9.818Y-7.207
N9510G1X9.387
N9520G1X9.380Y-7.127
N9530G1X9.812
N9540G1X9.807Y-7.047
N9550G1X9.373
N9560G1X9.366Y-6.967
N9570G1X9.794
N9580G1X9.781Y-6.887
N9590G1X9.350
N9600G1X9.331Y-6.807
N9610G1X9.765
N9620G1X9.743Y-6.727
N9630G1X9.312
N9640G1X9.303Y-6.691
N9650G1X9.284Y-6.647
N9660G1X9.721
N9670G1X9.713Y-6.618
N9680G1X9.689Y-6.567
N9690G1X9.249
N9700G1X9.214Y-6.487
N9710G1X9.651
N9720G1X9.613Y-6.407
N9730G1X9.167
N9740G1X9.134Y-6.359
N9750G1X9.102Y-6.327
N9760G1X9.575
N9770G1X9.567Y-6.310
N9780G1X9.522Y-6.247
N9790G1X9.004
N9800G1X8.961Y-6.220
N9810G1X8.856Y-6.180
N9820G1X8.788Y-6.171
N9830G1X8.662Y-6.189
N9840G1X8.552Y-6.243
N9850G1X8.548Y-6.247
N9860G1X8.024
N9870G1X7.991Y-6.298
N9880G1X7.978Y-6.327
N9890G1X8.465
N9900G1X8.458Y-6.334
N9910G1X8.413Y-6.407
N9920G1X7.942
N9930G1X7.907Y-6.487
N9940G1X8.369
N9950G1X8.336Y-6.567
N9960G1X7.880
N9970G1X7.855Y-6.647
N9980G1X8.302
N9990G1X8.268Y-6.727
N10000G1X7.831
N10010G1X7.830Y-6.732
N10020G1X7.815Y-6.807
N10030G1X8.246
N10040G1X8.224Y-6.887
N10050G1X7.800
N10060G1X7.786Y-6.961
N10070G1X7.785Y-6.967
N10080G1X8.204
N10090G1X8.195Y-7.047
N10100G1X7.778
N10110G1X7.771Y-7.127
N10120G1X8.186
N10130G1X8.186Y-7.207
N10140G1X7.766
N10150G1X7.768Y-7.287
N10160G1X8.185
N10170G1X8.185Y-7.318
N10180G1X8.189Y-7.367
N10190G1X7.770
N10200G1X7.771Y-7.427
N10210G1X7.773Y-7.447
N10220G1X8.196
N10230G1X8.204Y-7.527
N10240G1X7.784
N10250G1X7.794Y-7.607
N10260G1X8.220
N10270G1X8.236Y-7.687
N10280G1X7.808
N10290G1X7.828Y-7.767
N10300G1X8.256
N10310G1X8.284Y-7.847
N10320G1X7.848
N10330G1X7.856Y-7.878
N10340G1X7.875Y-7.927
N10350G1X8.311
N10360G1X8.314Y-7.935
N10370G1X8.353Y-8.007
N10380G1X7.905
N10390G1X7.936Y-8.087
N10400G1X8.396
N10410G1X8.409Y-8.111
N10420G1X8.452Y-8.167
N10430G1X7.979
N10440G1X8.021Y-8.247
N10450G1X8.532
N10460G1X8.534Y-8.249
N10470G1X8.609Y-8.298
N10480G1X8.682Y-8.327
N10490G1X8.073
N10500G00Z6.000
N10510G00X8.077Y-6.167
N10520G1Z-0.500F480.0
N10530G1X9.465F1200.0
N10540G1X9.408Y-6.087
N10550G1X8.139
N10560G1X8.215Y-6.007
N10570G1X9.345
N10580G1X9.263Y-5.927
N10590G1X8.312
N10600G1X8.415Y-5.854
N10610G1X8.432Y-5.847
N10620G1X9.144
N10630G1X9.104Y-5.823
N10640G1X8.949Y-5.772
N10650G1X8.901Y-5.767
N10660G1X8.685
N10670G00Z6.000
N10680G00X9.047Y-8.250
N10690G1Z-0.500F480.0
N10700G1X8.969Y-8.310F1200.0
N10710G1X8.884Y-8.344
N10720G1X8.792Y-8.351
N10730G1X8.693Y-8.332
N10740G1X8.609Y-8.298
N10750G1X8.534Y-8.249
N10760G1X8.467Y-8.187
N10770G1X8.409Y-8.111
N10780G1X8.314Y-7.935
N10790G1X8.246Y-7.738
N10800G1X8.204Y-7.529
N10810G1X8.185Y-7.318
N10820G1X8.186Y-7.121
N10830G1X8.205Y-6.956
N10840G1X8.267Y-6.730
N10850G1X8.380Y-6.461
N10860G1X8.458Y-6.334
N10870G1X8.552Y-6.243
N10880G1X8.662Y-6.189
N10890G1X8.788Y-6.171
N10900G1X8.856Y-6.180
N10910G1X8.961Y-6.220
N10920G1X9.054Y-6.279
N10930G1X9.134Y-6.359
N10940G1X9.201Y-6.459
N10950G1X9.303Y-6.691
N10960G1X9.365Y-6.951
N10970G1X9.389Y-7.224
N10980G1X9.378Y-7.498
N10990G1X9.337Y-7.746
N11000G1X9.272Y-7.941
N11010G1X9.177Y-8.100
N11020G1X9.047Y-8.250
N11030G00Z6.000
N11040G00X9.421Y-8.464
N11050G1Z-0.500F480.0
N11060G1X9.575Y-8.257F1200.0
N11070G1X9.667Y-8.072
N11080G1X9.738Y-7.878
N11090G1X9.787Y-7.674
N11100G1X9.814Y-7.460
N11110G1X9.820Y-7.244
N11120G1X9.806Y-7.031
N11130G1X9.770Y-6.823
N11140G1X9.713Y-6.618
N11150G1X9.567Y-6.310
N11160G1X9.365Y-6.027
N11170G1X9.243Y-5.908
N11180G1X9.104Y-5.823
N11190G1X8.949Y-5.772
N11200G1X8.777Y-5.755
N11210G1X8.592Y-5.780
N11220G1X8.415Y-5.854
N11230G1X8.250Y-5.972
N11240G1X8.108Y-6.119
N11250G1X7.991Y-6.298
N11260G1X7.898Y-6.506
N11270G1X7.830Y-6.732
N11280G1X7.786Y-6.961
N11290G1X7.766Y-7.192
N11300G1X7.771Y-7.427
N11310G1X7.801Y-7.658
N11320G1X7.856Y-7.878
N11330G1X7.936Y-8.087
N11340G1X8.041Y-8.285
N11350G1X8.172Y-8.458
N11360G1X8.329Y-8.593
N11370G1X8.512Y-8.690
N11380G1X8.721Y-8.748
N11390G1X8.854Y-8.758
N11400G1X8.982Y-8.744
N11410G1X9.103Y-8.703
N11420G1X9.219Y-8.638
N11430G1X9.421Y-8.464
N11440G00Z6.000
N11450G00X-7.585Y-4.182
N11460G1Z-0.500F480.0
N11470G1X-6.896F1200.0
N11480G1X-6.792Y-4.137
N11490G1X-6.734Y-4.102
N11500G1X-7.757
N11510G1X-7.784Y-4.089
N11520G1X-7.864Y-4.022
N11530G1X-6.621
N11540G1X-6.580Y-3.990
N11550G1X-6.532Y-3.942
N11560G1X-7.949
N11570G1X-8.011Y-3.862
N11580G1X-6.459
N11590G1X-6.400Y-3.782
N11600G1X-7.011
N11610G1X-6.929Y-3.741
N11620G1X-6.881Y-3.702
N11630G1X-6.359
N11640G1X-6.331Y-3.644
N11650G1X-6.325Y-3.622
N11660G1X-6.795
N11670G1X-6.736Y-3.542
N11680G1X-6.304
N11690G1X-6.283Y-3.462
N11700G1X-6.705
N11710G1X-6.685Y-3.409
N11720G1X-6.682Y-3.382
N11730G1X-6.262
N11740G1X-6.257Y-3.363
N11750G1X-6.253Y-3.321
N11760G1X-6.253Y-3.302
N11770G1X-6.673
N11780G1X-6.668Y-3.261
N11790G1X-6.672Y-3.222
N11800G1X-6.253
N11810G1X-6.253Y-3.181
N11820G1X-6.259Y-3.142
N11830G1X-6.681
N11840G1X-6.684Y-3.112
N11850G1X-6.703Y-3.062
N11860G1X-6.272
N11870G1X-6.275Y-3.042
N11880G1X-6.294Y-2.982
N11890G1X-6.733
N11900G1X-6.792Y-2.902
N11910G1X-6.320
N11920G1X-6.359Y-2.822
N11930G1X-6.876
N11940G1X-6.929Y-2.780
N11950G1X-7.008Y-2.742
N11960G1X-6.403
N11970G1X-6.456Y-2.662
N11980G1X-8.095
N11990G1X-8.064Y-2.582
N12000G1X-6.525
N12010G1X-6.566Y-2.537
N12020G1X-6.609Y-2.502
N12030G1X-8.033
N12040G1X-8.002Y-2.422
N12050G1X-6.724
N12060G1X-6.799Y-2.380
N12070G1X-6.901Y-2.342
N12080G1X-7.962
N12090G1X-7.920Y-2.262
N12100G1X-7.449
N12110G1X-7.425Y-2.225
N12120G1X-7.393Y-2.182
N12130G1X-7.877
N12140G1X-7.835Y-2.102
N12150G1X-7.335
N12160G1X-7.298Y-2.053
N12170G1X-7.270Y-2.022
N12180G1X-7.783
N12190G1X-7.725Y-1.942
N12200G1X-7.197
N12210G1X-7.154Y-1.897
N12220G1X-7.114Y-1.862
N12230G1X-7.667
N12240G1X-7.611Y-1.785
N12250G1X-7.608Y-1.782
N12260G1X-7.020
N12270G1X-6.927Y-1.702
N12280G1X-7.532
N12290G1X-7.455Y-1.622
N12300G1X-6.833
N12310G1X-6.830Y-1.620
N12320G1X-6.787Y-1.582
N12330G1X-6.764Y-1.542
N12340G1X-7.379
N12350G1X-7.366Y-1.529
N12360G1X-7.286Y-1.462
N12370G1X-6.738
N12380G1X-6.735Y-1.445
N12390G1X-6.751Y-1.382
N12400G1X-7.190
N12410G1X-7.095Y-1.302
N12420G1X-6.810
N12430G00Z6.000
N12440G00X-7.458Y-3.782
N12450G1Z-0.500F480.0
N12460G1X-8.065F1200.0
N12470G1X-8.107Y-3.702
N12480G1X-7.588
N12490G1X-7.675Y-3.624
N12500G1X-7.676Y-3.622
N12510G1X-8.144
N12520G1X-8.169Y-3.542
N12530G1X-7.725
N12540G1X-7.741Y-3.515
N12550G1X-7.762Y-3.462
N12560G1X-8.194
N12570G1X-8.204Y-3.382
N12580G1X-7.788
N12590G1X-7.801Y-3.302
N12600G1X-8.213
N12610G1X-8.215Y-3.283
N12620G1X-8.211Y-3.222
N12630G1X-7.799
N12640G1X-7.797Y-3.181
N12650G1X-7.788Y-3.142
N12660G1X-8.206
N12670G1X-8.203Y-3.097
N12680G1X-8.200Y-3.079
N12690G1X-8.196Y-3.062
N12700G1X-7.766
N12710G1X-7.728Y-2.982
N12720G1X-8.180
N12730G1X-8.164Y-2.902
N12740G1X-7.674
N12750G1X-7.650Y-2.871
N12760G1X-7.594Y-2.822
N12770G1X-8.143
N12780G1X-8.120Y-2.742
N12790G1X-7.467
N12800G00Z6.000
N12810G00X-6.733Y-2.982
N12820G1Z-0.500F480.0
N12830G1X-6.684Y-3.112F1200.0
N12840G1X-6.668Y-3.261
N12850G1X-6.685Y-3.409
N12860G1X-6.734Y-3.539
N12870G1X-6.815Y-3.650
N12880G1X-6.929Y-3.741
N12890G1X-7.018Y-3.786
N12900G1X-7.112Y-3.814
N12910G1X-7.213Y-3.827
N12920G1X-7.321Y-3.823
N12930G1X-7.443Y-3.791
N12940G1X-7.569Y-3.720
N12950G1X-7.675Y-3.624
N12960G1X-7.741Y-3.515
N12970G1X-7.784Y-3.405
N12980G1X-7.803Y-3.294
N12990G1X-7.797Y-3.181
N13000G1X-7.768Y-3.067
N13010G1X-7.718Y-2.961
N13020G1X-7.650Y-2.871
N13030G1X-7.564Y-2.797
N13040G1X-7.461Y-2.739
N13050G1X-7.326Y-2.697
N13060G1X-7.192Y-2.690
N13070G1X-7.060Y-2.718
N13080G1X-6.929Y-2.780
N13090G1X-6.815Y-2.872
N13100G1X-6.733Y-2.982
N13110G00Z6.000
N13120G00X-6.385Y-2.769
N13130G1Z-0.500F480.0
N13140G1X-6.469Y-2.643F1200.0
N13150G1X-6.566Y-2.537
N13160G1X-6.676Y-2.449
N13170G1X-6.799Y-2.380
N13180G1X-6.970Y-2.317
N13190G1X-7.124Y-2.289
N13200G1X-7.279Y-2.287
N13210G1X-7.457Y-2.304
N13220G1X-7.467Y-2.305
N13230G1X-7.477Y-2.308
N13240G1X-7.469Y-2.294
N13250G1X-7.461Y-2.281
N13260G1X-7.425Y-2.225
N13270G1X-7.298Y-2.053
N13280G1X-7.154Y-1.897
N13290G1X-6.830Y-1.620
N13300G1X-6.787Y-1.582
N13310G1X-6.747Y-1.513
N13320G1X-6.735Y-1.445
N13330G1X-6.752Y-1.378
N13340G1X-6.798Y-1.312
N13350G1X-6.860Y-1.261
N13360G1X-6.925Y-1.239
N13370G1X-6.994Y-1.246
N13380G1X-7.067Y-1.281
N13390G1X-7.082Y-1.292
N13400G1X-7.366Y-1.529
N13410G1X-7.611Y-1.785
N13420G1X-7.819Y-2.072
N13430G1X-7.996Y-2.407
N13440G1X-8.104Y-2.686
N13450G1X-8.159Y-2.881
N13460G1X-8.200Y-3.079
N13470G1X-8.203Y-3.097
N13480G1X-8.215Y-3.283
N13490G1X-8.194Y-3.464
N13500G1X-8.138Y-3.642
N13510G1X-8.048Y-3.815
N13520G1X-7.928Y-3.969
N13530G1X-7.784Y-4.089
N13540G1X-7.614Y-4.174
N13550G1X-7.420Y-4.226
N13560G1X-7.284Y-4.240
N13570G1X-7.153Y-4.239
N13580G1X-7.027Y-4.221
N13590G1X-6.907Y-4.187
N13600G1X-6.792Y-4.137
N13610G1X-6.683Y-4.072
N13620G1X-6.580Y-3.990
N13630G1X-6.481Y-3.892
N13640G1X-6.393Y-3.774
N13650G1X-6.331Y-3.644
N13660G1X-6.257Y-3.363
N13670G1X-6.253Y-3.321
N13680G1X-6.253Y-3.181
N13690G1X-6.275Y-3.042
N13700G1X-6.319Y-2.905
N13710G1X-6.385Y-2.769
N13720G00Z6.000
N13730G00X-10.848Y-4.182
N13740G1Z-0.500F480.0
N13750G1X-10.565F1200.0
N13760G1X-10.548Y-4.164
N13770G1X-10.513Y-4.102
N13780G1X-10.900
N13790G1X-10.913Y-4.075
N13800G1X-10.923Y-4.022
N13810G1X-10.488
N13820G1X-10.465Y-3.942
N13830G1X-10.939
N13840G1X-10.955Y-3.862
N13850G1X-10.442
N13860G1X-10.419Y-3.782
N13870G1X-10.970
N13880G1X-10.986Y-3.702
N13890G1X-10.395
N13900G1X-10.372Y-3.622
N13910G1X-11.002
N13920G1X-11.017Y-3.542
N13930G1X-10.349
N13940G1X-10.325Y-3.462
N13950G1X-11.033
N13960G1X-11.049Y-3.382
N13970G1X-10.302
N13980G1X-10.279Y-3.302
N13990G1X-11.064
N14000G1X-11.080Y-3.222
N14010G1X-10.256
N14020G1X-10.232Y-3.142
N14030G1X-10.664
N14040G1X-10.641Y-3.062
N14050G1X-10.209
N14060G1X-10.186Y-2.982
N14070G1X-10.617
N14080G1X-10.594Y-2.902
N14090G1X-10.163
N14100G1X-10.139Y-2.822
N14110G1X-10.570
N14120G1X-10.547Y-2.742
N14130G1X-10.116
N14140G1X-10.093Y-2.662
N14150G1X-10.524
N14160G1X-10.500Y-2.582
N14170G1X-10.070
N14180G1X-10.046Y-2.502
N14190G1X-10.477
N14200G1X-10.454Y-2.422
N14210G1X-10.023
N14220G1X-10.000Y-2.342
N14230G1X-10.430
N14240G1X-10.407Y-2.262
N14250G1X-9.977
N14260G1X-9.960Y-2.206
N14270G1X-9.944Y-2.262
N14280G1X-9.512
N14290G1X-9.489Y-2.342
N14300G1X-9.921
N14310G1X-9.897Y-2.422
N14320G1X-9.465
N14330G1X-9.442Y-2.502
N14340G1X-9.874
N14350G1X-9.850Y-2.582
N14360G1X-9.418
N14370G1X-9.395Y-2.662
N14380G1X-9.827
N14390G1X-9.803Y-2.742
N14400G1X-9.372
N14410G1X-9.348Y-2.822
N14420G1X-9.780
N14430G1X-9.757Y-2.902
N14440G1X-9.325
N14450G1X-9.301Y-2.982
N14460G1X-9.733
N14470G1X-9.710Y-3.062
N14480G1X-9.278
N14490G1X-9.255Y-3.142
N14500G1X-9.686
N14510G1X-9.663Y-3.222
N14520G1X-8.840
N14530G1X-8.855Y-3.302
N14540G1X-9.639
N14550G1X-9.616Y-3.382
N14560G1X-8.871
N14570G1X-8.887Y-3.462
N14580G1X-9.592
N14590G1X-9.569Y-3.542
N14600G1X-8.902
N14610G1X-8.918Y-3.622
N14620G1X-9.546
N14630G1X-9.522Y-3.702
N14640G1X-8.934
N14650G1X-8.949Y-3.782
N14660G1X-9.499
N14670G1X-9.475Y-3.862
N14680G1X-8.965
N14690G1X-8.981Y-3.942
N14700G1X-9.452
N14710G1X-9.428Y-4.022
N14720G1X-8.996
N14730G1X-9.007Y-4.075
N14740G1X-9.018Y-4.102
N14750G1X-9.403
N14760G1X-9.369Y-4.163
N14770G1X-9.350Y-4.182
N14780G1X-9.064
N14790G00Z6.000
N14800G00X-10.676Y-3.142
N14810G1Z-0.500F480.0
N14820G1X-11.096F1200.0
N14830G1X-11.111Y-3.062
N14840G1X-10.691
N14850G1X-10.706Y-2.982
N14860G1X-11.127
N14870G1X-11.143Y-2.902
N14880G1X-10.722
N14890G1X-10.737Y-2.822
N14900G1X-11.158
N14910G1X-11.174Y-2.742
N14920G1X-10.753
N14930G1X-10.768Y-2.662
N14940G1X-11.190
N14950G1X-11.205Y-2.582
N14960G1X-10.784
N14970G1X-10.799Y-2.502
N14980G1X-11.221
N14990G1X-11.237Y-2.422
N15000G1X-10.814
N15010G1X-10.830Y-2.342
N15020G1X-11.252
N15030G1X-11.268Y-2.262
N15040G1X-10.845
N15050G1X-10.861Y-2.182
N15060G1X-11.284
N15070G1X-11.299Y-2.102
N15080G1X-10.876
N15090G1X-10.891Y-2.022
N15100G1X-11.315
N15110G1X-11.331Y-1.942
N15120G1X-10.907
N15130G1X-10.922Y-1.862
N15140G1X-11.346
N15150G1X-11.362Y-1.782
N15160G1X-10.938
N15170G1X-10.953Y-1.702
N15180G1X-11.378
N15190G1X-11.393Y-1.622
N15200G1X-10.969
N15210G1X-10.984Y-1.542
N15220G1X-11.409
N15230G1X-11.420Y-1.488
N15240G1X-11.417Y-1.462
N15250G1X-10.999
N15260G1X-11.009Y-1.410
N15270G1X-11.024Y-1.382
N15280G1X-11.403
N15290G1X-11.378Y-1.323
N15300G1X-11.355Y-1.302
N15310G1X-11.079
N15320G00Z6.000
N15330G00X-8.824Y-3.142
N15340G1Z-0.500F480.0
N15350G1X-9.244F1200.0
N15360G1X-9.229Y-3.062
N15370G1X-8.808
N15380G1X-8.793Y-2.982
N15390G1X-9.213
N15400G1X-9.197Y-2.902
N15410G1X-8.777
N15420G1X-8.761Y-2.822
N15430G1X-9.182
N15440G1X-9.166Y-2.742
N15450G1X-8.745
N15460G1X-8.730Y-2.662
N15470G1X-9.150
N15480G1X-9.135Y-2.582
N15490G1X-8.714
N15500G1X-8.698Y-2.502
N15510G1X-9.119
N15520G1X-9.104Y-2.422
N15530G1X-8.683
N15540G1X-8.667Y-2.342
N15550G1X-9.088
N15560G1X-9.072Y-2.262
N15570G1X-8.651
N15580G1X-8.636Y-2.182
N15590G1X-9.057
N15600G1X-9.041Y-2.102
N15610G1X-8.620
N15620G1X-8.604Y-2.022
N15630G1X-9.025
N15640G1X-9.010Y-1.942
N15650G1X-8.589
N15660G1X-8.573Y-1.862
N15670G1X-8.994
N15680G1X-8.978Y-1.782
N15690G1X-8.557
N15700G1X-8.542Y-1.702
N15710G1X-8.963
N15720G1X-8.947Y-1.622
N15730G1X-8.526
N15740G1X-8.510Y-1.542
N15750G1X-8.931
N15760G1X-8.916Y-1.462
N15770G1X-8.501
N15780G1X-8.505Y-1.397
N15790G1X-8.511Y-1.382
N15800G1X-8.893
N15810G1X-8.868Y-1.326
N15820G1X-8.844Y-1.302
N15830G1X-8.562
N15840G00Z6.000
N15850G00X-9.536Y-2.182
N15860G1Z-0.500F480.0
N15870G1X-10.384F1200.0
N15880G1X-10.360Y-2.102
N15890G1X-9.559
N15900G1X-9.582Y-2.022
N15910G1X-10.337
N15920G1X-10.313Y-1.942
N15930G1X-9.606
N15940G1X-9.629Y-1.862
N15950G1X-10.290
N15960G1X-10.267Y-1.782
N15970G1X-9.653
N15980G1X-9.676Y-1.702
N15990G1X-10.243
N16000G1X-10.220Y-1.622
N16010G1X-9.699
N16020G1X-9.723Y-1.542
N16030G1X-10.197
N16040G1X-10.173Y-1.462
N16050G1X-9.746
N16060G1X-9.761Y-1.410
N16070G1X-9.776Y-1.382
N16080G1X-10.142
N16090G1X-10.122Y-1.347
N16100G1X-10.077Y-1.302
N16110G1X-9.834
N16120G00Z6.000
N16130G00X-11.420Y-1.488
N16140G1Z-0.500F480.0
N16150G1X-10.913Y-4.075F1200.0
N16160G1X-10.879Y-4.145
N16170G1X-10.835Y-4.196
N16180G1X-10.781Y-4.229
N16190G1X-10.716Y-4.244
N16200G1X-10.651Y-4.238
N16210G1X-10.595Y-4.212
N16220G1X-10.548Y-4.164
N16230G1X-10.510Y-4.096
N16240G1X-9.960Y-2.206
N16250G1X-9.407Y-4.096
N16260G1X-9.369Y-4.163
N16270G1X-9.322Y-4.210
N16280G1X-9.265Y-4.237
N16290G1X-9.198Y-4.244
N16300G1X-9.132Y-4.231
N16310G1X-9.078Y-4.199
N16320G1X-9.036Y-4.147
N16330G1X-9.007Y-4.075
N16340G1X-8.500Y-1.488
N16350G1X-8.505Y-1.397
N16360G1X-8.534Y-1.327
N16370G1X-8.587Y-1.278
N16380G1X-8.665Y-1.249
N16390G1X-8.747Y-1.246
N16400G1X-8.815Y-1.271
N16410G1X-8.868Y-1.326
N16420G1X-8.906Y-1.410
N16430G1X-9.248Y-3.162
N16440G1X-9.761Y-1.410
N16450G1X-9.795Y-1.343
N16460G1X-9.839Y-1.296
N16470G1X-9.893Y-1.269
N16480G1X-9.957Y-1.261
N16490G1X-10.021Y-1.272
N16500G1X-10.076Y-1.300
N16510G1X-10.122Y-1.347
N16520G1X-10.158Y-1.410
N16530G1X-10.671Y-3.165
N16540G1X-11.009Y-1.410
N16550G1X-11.053Y-1.327
N16560G1X-11.108Y-1.272
N16570G1X-11.175Y-1.245
N16580G1X-11.253Y-1.247
N16590G1X-11.326Y-1.274
N16600G1X-11.378Y-1.323
N16610G1X-11.409Y-1.394
N16620G1X-11.420Y-1.488
N16630G00Z6.000
N16640G00X-9.707Y-8.720
N16650G1Z-0.500F480.0
N16660G1X-9.464F1200.0
N16670G1X-9.446Y-8.709
N16680G1X-9.403Y-8.645
N16690G1X-9.402Y-8.640
N16700G1X-9.768
N16710G1X-9.790Y-8.560
N16720G1X-9.380
N16730G1X-9.378Y-8.555
N16740G1Y-8.480
N16750G1X-9.791
N16760G1Y-8.400
N16770G1X-9.378
N16780G1Y-8.320
N16790G1X-9.791
N16800G1Y-8.240
N16810G1X-9.378
N16820G1Y-8.160
N16830G1X-9.791
N16840G1Y-8.080
N16850G1X-9.378
N16860G1Y-8.000
N16870G1X-9.791
N16880G1Y-7.920
N16890G1X-9.378
N16900G1Y-7.840
N16910G1X-9.791
N16920G1Y-7.760
N16930G1X-9.378
N16940G1Y-7.680
N16950G1X-9.791
N16960G1Y-7.600
N16970G1X-9.378
N16980G1Y-7.520
N16990G1X-9.791
N17000G1Y-7.440
N17010G1X-9.378
N17020G1Y-7.360
N17030G1X-9.791
N17040G1Y-7.280
N17050G1X-9.378
N17060G1Y-7.200
N17070G1X-9.791
N17080G1Y-7.120
N17090G1X-9.378
N17100G1Y-7.040
N17110G1X-9.791
N17120G1Y-6.960
N17130G1X-9.378
N17140G1Y-6.880
N17150G1X-9.791
N17160G1Y-6.800
N17170G1X-9.378
N17180G1Y-6.720
N17190G1X-9.791
N17200G1Y-6.640
N17210G1X-8.925
N17220G1X-8.975Y-6.560
N17230G1X-9.791
N17240G1Y-6.480
N17250G1X-9.025
N17260G1X-9.075Y-6.400
N17270G1X-9.791
N17280G1Y-6.320
N17290G1X-9.124
N17300G1X-9.174Y-6.240
N17310G1X-9.791
N17320G1Y-6.160
N17330G1X-9.224
N17340G1X-9.274Y-6.080
N17350G1X-9.791
N17360G1Y-6.000
N17370G1X-9.324
N17380G1X-9.373Y-5.920
N17390G1X-9.779
N17400G1X-9.773Y-5.898
N17410G1X-9.741Y-5.841
N17420G1X-9.740Y-5.840
N17430G1X-9.427
N17440G1X-9.459Y-5.800
N17450G1X-9.513Y-5.766
N17460G1X-9.543Y-5.760
N17470G1X-9.599
N17480G00Z6.000
N17490G00X-8.098Y-8.720
N17500G1Z-0.500F480.0
N17510G1X-7.849F1200.0
N17520G1X-7.806Y-8.681
N17530G1X-7.785Y-8.640
N17540G1X-8.162
N17550G1X-8.212Y-8.560
N17560G1X-7.769
N17570G1X-7.768Y-8.555
N17580G1Y-8.480
N17590G1X-8.262
N17600G1X-8.312Y-8.400
N17610G1X-7.768
N17620G1Y-8.320
N17630G1X-8.362
N17640G1X-8.412Y-8.240
N17650G1X-7.768
N17660G1Y-8.160
N17670G1X-8.462
N17680G1X-8.512Y-8.080
N17690G1X-7.768
N17700G1Y-8.000
N17710G1X-8.561
N17720G1X-8.611Y-7.920
N17730G1X-7.768
N17740G1Y-7.840
N17750G1X-8.661
N17760G1X-8.711Y-7.760
N17770G1X-8.228
N17780G1X-8.277Y-7.680
N17790G1X-8.761
N17800G1X-8.811Y-7.600
N17810G1X-8.327
N17820G1X-8.377Y-7.520
N17830G1X-8.861
N17840G1X-8.911Y-7.440
N17850G1X-8.427
N17860G1X-8.477Y-7.360
N17870G1X-8.961
N17880G1X-9.010Y-7.280
N17890G1X-8.527
N17900G1X-8.576Y-7.200
N17910G1X-9.060
N17920G1X-9.110Y-7.120
N17930G1X-8.626
N17940G1X-8.676Y-7.040
N17950G1X-9.160
N17960G1X-9.210Y-6.960
N17970G1X-8.726
N17980G1X-8.776Y-6.880
N17990G1X-9.260
N18000G1X-9.310Y-6.800
N18010G1X-8.825
N18020G1X-8.875Y-6.720
N18030G1X-9.360
N18040G00Z6.000
N18050G00X-8.181Y-7.760
N18060G1Z-0.500F480.0
N18070G1X-7.768F1200.0
N18080G1Y-7.680
N18090G1X-8.181
N18100G1Y-7.600
N18110G1X-7.768
N18120G1Y-7.520
N18130G1X-8.181
N18140G1Y-7.440
N18150G1X-7.768
N18160G1Y-7.360
N18170G1X-8.181
N18180G1Y-7.280
N18190G1X-7.768
N18200G1Y-7.200
N18210G1X-8.181
N18220G1Y-7.120
N18230G1X-7.768
N18240G1Y-7.040
N18250G1X-8.181
N18260G1Y-6.960
N18270G1X-7.768
N18280G1Y-6.880
N18290G1X-8.181
N18300G1Y-6.800
N18310G1X-7.768
N18320G1Y-6.720
N18330G1X-8.181
N18340G1Y-6.640
N18350G1X-7.768
N18360G1Y-6.560
N18370G1X-8.181
N18380G1Y-6.480
N18390G1X-7.768
N18400G1Y-6.400
N18410G1X-8.181
N18420G1Y-6.320
N18430G1X-7.768
N18440G1Y-6.240
N18450G1X-8.181
N18460G1Y-6.160
N18470G1X-7.768
N18480G1Y-6.080
N18490G1X-8.181
N18500G1Y-6.000
N18510G1X-7.768
N18520G1Y-5.968
N18530G1X-7.778Y-5.920
N18540G1X-8.169
N18550G1X-8.158Y-5.876
N18560G1X-8.133Y-5.840
N18570G1X-7.809
N18580G00Z6.000
N18590G00X-9.791Y-8.555
N18600G1Z-0.500F480.0
N18610G1X-9.767Y-8.645F1200.0
N18620G1X-9.725Y-8.709
N18630G1X-9.664Y-8.747
N18640G1X-9.586Y-8.760
N18650G1X-9.507Y-8.747
N18660G1X-9.446Y-8.709
N18670G1X-9.403Y-8.645
N18680G1X-9.378Y-8.555
N18690G1Y-6.690
N18700G1X-8.148Y-8.663
N18710G1X-8.103Y-8.717
N18720G1X-8.049Y-8.750
N18730G1X-7.987Y-8.761
N18740G1X-7.917Y-8.750
N18750G1X-7.852Y-8.723
N18760G1X-7.806Y-8.681
N18770G1X-7.778Y-8.625
N18780G1X-7.768Y-8.555
N18790G1Y-5.968
N18800G1X-7.786Y-5.878
N18810G1X-7.826Y-5.813
N18820G1X-7.886Y-5.774
N18830G1X-7.968Y-5.761
N18840G1X-8.051Y-5.773
N18850G1X-8.114Y-5.811
N18860G1X-8.158Y-5.876
N18870G1X-8.181Y-5.968
N18880G1Y-7.834
N18890G1X-9.412Y-5.858
N18900G1X-9.459Y-5.800
N18910G1X-9.513Y-5.766
N18920G1X-9.571Y-5.755
N18930G1X-9.635Y-5.767
N18940G1X-9.695Y-5.798
N18950G1X-9.741Y-5.841
N18960G1X-9.773Y-5.898
N18970G1X-9.791Y-5.968
N18980G1Y-8.555
N18990G00Z6.000
N19000G00X-11.352Y-8.729
N19010G1Z-0.500F480.0
N19020G1X-10.968F1200.0
N19030G1X-10.896Y-8.706
N19040G1X-10.797Y-8.649
N19050G1X-11.568
N19060G1X-11.670Y-8.595
N19070G1X-11.700Y-8.569
N19080G1X-10.698
N19090G1X-10.605Y-8.489
N19100G1X-11.794
N19110G1X-11.827Y-8.460
N19120G1X-11.866Y-8.409
N19130G1X-10.536
N19140G1X-10.476Y-8.329
N19150G1X-11.073
N19160G1X-11.030Y-8.312
N19170G1X-10.952Y-8.252
N19180G1X-10.950Y-8.249
N19190G1X-10.419
N19200G1X-10.379Y-8.169
N19210G1X-10.880
N19220G1X-10.822Y-8.102
N19230G1X-10.814Y-8.089
N19240G1X-10.339
N19250G1X-10.332Y-8.074
N19260G1X-10.308Y-8.009
N19270G1X-10.767
N19280G1X-10.728Y-7.943
N19290G1X-10.723Y-7.929
N19300G1X-10.279
N19310G1X-10.261Y-7.880
N19320G1X-10.254Y-7.849
N19330G1X-10.696
N19340G1X-10.669Y-7.769
N19350G1X-10.235
N19360G1X-10.215Y-7.689
N19370G1X-10.653
N19380G1X-10.639Y-7.609
N19390G1X-10.204
N19400G1X-10.193Y-7.529
N19410G1X-10.626
N19420G1X-10.621Y-7.500
N19430G1X-10.619Y-7.449
N19440G1X-10.184
N19450G1X-10.182Y-7.369
N19460G1X-10.616
N19470G1X-10.613Y-7.289
N19480G1X-10.180
N19490G1X-10.179Y-7.246
N19500G1X-10.181Y-7.209
N19510G1X-10.612
N19520G1X-10.619Y-7.129
N19530G1X-10.187
N19540G1X-10.193Y-7.049
N19550G1X-10.626
N19560G1X-10.633Y-6.969
N19570G1X-10.205
N19580G1X-10.219Y-6.889
N19590G1X-10.650
N19600G1X-10.669Y-6.809
N19610G1X-10.234
N19620G1X-10.256Y-6.729
N19630G1X-10.688
N19640G1X-10.696Y-6.693
N19650G1X-10.716Y-6.649
N19660G1X-10.278
N19670G1X-10.287Y-6.620
N19680G1X-10.311Y-6.569
N19690G1X-10.750
N19700G1X-10.785Y-6.489
N19710G1X-10.349
N19720G1X-10.387Y-6.409
N19730G1X-10.833
N19740G1X-10.865Y-6.361
N19750G1X-10.897Y-6.329
N19760G1X-10.425
N19770G1X-10.433Y-6.312
N19780G1X-10.477Y-6.249
N19790G1X-10.995
N19800G1X-11.038Y-6.222
N19810G1X-11.144Y-6.182
N19820G1X-11.211Y-6.173
N19830G1X-11.338Y-6.191
N19840G1X-11.448Y-6.245
N19850G1X-11.452Y-6.249
N19860G1X-11.975
N19870G1X-12.008Y-6.300
N19880G1X-12.021Y-6.329
N19890G1X-11.534
N19900G1X-11.542Y-6.336
N19910G1X-11.586Y-6.409
N19920G1X-12.057
N19930G1X-12.092Y-6.489
N19940G1X-11.630
N19950G1X-11.664Y-6.569
N19960G1X-12.119
N19970G1X-12.144Y-6.649
N19980G1X-11.697
N19990G1X-11.731Y-6.729
N20000G1X-12.168
N20010G1X-12.170Y-6.734
N20020G1X-12.184Y-6.809
N20030G1X-11.753
N20040G1X-11.775Y-6.889
N20050G1X-12.200
N20060G1X-12.214Y-6.963
N20070G1X-12.214Y-6.969
N20080G1X-11.795
N20090G1X-11.805Y-7.049
N20100G1X-12.221
N20110G1X-12.228Y-7.129
N20120G1X-11.813
N20130G1X-11.814Y-7.209
N20140G1X-12.233
N20150G1X-12.231Y-7.289
N20160G1X-11.814
N20170G1X-11.815Y-7.320
N20180G1X-11.810Y-7.369
N20190G1X-12.230
N20200G1X-12.228Y-7.429
N20210G1X-12.226Y-7.449
N20220G1X-11.803
N20230G1X-11.796Y-7.529
N20240G1X-12.215
N20250G1X-12.205Y-7.609
N20260G1X-11.780
N20270G1X-11.763Y-7.689
N20280G1X-12.191
N20290G1X-12.171Y-7.769
N20300G1X-11.743
N20310G1X-11.715Y-7.849
N20320G1X-12.151
N20330G1X-12.144Y-7.880
N20340G1X-12.125Y-7.929
N20350G1X-11.688
N20360G1X-11.685Y-7.937
N20370G1X-11.646Y-8.009
N20380G1X-12.094
N20390G1X-12.063Y-8.089
N20400G1X-11.603
N20410G1X-11.590Y-8.113
N20420G1X-11.547Y-8.169
N20430G1X-12.021
N20440G1X-11.978Y-8.249
N20450G1X-11.468
N20460G1X-11.465Y-8.251
N20470G1X-11.390Y-8.300
N20480G1X-11.317Y-8.329
N20490G1X-11.926
N20500G00Z6.000
N20510G00X-11.922Y-6.169
N20520G1Z-0.500F480.0
N20530G1X-10.534F1200.0
N20540G1X-10.591Y-6.089
N20550G1X-11.860
N20560G1X-11.784Y-6.009
N20570G1X-10.654
N20580G1X-10.736Y-5.929
N20590G1X-11.687
N20600G1X-11.585Y-5.856
N20610G1X-11.567Y-5.849
N20620G1X-10.855
N20630G1X-10.895Y-5.825
N20640G1X-11.051Y-5.774
N20650G1X-11.098Y-5.769
N20660G1X-11.314
N20670G00Z6.000
N20680G00X-10.952Y-8.252
N20690G1Z-0.500F480.0
N20700G1X-11.030Y-8.312F1200.0
N20710G1X-11.115Y-8.346
N20720G1X-11.207Y-8.353
N20730G1X-11.306Y-8.334
N20740G1X-11.390Y-8.300
N20750G1X-11.465Y-8.251
N20760G1X-11.532Y-8.189
N20770G1X-11.590Y-8.113
N20780G1X-11.685Y-7.937
N20790G1X-11.753Y-7.740
N20800G1X-11.795Y-7.531
N20810G1X-11.815Y-7.320
N20820G1X-11.813Y-7.123
N20830G1X-11.794Y-6.958
N20840G1X-11.732Y-6.732
N20850G1X-11.619Y-6.463
N20860G1X-11.542Y-6.336
N20870G1X-11.448Y-6.245
N20880G1X-11.338Y-6.191
N20890G1X-11.211Y-6.173
N20900G1X-11.144Y-6.182
N20910G1X-11.038Y-6.222
N20920G1X-10.945Y-6.281
N20930G1X-10.865Y-6.361
N20940G1X-10.798Y-6.461
N20950G1X-10.696Y-6.693
N20960G1X-10.635Y-6.953
N20970G1X-10.610Y-7.226
N20980G1X-10.621Y-7.500
N20990G1X-10.662Y-7.748
N21000G1X-10.728Y-7.943
N21010G1X-10.822Y-8.102
N21020G1X-10.952Y-8.252
N21030G00Z6.000
N21040G00X-10.578Y-8.466
N21050G1Z-0.500F480.0
N21060G1X-10.424Y-8.259F1200.0
N21070G1X-10.332Y-8.074
N21080G1X-10.261Y-7.880
N21090G1X-10.212Y-7.676
N21100G1X-10.185Y-7.462
N21110G1X-10.179Y-7.246
N21120G1X-10.194Y-7.033
N21130G1X-10.230Y-6.825
N21140G1X-10.287Y-6.620
N21150G1X-10.433Y-6.312
N21160G1X-10.634Y-6.029
N21170G1X-10.756Y-5.910
N21180G1X-10.895Y-5.825
N21190G1X-11.051Y-5.774
N21200G1X-11.223Y-5.757
N21210G1X-11.408Y-5.782
N21220G1X-11.585Y-5.856
N21230G1X-11.750Y-5.974
N21240G1X-11.891Y-6.121
N21250G1X-12.008Y-6.300
N21260G1X-12.101Y-6.508
N21270G1X-12.170Y-6.734
N21280G1X-12.214Y-6.963
N21290G1X-12.233Y-7.194
N21300G1X-12.228Y-7.429
N21310G1X-12.199Y-7.660
N21320G1X-12.144Y-7.880
N21330G1X-12.063Y-8.089
N21340G1X-11.958Y-8.287
N21350G1X-11.827Y-8.460
N21360G1X-11.670Y-8.595
N21370G1X-11.487Y-8.692
N21380G1X-11.278Y-8.750
N21390G1X-11.145Y-8.760
N21400G1X-11.018Y-8.746
N21410G1X-10.896Y-8.706
N21420G1X-10.780Y-8.640
N21430G1X-10.578Y-8.466
N21440G00Z6.000
N21450G00X-13.114Y-4.182
N21460G1Z-0.500F480.0
N21470G1X-12.329F1200.0
N21480G1X-12.219Y-4.140
N21490G1X-12.165Y-4.102
N21500G1X-13.375
N21510G1X-13.403Y-4.090
N21520G1X-13.487Y-4.022
N21530G1X-12.053
N21540G1X-11.983Y-3.942
N21550G1X-13.561
N21560G1X-13.620Y-3.862
N21570G1X-11.919
N21580G1X-11.877Y-3.782
N21590G1X-12.419
N21600G1X-12.371Y-3.760
N21610G1X-12.311Y-3.702
N21620G1X-11.834
N21630G1X-11.834Y-3.701
N21640G1X-11.815Y-3.622
N21650G1X-12.255
N21660G1X-12.219Y-3.558
N21670G1X-12.216Y-3.542
N21680G1X-11.795
N21690G1X-11.787Y-3.510
N21700G1X-11.786Y-3.462
N21710G1X-12.198
N21720G1X-12.192Y-3.435
N21730G1X-12.198Y-3.382
N21740G1X-11.783
N21750G1X-11.783Y-3.372
N21760G1X-11.791Y-3.302
N21770G1X-12.207
N21780G1X-12.240Y-3.222
N21790G1X-11.804
N21800G1X-11.828Y-3.142
N21810G1X-12.291
N21820G1X-12.332Y-3.092
N21830G1X-12.381Y-3.062
N21840G1X-11.856
N21850G1X-11.900Y-2.982
N21860G1X-12.538
N21870G1X-12.720Y-2.902
N21880G1X-11.954
N21890G1X-12.021Y-2.822
N21900G1X-12.902
N21910G1X-13.085Y-2.742
N21920G1X-12.119
N21930G1X-12.158Y-2.711
N21940G1X-12.182Y-2.697
N21950G1X-12.205Y-2.683
N21960G1X-12.228Y-2.670
N21970G1X-12.244Y-2.662
N21980G1X-13.224
N21990G1X-13.294Y-2.617
N22000G1X-13.330Y-2.582
N22010G1X-12.425
N22020G1X-12.606Y-2.502
N22030G1X-13.413
N22040G1X-13.413Y-2.501
N22050G1X-13.465Y-2.422
N22060G1X-12.787
N22070G1X-12.955Y-2.348
N22080G1X-12.969Y-2.342
N22090G1X-13.510
N22100G1X-13.539Y-2.262
N22110G1X-13.079
N22120G1X-13.122Y-2.207
N22130G1X-13.133Y-2.182
N22140G1X-13.562
N22150G1X-13.574Y-2.102
N22160G1X-13.161
N22170G1X-13.170Y-2.062
N22180G1X-13.169Y-2.022
N22190G1X-13.584
N22200G1X-13.578Y-1.942
N22210G1X-13.166
N22220G1X-13.166Y-1.937
N22230G1X-13.134Y-1.862
N22240G1X-13.572
N22250G1X-13.572Y-1.859
N22260G1X-13.546Y-1.782
N22270G1X-13.085
N22280G1X-13.060Y-1.750
N22290G1X-12.996Y-1.702
N22300G1X-13.519
N22310G1X-13.517Y-1.695
N22320G1X-13.471Y-1.622
N22330G1X-12.025
N22340G1X-12.058Y-1.561
N22350G1X-12.075Y-1.542
N22360G1X-13.420
N22370G1X-13.420Y-1.541
N22380G1X-13.343Y-1.462
N22390G1X-12.146
N22400G1X-12.178Y-1.426
N22410G1X-12.249Y-1.382
N22420G1X-13.248
N22430G1X-13.148Y-1.318
N22440G1X-13.102Y-1.302
N22450G1X-12.409
N22460G00Z6.000
N22470G00X-13.053Y-3.782
N22480G1Z-0.500F480.0
N22490G1X-13.657F1200.0
N22500G1X-13.693Y-3.702
N22510G1X-13.201
N22520G1X-13.249Y-3.646
N22530G1X-13.261Y-3.622
N22540G1X-13.717
N22550G1X-13.727Y-3.586
N22560G1X-13.736Y-3.542
N22570G1X-13.301
N22580G1X-13.304Y-3.535
N22590G1X-13.326Y-3.462
N22600G1X-13.747
N22610G1X-13.745Y-3.384
N22620G1X-13.744Y-3.382
N22630G1X-13.349
N22640G1X-13.350Y-3.379
N22650G1X-13.401Y-3.302
N22660G1X-13.698
N22670G00Z6.000
N22680G00X-12.219Y-2.102
N22690G1Z-0.500F480.0
N22700G1X-11.912F1200.0
N22710G1X-11.882Y-2.056
N22720G1X-11.872Y-2.022
N22730G1X-12.271
N22740G1X-12.308Y-1.942
N22750G1X-11.867
N22760G1X-11.868Y-1.926
N22770G1X-11.881Y-1.888
N22780G1X-11.895Y-1.862
N22790G1X-12.349
N22800G1X-12.389Y-1.799
N22810G1X-12.407Y-1.782
N22820G1X-11.938
N22830G1X-11.982Y-1.702
N22840G1X-12.513
N22850G00Z6.000
N22860G00X-12.984Y-1.262
N22870G1Z-0.500F480.0
N22880G1X-13.148Y-1.318F1200.0
N22890G1X-13.293Y-1.411
N22900G1X-13.420Y-1.541
N22910G1X-13.517Y-1.695
N22920G1X-13.572Y-1.859
N22930G1X-13.585Y-2.032
N22940G1X-13.557Y-2.215
N22950G1X-13.501Y-2.367
N22960G1X-13.413Y-2.501
N22970G1X-13.294Y-2.617
N22980G1X-13.144Y-2.714
N22990G1X-13.122Y-2.726
N23000G1X-12.444Y-3.023
N23010G1X-12.332Y-3.092
N23020G1X-12.253Y-3.189
N23030G1X-12.205Y-3.308
N23040G1X-12.192Y-3.435
N23050G1X-12.219Y-3.558
N23060G1X-12.284Y-3.676
N23070G1X-12.371Y-3.760
N23080G1X-12.481Y-3.811
N23090G1X-12.613Y-3.828
N23100G1X-12.891Y-3.817
N23110G1X-13.101Y-3.772
N23120G1X-13.182Y-3.725
N23130G1X-13.249Y-3.646
N23140G1X-13.304Y-3.535
N23150G1X-13.346Y-3.392
N23160G1X-13.350Y-3.379
N23170G1X-13.413Y-3.283
N23180G1X-13.511Y-3.236
N23190G1X-13.612Y-3.242
N23200G1X-13.695Y-3.297
N23210G1X-13.745Y-3.384
N23220G1X-13.747Y-3.483
N23230G1X-13.727Y-3.586
N23240G1X-13.700Y-3.685
N23250G1X-13.623Y-3.857
N23260G1X-13.524Y-3.992
N23270G1X-13.403Y-4.090
N23280G1X-13.260Y-4.152
N23290G1X-12.943Y-4.217
N23300G1X-12.611Y-4.239
N23310G1X-12.412Y-4.214
N23320G1X-12.219Y-4.140
N23330G1X-12.058Y-4.028
N23340G1X-11.927Y-3.878
N23350G1X-11.834Y-3.701
N23360G1X-11.787Y-3.510
N23370G1X-11.783Y-3.372
N23380G1X-11.799Y-3.239
N23390G1X-11.847Y-3.079
N23400G1X-11.923Y-2.938
N23410G1X-12.027Y-2.816
N23420G1X-12.158Y-2.711
N23430G1X-12.182Y-2.697
N23440G1X-12.205Y-2.683
N23450G1X-12.228Y-2.670
N23460G1X-12.255Y-2.657
N23470G1X-12.278Y-2.647
N23480G1X-12.955Y-2.348
N23490G1X-12.972Y-2.341
N23500G1X-12.988Y-2.333
N23510G1X-13.005Y-2.324
N23520G1X-13.018Y-2.314
N23530G1X-13.077Y-2.265
N23540G1X-13.122Y-2.207
N23550G1X-13.153Y-2.139
N23560G1X-13.170Y-2.062
N23570G1X-13.166Y-1.937
N23580G1X-13.117Y-1.823
N23590G1X-13.060Y-1.750
N23600G1X-12.990Y-1.697
N23610G1X-12.909Y-1.665
N23620G1X-12.817Y-1.654
N23630G1X-12.682Y-1.658
N23640G1X-12.587Y-1.674
N23650G1X-12.520Y-1.698
N23660G1X-12.458Y-1.733
N23670G1X-12.389Y-1.799
N23680G1X-12.337Y-1.880
N23690G1X-12.256Y-2.053
N23700G1X-12.197Y-2.131
N23710G1X-12.117Y-2.171
N23720G1X-12.030Y-2.174
N23730G1X-11.950Y-2.138
N23740G1X-11.919Y-2.112
N23750G1X-11.882Y-2.056
N23760G1X-11.863Y-1.995
N23770G1X-11.868Y-1.926
N23780G1X-11.881Y-1.888
N23790G1X-12.058Y-1.561
N23800G1X-12.178Y-1.426
N23810G1X-12.341Y-1.324
N23820G1X-12.489Y-1.276
N23830G1X-12.641Y-1.248
N23840G1X-12.802Y-1.243
N23850G1X-12.984Y-1.262
N23860G00Z6.000
N23870G00X-11.354Y11.273
N23880G1Z-0.500F480.0
N23890G1X-10.969F1200.0
N23900G1X-10.897Y11.297
N23910G1X-10.798Y11.353
N23920G1X-11.569
N23930G1X-11.672Y11.407
N23940G1X-11.702Y11.433
N23950G1X-10.699
N23960G1X-10.606Y11.513
N23970G1X-11.795
N23980G1X-11.829Y11.542
N23990G1X-11.867Y11.593
N24000G1X-10.537
N24010G1X-10.478Y11.673
N24020G1X-11.075
N24030G1X-11.032Y11.690
N24040G1X-10.954Y11.750
N24050G1X-10.951Y11.753
N24060G1X-10.421
N24070G1X-10.381Y11.833
N24080G1X-10.881
N24090G1X-10.823Y11.900
N24100G1X-10.816Y11.913
N24110G1X-10.341
N24120G1X-10.333Y11.928
N24130G1X-10.310Y11.993
N24140G1X-10.768
N24150G1X-10.729Y12.059
N24160G1X-10.724Y12.073
N24170G1X-10.281
N24180G1X-10.262Y12.122
N24190G1X-10.255Y12.153
N24200G1X-10.698
N24210G1X-10.671Y12.233
N24220G1X-10.236
N24230G1X-10.217Y12.313
N24240G1X-10.654
N24250G1X-10.641Y12.393
N24260G1X-10.205
N24270G1X-10.195Y12.473
N24280G1X-10.627
N24290G1X-10.623Y12.502
N24300G1X-10.621Y12.553
N24310G1X-10.186
N24320G1X-10.184Y12.633
N24330G1X-10.617
N24340G1X-10.614Y12.713
N24350G1X-10.181
N24360G1X-10.180Y12.756
N24370G1X-10.183Y12.793
N24380G1X-10.613
N24390G1X-10.620Y12.873
N24400G1X-10.188
N24410G1X-10.194Y12.953
N24420G1X-10.627
N24430G1X-10.634Y13.033
N24440G1X-10.206
N24450G1X-10.220Y13.113
N24460G1X-10.651
N24470G1X-10.670Y13.193
N24480G1X-10.235
N24490G1X-10.258Y13.273
N24500G1X-10.689
N24510G1X-10.698Y13.309
N24520G1X-10.717Y13.353
N24530G1X-10.280
N24540G1X-10.288Y13.382
N24550G1X-10.312Y13.433
N24560G1X-10.752
N24570G1X-10.787Y13.513
N24580G1X-10.350
N24590G1X-10.388Y13.593
N24600G1X-10.834
N24610G1X-10.866Y13.641
N24620G1X-10.899Y13.673
N24630G1X-10.426
N24640G1X-10.434Y13.690
N24650G1X-10.479Y13.753
N24660G1X-10.997
N24670G1X-11.039Y13.780
N24680G1X-11.145Y13.820
N24690G1X-11.212Y13.829
N24700G1X-11.339Y13.811
N24710G1X-11.449Y13.757
N24720G1X-11.453Y13.753
N24730G1X-11.976
N24740G1X-12.009Y13.702
N24750G1X-12.023Y13.673
N24760G1X-11.536
N24770G1X-11.543Y13.666
N24780G1X-11.588Y13.593
N24790G1X-12.058
N24800G1X-12.094Y13.513
N24810G1X-11.631
N24820G1X-11.665Y13.433
N24830G1X-12.121
N24840G1X-12.145Y13.353
N24850G1X-11.699
N24860G1X-11.732Y13.273
N24870G1X-12.169
N24880G1X-12.171Y13.268
N24890G1X-12.185Y13.193
N24900G1X-11.755
N24910G1X-11.776Y13.113
N24920G1X-12.201
N24930G1X-12.215Y13.039
N24940G1X-12.216Y13.033
N24950G1X-11.797
N24960G1X-11.806Y12.953
N24970G1X-12.222
N24980G1X-12.229Y12.873
N24990G1X-11.814
N25000G1X-11.815Y12.793
N25010G1X-12.234
N25020G1X-12.233Y12.713
N25030G1X-11.816
N25040G1X-11.816Y12.682
N25050G1X-11.811Y12.633
N25060G1X-12.231
N25070G1X-12.230Y12.573
N25080G1X-12.227Y12.553
N25090G1X-11.804
N25100G1X-11.797Y12.473
N25110G1X-12.217
N25120G1X-12.206Y12.393
N25130G1X-11.781
N25140G1X-11.765Y12.313
N25150G1X-12.193
N25160G1X-12.173Y12.233
N25170G1X-11.744
N25180G1X-11.717Y12.153
N25190G1X-12.153
N25200G1X-12.145Y12.122
N25210G1X-12.126Y12.073
N25220G1X-11.689
N25230G1X-11.687Y12.065
N25240G1X-11.648Y11.993
N25250G1X-12.095
N25260G1X-12.065Y11.913
N25270G1X-11.605
N25280G1X-11.592Y11.889
N25290G1X-11.549Y11.833
N25300G1X-12.022
N25310G1X-11.979Y11.753
N25320G1X-11.469
N25330G1X-11.467Y11.751
N25340G1X-11.391Y11.702
N25350G1X-11.319Y11.673
N25360G1X-11.927
N25370G00Z6.000
N25380G00X-11.924Y13.833
N25390G1Z-0.500F480.0
N25400G1X-10.536F1200.0
N25410G1X-10.592Y13.913
N25420G1X-11.862
N25430G1X-11.785Y13.993
N25440G1X-10.655
N25450G1X-10.738Y14.073
N25460G1X-11.688
N25470G1X-11.586Y14.146
N25480G1X-11.569Y14.153
N25490G1X-10.857
N25500G1X-10.897Y14.177
N25510G1X-11.052Y14.228
N25520G1X-11.099Y14.233
N25530G1X-11.315
N25540G00Z6.000
N25550G00X-10.954Y11.750
N25560G1Z-0.500F480.0
N25570G1X-11.032Y11.690F1200.0
N25580G1X-11.117Y11.656
N25590G1X-11.209Y11.649
N25600G1X-11.308Y11.668
N25610G1X-11.391Y11.702
N25620G1X-11.467Y11.751
N25630G1X-11.533Y11.813
N25640G1X-11.592Y11.889
N25650G1X-11.687Y12.065
N25660G1X-11.754Y12.262
N25670G1X-11.797Y12.471
N25680G1X-11.816Y12.682
N25690G1X-11.814Y12.879
N25700G1X-11.795Y13.044
N25710G1X-11.733Y13.270
N25720G1X-11.620Y13.539
N25730G1X-11.543Y13.666
N25740G1X-11.449Y13.757
N25750G1X-11.339Y13.811
N25760G1X-11.212Y13.829
N25770G1X-11.145Y13.820
N25780G1X-11.039Y13.780
N25790G1X-10.946Y13.721
N25800G1X-10.866Y13.641
N25810G1X-10.799Y13.541
N25820G1X-10.698Y13.309
N25830G1X-10.636Y13.049
N25840G1X-10.612Y12.776
N25850G1X-10.623Y12.502
N25860G1X-10.664Y12.254
N25870G1X-10.729Y12.059
N25880G1X-10.823Y11.900
N25890G1X-10.954Y11.750
N25900G00Z6.000
N25910G00X-10.580Y11.536
N25920G1Z-0.500F480.0
N25930G1X-10.426Y11.743F1200.0
N25940G1X-10.333Y11.928
N25950G1X-10.262Y12.122
N25960G1X-10.213Y12.326
N25970G1X-10.186Y12.540
N25980G1X-10.180Y12.756
N25990G1X-10.195Y12.969
N26000G1X-10.231Y13.177
N26010G1X-10.288Y13.382
N26020G1X-10.434Y13.690
N26030G1X-10.635Y13.973
N26040G1X-10.758Y14.092
N26050G1X-10.897Y14.177
N26060G1X-11.052Y14.228
N26070G1X-11.224Y14.245
N26080G1X-11.409Y14.220
N26090G1X-11.586Y14.146
N26100G1X-11.751Y14.028
N26110G1X-11.892Y13.881
N26120G1X-12.009Y13.702
N26130G1X-12.102Y13.494
N26140G1X-12.171Y13.268
N26150G1X-12.215Y13.039
N26160G1X-12.235Y12.808
N26170G1X-12.230Y12.573
N26180G1X-12.200Y12.342
N26190G1X-12.145Y12.122
N26200G1X-12.065Y11.913
N26210G1X-11.959Y11.715
N26220G1X-11.829Y11.542
N26230G1X-11.672Y11.407
N26240G1X-11.489Y11.310
N26250G1X-11.280Y11.252
N26260G1X-11.146Y11.242
N26270G1X-11.019Y11.256
N26280G1X-10.897Y11.297
N26290G1X-10.782Y11.362
N26300G1X-10.580Y11.536
N26310G00Z6.000
N26320G00X-9.708Y11.282
N26330G1Z-0.500F480.0
N26340G1X-9.465F1200.0
N26350G1X-9.448Y11.293
N26360G1X-9.405Y11.357
N26370G1X-9.403Y11.362
N26380G1X-9.770
N26390G1X-9.791Y11.442
N26400G1X-9.381
N26410G1X-9.380Y11.447
N26420G1Y11.522
N26430G1X-9.793
N26440G1Y11.602
N26450G1X-9.380
N26460G1Y11.682
N26470G1X-9.793
N26480G1Y11.762
N26490G1X-9.380
N26500G1Y11.842
N26510G1X-9.793
N26520G1Y11.922
N26530G1X-9.380
N26540G1Y12.002
N26550G1X-9.793
N26560G1Y12.082
N26570G1X-9.380
N26580G1Y12.162
N26590G1X-9.793
N26600G1Y12.242
N26610G1X-9.380
N26620G1Y12.322
N26630G1X-9.793
N26640G1Y12.402
N26650G1X-9.380
N26660G1Y12.482
N26670G1X-9.793
N26680G1Y12.562
N26690G1X-9.380
N26700G1Y12.642
N26710G1X-9.793
N26720G1Y12.722
N26730G1X-9.380
N26740G1Y12.802
N26750G1X-9.793
N26760G1Y12.882
N26770G1X-9.380
N26780G1Y12.962
N26790G1X-9.793
N26800G1Y13.042
N26810G1X-9.380
N26820G1Y13.122
N26830G1X-9.793
N26840G1Y13.202
N26850G1X-9.380
N26860G1Y13.282
N26870G1X-9.793
N26880G1Y13.362
N26890G1X-8.926
N26900G1X-8.976Y13.442
N26910G1X-9.793
N26920G1Y13.522
N26930G1X-9.026
N26940G1X-9.076Y13.602
N26950G1X-9.793
N26960G1Y13.682
N26970G1X-9.126
N26980G1X-9.176Y13.762
N26990G1X-9.793
N27000G1Y13.842
N27010G1X-9.225
N27020G1X-9.275Y13.922
N27030G1X-9.793
N27040G1Y14.002
N27050G1X-9.325
N27060G1X-9.375Y14.082
N27070G1X-9.780
N27080G1X-9.775Y14.104
N27090G1X-9.743Y14.161
N27100G1X-9.741Y14.162
N27110G1X-9.428
N27120G1X-9.461Y14.202
N27130G1X-9.514Y14.236
N27140G1X-9.544Y14.242
N27150G1X-9.600
N27160G00Z6.000
N27170G00X-8.099Y11.282
N27180G1Z-0.500F480.0
N27190G1X-7.850F1200.0
N27200G1X-7.807Y11.321
N27210G1X-7.787Y11.362
N27220G1X-8.164
N27230G1X-8.214Y11.442
N27240G1X-7.770
N27250G1X-7.770Y11.447
N27260G1Y11.522
N27270G1X-8.263
N27280G1X-8.313Y11.602
N27290G1X-7.770
N27300G1Y11.682
N27310G1X-8.363
N27320G1X-8.413Y11.762
N27330G1X-7.770
N27340G1Y11.842
N27350G1X-8.463
N27360G1X-8.513Y11.922
N27370G1X-7.770
N27380G1Y12.002
N27390G1X-8.563
N27400G1X-8.613Y12.082
N27410G1X-7.770
N27420G1Y12.162
N27430G1X-8.663
N27440G1X-8.712Y12.242
N27450G1X-8.229
N27460G1X-8.279Y12.322
N27470G1X-8.762
N27480G1X-8.812Y12.402
N27490G1X-8.329
N27500G1X-8.378Y12.482
N27510G1X-8.862
N27520G1X-8.912Y12.562
N27530G1X-8.428
N27540G1X-8.478Y12.642
N27550G1X-8.962
N27560G1X-9.012Y12.722
N27570G1X-8.528
N27580G1X-8.578Y12.802
N27590G1X-9.062
N27600G1X-9.112Y12.882
N27610G1X-8.628
N27620G1X-8.677Y12.962
N27630G1X-9.161
N27640G1X-9.211Y13.042
N27650G1X-8.727
N27660G1X-8.777Y13.122
N27670G1X-9.261
N27680G1X-9.311Y13.202
N27690G1X-8.827
N27700G1X-8.877Y13.282
N27710G1X-9.361
N27720G00Z6.000
N27730G00X-8.183Y12.242
N27740G1Z-0.500F480.0
N27750G1X-7.770F1200.0
N27760G1Y12.322
N27770G1X-8.183
N27780G1Y12.402
N27790G1X-7.770
N27800G1Y12.482
N27810G1X-8.183
N27820G1Y12.562
N27830G1X-7.770
N27840G1Y12.642
N27850G1X-8.183
N27860G1Y12.722
N27870G1X-7.770
N27880G1Y12.802
N27890G1X-8.183
N27900G1Y12.882
N27910G1X-7.770
N27920G1Y12.962
N27930G1X-8.183
N27940G1Y13.042
N27950G1X-7.770
N27960G1Y13.122
N27970G1X-8.183
N27980G1Y13.202
N27990G1X-7.770
N28000G1Y13.282
N28010G1X-8.183
N28020G1Y13.362
N28030G1X-7.770
N28040G1Y13.442
N28050G1X-8.183
N28060G1Y13.522
N28070G1X-7.770
N28080G1Y13.602
N28090G1X-8.183
N28100G1Y13.682
N28110G1X-7.770
N28120G1Y13.762
N28130G1X-8.183
N28140G1Y13.842
N28150G1X-7.770
N28160G1Y13.922
N28170G1X-8.183
N28180G1Y14.002
N28190G1X-7.770
N28200G1Y14.034
N28210G1X-7.779Y14.082
N28220G1X-8.170
N28230G1X-8.159Y14.126
N28240G1X-8.135Y14.162
N28250G1X-7.811
N28260G00Z6.000
N28270G00X-9.793Y11.447
N28280G1Z-0.500F480.0
N28290G1X-9.768Y11.357F1200.0
N28300G1X-9.726Y11.293
N28310G1X-9.665Y11.255
N28320G1X-9.587Y11.242
N28330G1X-9.508Y11.255
N28340G1X-9.448Y11.293
N28350G1X-9.405Y11.357
N28360G1X-9.380Y11.447
N28370G1Y13.312
N28380G1X-8.149Y11.339
N28390G1X-8.104Y11.285
N28400G1X-8.050Y11.252
N28410G1X-7.989Y11.241
N28420G1X-7.918Y11.252
N28430G1X-7.853Y11.279
N28440G1X-7.807Y11.321
N28450G1X-7.779Y11.377
N28460G1X-7.770Y11.447
N28470G1Y14.034
N28480G1X-7.788Y14.124
N28490G1X-7.827Y14.189
N28500G1X-7.888Y14.228
N28510G1X-7.970Y14.242
N28520G1X-8.052Y14.229
N28530G1X-8.116Y14.191
N28540G1X-8.159Y14.126
N28550G1X-8.183Y14.034
N28560G1Y12.168
N28570G1X-9.413Y14.144
N28580G1X-9.461Y14.202
N28590G1X-9.514Y14.236
N28600G1X-9.573Y14.247
N28610G1X-9.637Y14.235
N28620G1X-9.697Y14.204
N28630G1X-9.743Y14.161
N28640G1X-9.775Y14.104
N28650G1X-9.793Y14.034
N28660G1Y11.447
N28670G00Z6.000
N28680G00X-10.740Y15.820
N28690G1Z-0.500F480.0
N28700G1X-10.458F1200.0
N28710G1X-10.440Y15.838
N28720G1X-10.405Y15.900
N28730G1X-10.792
N28740G1X-10.805Y15.927
N28750G1X-10.815Y15.980
N28760G1X-10.381
N28770G1X-10.357Y16.060
N28780G1X-10.831
N28790G1X-10.847Y16.140
N28800G1X-10.334
N28810G1X-10.311Y16.220
N28820G1X-10.863
N28830G1X-10.878Y16.300
N28840G1X-10.288
N28850G1X-10.264Y16.380
N28860G1X-10.894
N28870G1X-10.910Y16.460
N28880G1X-10.241
N28890G1X-10.218Y16.540
N28900G1X-10.925
N28910G1X-10.941Y16.620
N28920G1X-10.195
N28930G1X-10.171Y16.700
N28940G1X-10.957
N28950G1X-10.972Y16.780
N28960G1X-10.148
N28970G1X-10.125Y16.860
N28980G1X-10.556
N28990G1X-10.533Y16.940
N29000G1X-10.102
N29010G1X-10.078Y17.020
N29020G1X-10.510
N29030G1X-10.486Y17.100
N29040G1X-10.055
N29050G1X-10.032Y17.180
N29060G1X-10.463
N29070G1X-10.439Y17.260
N29080G1X-10.009
N29090G1X-9.985Y17.340
N29100G1X-10.416
N29110G1X-10.393Y17.420
N29120G1X-9.962
N29130G1X-9.939Y17.500
N29140G1X-10.369
N29150G1X-10.346Y17.580
N29160G1X-9.915
N29170G1X-9.892Y17.660
N29180G1X-10.323
N29190G1X-10.299Y17.740
N29200G1X-9.869
N29210G1X-9.853Y17.796
N29220G1X-9.836Y17.740
N29230G1X-9.404
N29240G1X-9.381Y17.660
N29250G1X-9.813
N29260G1X-9.790Y17.580
N29270G1X-9.358
N29280G1X-9.334Y17.500
N29290G1X-9.766
N29300G1X-9.743Y17.420
N29310G1X-9.311
N29320G1X-9.287Y17.340
N29330G1X-9.719
N29340G1X-9.696Y17.260
N29350G1X-9.264
N29360G1X-9.241Y17.180
N29370G1X-9.672
N29380G1X-9.649Y17.100
N29390G1X-9.217
N29400G1X-9.194Y17.020
N29410G1X-9.625
N29420G1X-9.602Y16.940
N29430G1X-9.170
N29440G1X-9.147Y16.860
N29450G1X-9.579
N29460G1X-9.555Y16.780
N29470G1X-8.732
N29480G1X-8.748Y16.700
N29490G1X-9.532
N29500G1X-9.508Y16.620
N29510G1X-8.763
N29520G1X-8.779Y16.540
N29530G1X-9.485
N29540G1X-9.461Y16.460
N29550G1X-8.795
N29560G1X-8.810Y16.380
N29570G1X-9.438
N29580G1X-9.414Y16.300
N29590G1X-8.826
N29600G1X-8.842Y16.220
N29610G1X-9.391
N29620G1X-9.368Y16.140
N29630G1X-8.857
N29640G1X-8.873Y16.060
N29650G1X-9.344
N29660G1X-9.321Y15.980
N29670G1X-8.889
N29680G1X-8.899Y15.927
N29690G1X-8.910Y15.900
N29700G1X-9.296
N29710G1X-9.262Y15.839
N29720G1X-9.243Y15.820
N29730G1X-8.957
N29740G00Z6.000
N29750G00X-10.568Y16.860
N29760G1Z-0.500F480.0
N29770G1X-10.988F1200.0
N29780G1X-11.004Y16.940
N29790G1X-10.583
N29800G1X-10.599Y17.020
N29810G1X-11.019
N29820G1X-11.035Y17.100
N29830G1X-10.614
N29840G1X-10.630Y17.180
N29850G1X-11.051
N29860G1X-11.066Y17.260
N29870G1X-10.645
N29880G1X-10.660Y17.340
N29890G1X-11.082
N29900G1X-11.098Y17.420
N29910G1X-10.676
N29920G1X-10.691Y17.500
N29930G1X-11.113
N29940G1X-11.129Y17.580
N29950G1X-10.707
N29960G1X-10.722Y17.660
N29970G1X-11.145
N29980G1X-11.160Y17.740
N29990G1X-10.738
N30000G1X-10.753Y17.820
N30010G1X-11.176
N30020G1X-11.192Y17.900
N30030G1X-10.768
N30040G1X-10.784Y17.980
N30050G1X-11.207
N30060G1X-11.223Y18.060
N30070G1X-10.799
N30080G1X-10.815Y18.140
N30090G1X-11.239
N30100G1X-11.254Y18.220
N30110G1X-10.830
N30120G1X-10.846Y18.300
N30130G1X-11.270
N30140G1X-11.286Y18.380
N30150G1X-10.861
N30160G1X-10.876Y18.460
N30170G1X-11.301
N30180G1X-11.312Y18.514
N30190G1X-11.309Y18.540
N30200G1X-10.892
N30210G1X-10.902Y18.592
N30220G1X-10.917Y18.620
N30230G1X-11.296
N30240G1X-11.270Y18.679
N30250G1X-11.247Y18.700
N30260G1X-10.971
N30270G00Z6.000
N30280G00X-8.716Y16.860
N30290G1Z-0.500F480.0
N30300G1X-9.137F1200.0
N30310G1X-9.121Y16.940
N30320G1X-8.701
N30330G1X-8.685Y17.020
N30340G1X-9.105
N30350G1X-9.090Y17.100
N30360G1X-8.669
N30370G1X-8.653Y17.180
N30380G1X-9.074
N30390G1X-9.058Y17.260
N30400G1X-8.638
N30410G1X-8.622Y17.340
N30420G1X-9.043
N30430G1X-9.027Y17.420
N30440G1X-8.606
N30450G1X-8.591Y17.500
N30460G1X-9.012
N30470G1X-8.996Y17.580
N30480G1X-8.575
N30490G1X-8.559Y17.660
N30500G1X-8.980
N30510G1X-8.965Y17.740
N30520G1X-8.544
N30530G1X-8.528Y17.820
N30540G1X-8.949
N30550G1X-8.933Y17.900
N30560G1X-8.512
N30570G1X-8.497Y17.980
N30580G1X-8.918
N30590G1X-8.902Y18.060
N30600G1X-8.481
N30610G1X-8.465Y18.140
N30620G1X-8.886
N30630G1X-8.871Y18.220
N30640G1X-8.450
N30650G1X-8.434Y18.300
N30660G1X-8.855
N30670G1X-8.839Y18.380
N30680G1X-8.418
N30690G1X-8.403Y18.460
N30700G1X-8.824
N30710G1X-8.808Y18.540
N30720G1X-8.394
N30730G1X-8.397Y18.605
N30740G1X-8.404Y18.620
N30750G1X-8.785
N30760G1X-8.760Y18.676
N30770G1X-8.736Y18.700
N30780G1X-8.454
N30790G00Z6.000
N30800G00X-9.428Y17.820
N30810G1Z-0.500F480.0
N30820G1X-10.276F1200.0
N30830G1X-10.252Y17.900
N30840G1X-9.451
N30850G1X-9.475Y17.980
N30860G1X-10.229
N30870G1X-10.206Y18.060
N30880G1X-9.498
N30890G1X-9.522Y18.140
N30900G1X-10.182
N30910G1X-10.159Y18.220
N30920G1X-9.545
N30930G1X-9.568Y18.300
N30940G1X-10.136
N30950G1X-10.112Y18.380
N30960G1X-9.592
N30970G1X-9.615Y18.460
N30980G1X-10.089
N30990G1X-10.065Y18.540
N31000G1X-9.639
N31010G1X-9.654Y18.592
N31020G1X-9.668Y18.620
N31030G1X-10.034
N31040G1X-10.014Y18.655
N31050G1X-9.970Y18.700
N31060G1X-9.726
N31070G00Z6.000
N31080G00X-11.312Y18.514
N31090G1Z-0.500F480.0
N31100G1X-10.805Y15.927F1200.0
N31110G1X-10.771Y15.857
N31120G1X-10.727Y15.806
N31130G1X-10.673Y15.773
N31140G1X-10.609Y15.758
N31150G1X-10.544Y15.764
N31160G1X-10.487Y15.790
N31170G1X-10.440Y15.838
N31180G1X-10.402Y15.906
N31190G1X-9.853Y17.796
N31200G1X-9.299Y15.906
N31210G1X-9.262Y15.839
N31220G1X-9.215Y15.793
N31230G1X-9.157Y15.766
N31240G1X-9.090Y15.758
N31250G1X-9.024Y15.771
N31260G1X-8.970Y15.804
N31270G1X-8.929Y15.855
N31280G1X-8.899Y15.927
N31290G1X-8.392Y18.514
N31300G1X-8.397Y18.605
N31310G1X-8.426Y18.675
N31320G1X-8.479Y18.724
N31330G1X-8.557Y18.753
N31340G1X-8.639Y18.756
N31350G1X-8.707Y18.731
N31360G1X-8.760Y18.676
N31370G1X-8.798Y18.592
N31380G1X-9.141Y16.840
N31390G1X-9.654Y18.592
N31400G1X-9.687Y18.659
N31410G1X-9.731Y18.706
N31420G1X-9.785Y18.733
N31430G1X-9.849Y18.741
N31440G1X-9.914Y18.730
N31450G1X-9.969Y18.702
N31460G1X-10.014Y18.655
N31470G1X-10.051Y18.592
N31480G1X-10.563Y16.837
N31490G1X-10.902Y18.592
N31500G1X-10.945Y18.675
N31510G1X-11.001Y18.730
N31520G1X-11.067Y18.757
N31530G1X-11.145Y18.755
N31540G1X-11.218Y18.728
N31550G1X-11.270Y18.679
N31560G1X-11.301Y18.608
N31570G1X-11.312Y18.514
N31580G00Z6.000
N31590G00X-13.006Y15.820
N31600G1Z-0.500F480.0
N31610G1X-12.221F1200.0
N31620G1X-12.112Y15.862
N31630G1X-12.058Y15.900
N31640G1X-13.268
N31650G1X-13.295Y15.912
N31660G1X-13.379Y15.980
N31670G1X-11.946
N31680G1X-11.875Y16.060
N31690G1X-13.453
N31700G1X-13.512Y16.140
N31710G1X-11.811
N31720G1X-11.769Y16.220
N31730G1X-12.311
N31740G1X-12.264Y16.242
N31750G1X-12.204Y16.300
N31760G1X-11.727
N31770G1X-11.726Y16.301
N31780G1X-11.707Y16.380
N31790G1X-12.147
N31800G1X-12.112Y16.444
N31810G1X-12.108Y16.460
N31820G1X-11.687
N31830G1X-11.680Y16.492
N31840G1X-11.678Y16.540
N31850G1X-12.091
N31860G1X-12.085Y16.567
N31870G1X-12.090Y16.620
N31880G1X-11.675
N31890G1X-11.675Y16.630
N31900G1X-11.684Y16.700
N31910G1X-12.100
N31920G1X-12.132Y16.780
N31930G1X-11.696
N31940G1X-11.721Y16.860
N31950G1X-12.184
N31960G1X-12.225Y16.910
N31970G1X-12.273Y16.940
N31980G1X-11.749
N31990G1X-11.792Y17.020
N32000G1X-12.430
N32010G1X-12.612Y17.100
N32020G1X-11.846
N32030G1X-11.914Y17.180
N32040G1X-12.795
N32050G1X-12.977Y17.260
N32060G1X-12.011
N32070G1X-12.050Y17.291
N32080G1X-12.074Y17.305
N32090G1X-12.097Y17.319
N32100G1X-12.121Y17.332
N32110G1X-12.137Y17.340
N32120G1X-13.117
N32130G1X-13.187Y17.385
N32140G1X-13.223Y17.420
N32150G1X-12.317
N32160G1X-12.498Y17.500
N32170G1X-13.305
N32180G1X-13.306Y17.501
N32190G1X-13.357Y17.580
N32200G1X-12.679
N32210G1X-12.847Y17.654
N32220G1X-12.861Y17.660
N32230G1X-13.402
N32240G1X-13.432Y17.740
N32250G1X-12.971
N32260G1X-13.014Y17.795
N32270G1X-13.025Y17.820
N32280G1X-13.454
N32290G1X-13.467Y17.900
N32300G1X-13.054
N32310G1X-13.062Y17.940
N32320G1X-13.061Y17.980
N32330G1X-13.477
N32340G1X-13.470Y18.060
N32350G1X-13.058
N32360G1X-13.058Y18.065
N32370G1X-13.026Y18.140
N32380G1X-13.464
N32390G1X-13.464Y18.143
N32400G1X-13.438Y18.220
N32410G1X-12.977
N32420G1X-12.952Y18.252
N32430G1X-12.889Y18.300
N32440G1X-13.411
N32450G1X-13.409Y18.307
N32460G1X-13.363Y18.380
N32470G1X-11.918
N32480G1X-11.951Y18.441
N32490G1X-11.968Y18.460
N32500G1X-13.313
N32510G1X-13.312Y18.461
N32520G1X-13.235Y18.540
N32530G1X-12.039
N32540G1X-12.070Y18.576
N32550G1X-12.141Y18.620
N32560G1X-13.140
N32570G1X-13.040Y18.684
N32580G1X-12.994Y18.700
N32590G1X-12.301
N32600G00Z6.000
N32610G00X-12.945Y16.220
N32620G1Z-0.500F480.0
N32630G1X-13.549F1200.0
N32640G1X-13.585Y16.300
N32650G1X-13.094
N32660G1X-13.142Y16.356
N32670G1X-13.154Y16.380
N32680G1X-13.610
N32690G1X-13.619Y16.416
N32700G1X-13.628Y16.460
N32710G1X-13.193
N32720G1X-13.197Y16.467
N32730G1X-13.218Y16.540
N32740G1X-13.639
N32750G1X-13.638Y16.618
N32760G1X-13.637Y16.620
N32770G1X-13.242
N32780G1X-13.243Y16.623
N32790G1X-13.293Y16.700
N32800G1X-13.590
N32810G00Z6.000
N32820G00X-12.111Y17.900
N32830G1Z-0.500F480.0
N32840G1X-11.805F1200.0
N32850G1X-11.775Y17.946
N32860G1X-11.764Y17.980
N32870G1X-12.163
N32880G1X-12.201Y18.060
N32890G1X-11.759
N32900G1X-11.760Y18.076
N32910G1X-11.773Y18.114
N32920G1X-11.787Y18.140
N32930G1X-12.241
N32940G1X-12.281Y18.203
N32950G1X-12.299Y18.220
N32960G1X-11.831
N32970G1X-11.874Y18.300
N32980G1X-12.406
N32990G00Z6.000
N33000G00X-12.877Y18.740
N33010G1Z-0.500F480.0
N33020G1X-13.040Y18.684F1200.0
N33030G1X-13.185Y18.591
N33040G1X-13.312Y18.461
N33050G1X-13.409Y18.307
N33060G1X-13.464Y18.143
N33070G1X-13.477Y17.970
N33080G1X-13.449Y17.787
N33090G1X-13.393Y17.635
N33100G1X-13.306Y17.501
N33110G1X-13.187Y17.385
N33120G1X-13.036Y17.288
N33130G1X-13.014Y17.276
N33140G1X-12.336Y16.979
N33150G1X-12.225Y16.910
N33160G1X-12.145Y16.813
N33170G1X-12.097Y16.694
N33180G1X-12.085Y16.567
N33190G1X-12.112Y16.444
N33200G1X-12.176Y16.326
N33210G1X-12.264Y16.242
N33220G1X-12.373Y16.191
N33230G1X-12.506Y16.174
N33240G1X-12.784Y16.185
N33250G1X-12.993Y16.230
N33260G1X-13.074Y16.277
N33270G1X-13.142Y16.356
N33280G1X-13.197Y16.467
N33290G1X-13.238Y16.610
N33300G1X-13.243Y16.623
N33310G1X-13.306Y16.719
N33320G1X-13.404Y16.766
N33330G1X-13.505Y16.760
N33340G1X-13.588Y16.705
N33350G1X-13.638Y16.618
N33360G1X-13.640Y16.519
N33370G1X-13.619Y16.416
N33380G1X-13.593Y16.317
N33390G1X-13.516Y16.145
N33400G1X-13.417Y16.010
N33410G1X-13.295Y15.912
N33420G1X-13.152Y15.850
N33430G1X-12.835Y15.785
N33440G1X-12.503Y15.763
N33450G1X-12.304Y15.788
N33460G1X-12.112Y15.862
N33470G1X-11.951Y15.974
N33480G1X-11.819Y16.124
N33490G1X-11.726Y16.301
N33500G1X-11.680Y16.492
N33510G1X-11.675Y16.630
N33520G1X-11.691Y16.763
N33530G1X-11.740Y16.923
N33540G1X-11.815Y17.064
N33550G1X-11.919Y17.186
N33560G1X-12.050Y17.291
N33570G1X-12.074Y17.305
N33580G1X-12.097Y17.319
N33590G1X-12.121Y17.332
N33600G1X-12.147Y17.345
N33610G1X-12.170Y17.355
N33620G1X-12.847Y17.654
N33630G1X-12.865Y17.661
N33640G1X-12.881Y17.669
N33650G1X-12.897Y17.678
N33660G1X-12.910Y17.688
N33670G1X-12.969Y17.737
N33680G1X-13.014Y17.795
N33690G1X-13.045Y17.863
N33700G1X-13.062Y17.940
N33710G1X-13.058Y18.065
N33720G1X-13.010Y18.179
N33730G1X-12.952Y18.252
N33740G1X-12.883Y18.305
N33750G1X-12.802Y18.337
N33760G1X-12.709Y18.348
N33770G1X-12.575Y18.344
N33780G1X-12.479Y18.328
N33790G1X-12.413Y18.304
N33800G1X-12.351Y18.269
N33810G1X-12.281Y18.203
N33820G1X-12.230Y18.122
N33830G1X-12.148Y17.949
N33840G1X-12.089Y17.871
N33850G1X-12.009Y17.831
N33860G1X-11.922Y17.828
N33870G1X-11.842Y17.864
N33880G1X-11.811Y17.890
N33890G1X-11.775Y17.946
N33900G1X-11.756Y18.008
N33910G1X-11.760Y18.076
N33920G1X-11.773Y18.114
N33930G1X-11.951Y18.441
N33940G1X-12.070Y18.576
N33950G1X-12.233Y18.678
N33960G1X-12.381Y18.726
N33970G1X-12.534Y18.754
N33980G1X-12.695Y18.759
N33990G1X-12.877Y18.740
N34000G00Z6.000
N34010G00X-6.436Y15.797
N34020G1Z-0.500F480.0
N34030G1X-8.013F1200.0
N34040G1X-8.047Y15.820
N34050G1X-8.086Y15.877
N34060G1X-6.375
N34070G1X-6.361Y15.957
N34080G1X-8.106
N34090G1X-8.108Y15.968
N34100G1X-8.097Y16.037
N34110G1X-6.369
N34120G1X-6.370Y16.049
N34130G1X-6.406Y16.114
N34140G1X-6.410Y16.117
N34150G1X-8.083
N34160G1X-8.074Y16.164
N34170G1X-8.066Y16.197
N34180G1X-7.637
N34190G1X-7.625Y16.235
N34200G1X-7.610Y16.277
N34210G1X-8.045
N34220G1X-8.028Y16.342
N34230G1X-8.022Y16.357
N34240G1X-7.577
N34250G1X-7.542Y16.437
N34260G1X-7.993
N34270G1X-7.964Y16.514
N34280G1X-7.963Y16.517
N34290G1X-7.497
N34300G1X-7.455Y16.588
N34310G1X-7.448Y16.597
N34320G1X-7.924
N34330G1X-7.886Y16.677
N34340G1X-7.387
N34350G1X-7.325Y16.757
N34360G1X-7.838
N34370G1X-7.789Y16.837
N34380G1X-7.263
N34390G1X-7.257Y16.845
N34400G1X-7.182Y16.917
N34410G1X-7.732
N34420G1X-7.673Y16.997
N34430G1X-7.081
N34440G1X-7.048Y17.021
N34450G1X-6.972Y17.077
N34460G1X-7.602
N34470G1X-7.545Y17.141
N34480G1X-7.528Y17.157
N34490G1X-6.863
N34500G1X-6.826Y17.184
N34510G1X-6.768Y17.237
N34520G1X-7.441
N34530G1X-7.409Y17.267
N34540G1X-7.341Y17.317
N34550G1X-6.684
N34560G1X-6.607Y17.397
N34570G1X-7.236
N34580G1X-7.133Y17.477
N34590G1X-6.542
N34600G1X-6.483Y17.557
N34610G1X-7.037
N34620G1X-6.957Y17.637
N34630G1X-6.441
N34640G1X-6.408Y17.717
N34650G1X-6.878
N34660G1X-6.832Y17.779
N34670G1X-6.824Y17.797
N34680G1X-6.384
N34690G1X-6.373Y17.877
N34700G1X-6.793
N34710G1X-6.781Y17.933
N34720G1X-6.781Y17.957
N34730G1X-6.364
N34740G1X-6.373Y18.037
N34750G1X-6.784
N34760G1X-6.796Y18.097
N34770G1X-6.806Y18.117
N34780G1X-6.381
N34790G1X-6.385Y18.154
N34800G1X-6.400Y18.197
N34810G1X-6.853
N34820G1X-6.882Y18.233
N34830G1X-6.938Y18.277
N34840G1X-6.427
N34850G1X-6.451Y18.345
N34860G1X-6.459Y18.357
N34870G1X-7.835
N34880G1X-7.799Y18.424
N34890G1X-7.787Y18.437
N34900G1X-6.512
N34910G1X-6.556Y18.503
N34920G1X-6.573Y18.517
N34930G1X-7.717
N34940G1X-7.689Y18.549
N34950G1X-7.622Y18.597
N34960G1X-6.668
N34970G1X-6.702Y18.626
N34980G1X-6.809Y18.677
N34990G1X-7.491
N35000G1X-7.389Y18.723
N35010G1X-7.231Y18.757
N35020G1X-7.165
N35030G00Z6.000
N35040G00X-7.711Y17.717
N35050G1Z-0.500F480.0
N35060G1X-7.767F1200.0
N35070G1X-7.839Y17.742
N35080G1X-7.897Y17.797
N35090G1X-7.563
N35100G1X-7.556Y17.806
N35110G1X-7.527Y17.870
N35120G1X-7.527Y17.877
N35130G1X-7.930
N35140G1X-7.934Y17.888
N35150G1X-7.934Y17.957
N35160G1X-7.525
N35170G1X-7.518Y18.037
N35180G1X-7.932
N35190G1X-7.926Y18.108
N35200G1X-7.924Y18.117
N35210G1X-7.496
N35220G1X-7.482Y18.152
N35230G1X-7.448Y18.197
N35240G1X-7.901
N35250G1X-7.878Y18.277
N35260G1X-7.359
N35270G00Z6.000
N35280G00X-8.047Y15.820
N35290G1Z-0.500F480.0
N35300G1X-7.980Y15.775F1200.0
N35310G1X-7.900Y15.760
N35320G1X-6.564
N35330G1X-6.477Y15.772
N35340G1X-6.414Y15.810
N35350G1X-6.375Y15.873
N35360G1X-6.360Y15.961
N35370G1X-6.370Y16.049
N35380G1X-6.406Y16.114
N35390G1X-6.469Y16.156
N35400G1X-6.557Y16.174
N35410G1X-7.644
N35420G1X-7.625Y16.235
N35430G1X-7.603Y16.299
N35440G1X-7.539Y16.445
N35450G1X-7.455Y16.588
N35460G1X-7.257Y16.845
N35470G1X-7.159Y16.940
N35480G1X-7.048Y17.021
N35490G1X-6.826Y17.184
N35500G1X-6.699Y17.300
N35510G1X-6.582Y17.424
N35520G1X-6.462Y17.587
N35530G1X-6.389Y17.763
N35540G1X-6.363Y17.951
N35550G1X-6.385Y18.154
N35560G1X-6.451Y18.345
N35570G1X-6.556Y18.503
N35580G1X-6.702Y18.626
N35590G1X-6.888Y18.715
N35600G1X-7.059Y18.755
N35610G1X-7.226Y18.758
N35620G1X-7.389Y18.723
N35630G1X-7.548Y18.651
N35640G1X-7.689Y18.549
N35650G1X-7.799Y18.424
N35660G1X-7.878Y18.277
N35670G1X-7.926Y18.108
N35680G1X-7.934Y17.997
N35690G1X-7.934Y17.888
N35700G1X-7.904Y17.804
N35710G1X-7.839Y17.742
N35720G1X-7.753Y17.712
N35730G1X-7.660Y17.723
N35740G1X-7.602Y17.753
N35750G1X-7.556Y17.806
N35760G1X-7.527Y17.870
N35770G1X-7.524Y17.937
N35780G1X-7.524Y17.946
N35790G1X-7.525Y17.956
N35800G1X-7.517Y18.061
N35810G1X-7.482Y18.152
N35820G1X-7.423Y18.229
N35830G1X-7.337Y18.293
N35840G1X-7.240Y18.335
N35850G1X-7.143Y18.348
N35860G1X-7.046Y18.332
N35870G1X-6.951Y18.287
N35880G1X-6.882Y18.233
N35890G1X-6.830Y18.169
N35900G1X-6.796Y18.097
N35910G1X-6.780Y18.016
N35920G1X-6.781Y17.933
N35930G1X-6.798Y17.854
N35940G1X-6.832Y17.779
N35950G1X-6.883Y17.710
N35960G1X-7.064Y17.530
N35970G1X-7.261Y17.377
N35980G1X-7.409Y17.267
N35990G1X-7.545Y17.141
N36000G1X-7.670Y17.001
N36010G1X-7.784Y16.847
N36020G1X-7.883Y16.683
N36030G1X-7.964Y16.514
N36040G1X-8.028Y16.342
N36050G1X-8.074Y16.164
N36060G1X-8.093Y16.061
N36070G1X-8.108Y15.968
N36080G1X-8.093Y15.887
N36090G1X-8.047Y15.820
N36100G00Z6.000
N36110G00X6.872Y15.820
N36120G1Z-0.500F480.0
N36130G1X7.657F1200.0
N36140G1X7.766Y15.862
N36150G1X7.820Y15.900
N36160G1X6.610
N36170G1X6.582Y15.912
N36180G1X6.498Y15.980
N36190G1X7.932
N36200G1X8.002Y16.060
N36210G1X6.425
N36220G1X6.366Y16.140
N36230G1X8.067
N36240G1X8.109Y16.220
N36250G1X7.566
N36260G1X7.614Y16.242
N36270G1X7.674Y16.300
N36280G1X8.151
N36290G1X8.151Y16.301
N36300G1X8.171Y16.380
N36310G1X7.731
N36320G1X7.766Y16.444
N36330G1X7.769Y16.460
N36340G1X8.190
N36350G1X8.198Y16.492
N36360G1X8.200Y16.540
N36370G1X7.787
N36380G1X7.793Y16.567
N36390G1X7.788Y16.620
N36400G1X8.202
N36410G1X8.203Y16.630
N36420G1X8.194Y16.700
N36430G1X7.778
N36440G1X7.746Y16.780
N36450G1X8.181
N36460G1X8.157Y16.860
N36470G1X7.694
N36480G1X7.653Y16.910
N36490G1X7.605Y16.940
N36500G1X8.129
N36510G1X8.086Y17.020
N36520G1X7.448
N36530G1X7.265Y17.100
N36540G1X8.032
N36550G1X7.964Y17.180
N36560G1X7.083
N36570G1X6.900Y17.260
N36580G1X7.866
N36590G1X7.827Y17.291
N36600G1X7.803Y17.305
N36610G1X7.781Y17.319
N36620G1X7.757Y17.332
N36630G1X7.741Y17.340
N36640G1X6.761
N36650G1X6.691Y17.385
N36660G1X6.655Y17.420
N36670G1X7.561
N36680G1X7.380Y17.500
N36690G1X6.573
N36700G1X6.572Y17.501
N36710G1X6.520Y17.580
N36720G1X7.198
N36730G1X7.031Y17.654
N36740G1X7.016Y17.660
N36750G1X6.475
N36760G1X6.446Y17.740
N36770G1X6.906
N36780G1X6.864Y17.795
N36790G1X6.852Y17.820
N36800G1X6.423
N36810G1X6.411Y17.900
N36820G1X6.824
N36830G1X6.815Y17.940
N36840G1X6.817Y17.980
N36850G1X6.401
N36860G1X6.407Y18.060
N36870G1X6.819
N36880G1X6.820Y18.065
N36890G1X6.851Y18.140
N36900G1X6.413
N36910G1X6.414Y18.143
N36920G1X6.439Y18.220
N36930G1X6.901
N36940G1X6.926Y18.252
N36950G1X6.989Y18.300
N36960G1X6.466
N36970G1X6.469Y18.307
N36980G1X6.515Y18.380
N36990G1X7.960
N37000G1X7.927Y18.441
N37010G1X7.910Y18.460
N37020G1X6.565
N37030G1X6.565Y18.461
N37040G1X6.643Y18.540
N37050G1X7.839
N37060G1X7.807Y18.576
N37070G1X7.737Y18.620
N37080G1X6.737
N37090G1X6.837Y18.684
N37100G1X6.884Y18.700
N37110G1X7.576
N37120G00Z6.000
N37130G00X6.933Y16.220
N37140G1Z-0.500F480.0
N37150G1X6.328F1200.0
N37160G1X6.292Y16.300
N37170G1X6.784
N37180G1X6.736Y16.356
N37190G1X6.724Y16.380
N37200G1X6.268
N37210G1X6.259Y16.416
N37220G1X6.250Y16.460
N37230G1X6.684
N37240G1X6.681Y16.467
N37250G1X6.660Y16.540
N37260G1X6.238
N37270G1X6.240Y16.618
N37280G1X6.241Y16.620
N37290G1X6.636
N37300G1X6.635Y16.623
N37310G1X6.584Y16.700
N37320G1X6.287
N37330G00Z6.000
N37340G00X7.766Y17.900
N37350G1Z-0.500F480.0
N37360G1X8.073F1200.0
N37370G1X8.103Y17.946
N37380G1X8.113Y17.980
N37390G1X7.715
N37400G1X7.677Y18.060
N37410G1X8.119
N37420G1X8.118Y18.076
N37430G1X8.104Y18.114
N37440G1X8.090Y18.140
N37450G1X7.637
N37460G1X7.596Y18.203
N37470G1X7.579Y18.220
N37480G1X8.047
N37490G1X8.004Y18.300
N37500G1X7.472
N37510G00Z6.000
N37520G00X7.001Y18.740
N37530G1Z-0.500F480.0
N37540G1X6.837Y18.684F1200.0
N37550G1X6.692Y18.591
N37560G1X6.565Y18.461
N37570G1X6.469Y18.307
N37580G1X6.414Y18.143
N37590G1X6.400Y17.970
N37600G1X6.428Y17.787
N37610G1X6.484Y17.635
N37620G1X6.572Y17.501
N37630G1X6.691Y17.385
N37640G1X6.842Y17.288
N37650G1X6.864Y17.276
N37660G1X7.542Y16.979
N37670G1X7.653Y16.910
N37680G1X7.733Y16.813
N37690G1X7.781Y16.694
N37700G1X7.793Y16.567
N37710G1X7.766Y16.444
N37720G1X7.701Y16.326
N37730G1X7.614Y16.242
N37740G1X7.504Y16.191
N37750G1X7.372Y16.174
N37760G1X7.094Y16.185
N37770G1X6.885Y16.230
N37780G1X6.804Y16.277
N37790G1X6.736Y16.356
N37800G1X6.681Y16.467
N37810G1X6.639Y16.610
N37820G1X6.635Y16.623
N37830G1X6.572Y16.719
N37840G1X6.474Y16.766
N37850G1X6.373Y16.760
N37860G1X6.290Y16.705
N37870G1X6.240Y16.618
N37880G1X6.238Y16.519
N37890G1X6.259Y16.416
N37900G1X6.285Y16.317
N37910G1X6.362Y16.145
N37920G1X6.461Y16.010
N37930G1X6.582Y15.912
N37940G1X6.726Y15.850
N37950G1X7.043Y15.785
N37960G1X7.375Y15.763
N37970G1X7.574Y15.788
N37980G1X7.766Y15.862
N37990G1X7.927Y15.974
N38000G1X8.058Y16.124
N38010G1X8.151Y16.301
N38020G1X8.198Y16.492
N38030G1X8.203Y16.630
N38040G1X8.186Y16.763
N38050G1X8.138Y16.923
N38060G1X8.062Y17.064
N38070G1X7.959Y17.186
N38080G1X7.827Y17.291
N38090G1X7.803Y17.305
N38100G1X7.781Y17.319
N38110G1X7.757Y17.332
N38120G1X7.731Y17.345
N38130G1X7.707Y17.355
N38140G1X7.031Y17.654
N38150G1X7.013Y17.661
N38160G1X6.997Y17.669
N38170G1X6.981Y17.678
N38180G1X6.968Y17.688
N38190G1X6.909Y17.737
N38200G1X6.864Y17.795
N38210G1X6.832Y17.863
N38220G1X6.815Y17.940
N38230G1X6.820Y18.065
N38240G1X6.868Y18.179
N38250G1X6.926Y18.252
N38260G1X6.995Y18.305
N38270G1X7.076Y18.337
N38280G1X7.168Y18.348
N38290G1X7.303Y18.344
N38300G1X7.398Y18.328
N38310G1X7.465Y18.304
N38320G1X7.527Y18.269
N38330G1X7.596Y18.203
N38340G1X7.648Y18.122
N38350G1X7.729Y17.949
N38360G1X7.788Y17.871
N38370G1X7.869Y17.831
N38380G1X7.956Y17.828
N38390G1X8.036Y17.864
N38400G1X8.066Y17.890
N38410G1X8.103Y17.946
N38420G1X8.122Y18.008
N38430G1X8.118Y18.076
N38440G1X8.104Y18.114
N38450G1X7.927Y18.441
N38460G1X7.807Y18.576
N38470G1X7.644Y18.678
N38480G1X7.496Y18.726
N38490G1X7.344Y18.754
N38500G1X7.183Y18.759
N38510G1X7.001Y18.740
N38520G00Z6.000
N38530G00X9.138Y15.820
N38540G1Z-0.500F480.0
N38550G1X9.420F1200.0
N38560G1X9.437Y15.838
N38570G1X9.472Y15.900
N38580G1X9.085
N38590G1X9.073Y15.927
N38600G1X9.062Y15.980
N38610G1X9.497
N38620G1X9.520Y16.060
N38630G1X9.047
N38640G1X9.031Y16.140
N38650G1X9.544
N38660G1X9.567Y16.220
N38670G1X9.015
N38680G1X9.000Y16.300
N38690G1X9.590
N38700G1X9.613Y16.380
N38710G1X8.984
N38720G1X8.968Y16.460
N38730G1X9.637
N38740G1X9.660Y16.540
N38750G1X8.952
N38760G1X8.937Y16.620
N38770G1X9.683
N38780G1X9.706Y16.700
N38790G1X8.921
N38800G1X8.905Y16.780
N38810G1X9.730
N38820G1X9.753Y16.860
N38830G1X9.321
N38840G1X9.345Y16.940
N38850G1X9.776
N38860G1X9.799Y17.020
N38870G1X9.368
N38880G1X9.391Y17.100
N38890G1X9.823
N38900G1X9.846Y17.180
N38910G1X9.415
N38920G1X9.438Y17.260
N38930G1X9.869
N38940G1X9.892Y17.340
N38950G1X9.462
N38960G1X9.485Y17.420
N38970G1X9.916
N38980G1X9.939Y17.500
N38990G1X9.508
N39000G1X9.532Y17.580
N39010G1X9.962
N39020G1X9.985Y17.660
N39030G1X9.555
N39040G1X9.578Y17.740
N39050G1X10.009
N39060G1X10.025Y17.796
N39070G1X10.041Y17.740
N39080G1X10.473
N39090G1X10.497Y17.660
N39100G1X10.065
N39110G1X10.088Y17.580
N39120G1X10.520
N39130G1X10.543Y17.500
N39140G1X10.112
N39150G1X10.135Y17.420
N39160G1X10.567
N39170G1X10.590Y17.340
N39180G1X10.158
N39190G1X10.182Y17.260
N39200G1X10.614
N39210G1X10.637Y17.180
N39220G1X10.205
N39230G1X10.229Y17.100
N39240G1X10.661
N39250G1X10.684Y17.020
N39260G1X10.252
N39270G1X10.276Y16.940
N39280G1X10.707
N39290G1X10.731Y16.860
N39300G1X10.299
N39310G1X10.323Y16.780
N39320G1X11.146
N39330G1X11.130Y16.700
N39340G1X10.346
N39350G1X10.369Y16.620
N39360G1X11.114
N39370G1X11.099Y16.540
N39380G1X10.393
N39390G1X10.416Y16.460
N39400G1X11.083
N39410G1X11.067Y16.380
N39420G1X10.440
N39430G1X10.463Y16.300
N39440G1X11.052
N39450G1X11.036Y16.220
N39460G1X10.487
N39470G1X10.510Y16.140
N39480G1X11.020
N39490G1X11.005Y16.060
N39500G1X10.534
N39510G1X10.557Y15.980
N39520G1X10.989
N39530G1X10.979Y15.927
N39540G1X10.968Y15.900
N39550G1X10.582
N39560G1X10.616Y15.839
N39570G1X10.635Y15.820
N39580G1X10.921
N39590G00Z6.000
N39600G00X9.310Y16.860
N39610G1Z-0.500F480.0
N39620G1X8.890F1200.0
N39630G1X8.874Y16.940
N39640G1X9.294
N39650G1X9.279Y17.020
N39660G1X8.858
N39670G1X8.843Y17.100
N39680G1X9.264
N39690G1X9.248Y17.180
N39700G1X8.827
N39710G1X8.811Y17.260
N39720G1X9.233
N39730G1X9.217Y17.340
N39740G1X8.796
N39750G1X8.780Y17.420
N39760G1X9.202
N39770G1X9.186Y17.500
N39780G1X8.764
N39790G1X8.749Y17.580
N39800G1X9.171
N39810G1X9.156Y17.660
N39820G1X8.733
N39830G1X8.717Y17.740
N39840G1X9.140
N39850G1X9.125Y17.820
N39860G1X8.702
N39870G1X8.686Y17.900
N39880G1X9.109
N39890G1X9.094Y17.980
N39900G1X8.670
N39910G1X8.655Y18.060
N39920G1X9.078
N39930G1X9.063Y18.140
N39940G1X8.639
N39950G1X8.623Y18.220
N39960G1X9.048
N39970G1X9.032Y18.300
N39980G1X8.608
N39990G1X8.592Y18.380
N40000G1X9.017
N40010G1X9.001Y18.460
N40020G1X8.576
N40030G1X8.566Y18.514
N40040G1X8.569Y18.540
N40050G1X8.986
N40060G1X8.976Y18.592
N40070G1X8.961Y18.620
N40080G1X8.582
N40090G1X8.608Y18.679
N40100G1X8.630Y18.700
N40110G1X8.907
N40120G00Z6.000
N40130G00X11.161Y16.860
N40140G1Z-0.500F480.0
N40150G1X10.741F1200.0
N40160G1X10.757Y16.940
N40170G1X11.177
N40180G1X11.193Y17.020
N40190G1X10.772
N40200G1X10.788Y17.100
N40210G1X11.209
N40220G1X11.224Y17.180
N40230G1X10.804
N40240G1X10.819Y17.260
N40250G1X11.240
N40260G1X11.256Y17.340
N40270G1X10.835
N40280G1X10.851Y17.420
N40290G1X11.271
N40300G1X11.287Y17.500
N40310G1X10.866
N40320G1X10.882Y17.580
N40330G1X11.303
N40340G1X11.318Y17.660
N40350G1X10.897
N40360G1X10.913Y17.740
N40370G1X11.334
N40380G1X11.350Y17.820
N40390G1X10.929
N40400G1X10.944Y17.900
N40410G1X11.365
N40420G1X11.381Y17.980
N40430G1X10.960
N40440G1X10.976Y18.060
N40450G1X11.397
N40460G1X11.412Y18.140
N40470G1X10.991
N40480G1X11.007Y18.220
N40490G1X11.428
N40500G1X11.444Y18.300
N40510G1X11.023
N40520G1X11.038Y18.380
N40530G1X11.459
N40540G1X11.475Y18.460
N40550G1X11.054
N40560G1X11.070Y18.540
N40570G1X11.484
N40580G1X11.481Y18.605
N40590G1X11.474Y18.620
N40600G1X11.093
N40610G1X11.118Y18.676
N40620G1X11.141Y18.700
N40630G1X11.424
N40640G00Z6.000
N40650G00X10.450Y17.820
N40660G1Z-0.500F480.0
N40670G1X9.602F1200.0
N40680G1X9.625Y17.900
N40690G1X10.426
N40700G1X10.403Y17.980
N40710G1X9.649
N40720G1X9.672Y18.060
N40730G1X10.380
N40740G1X10.356Y18.140
N40750G1X9.695
N40760G1X9.719Y18.220
N40770G1X10.333
N40780G1X10.309Y18.300
N40790G1X9.742
N40800G1X9.765Y18.380
N40810G1X10.286
N40820G1X10.263Y18.460
N40830G1X9.789
N40840G1X9.812Y18.540
N40850G1X10.239
N40860G1X10.224Y18.592
N40870G1X10.210Y18.620
N40880G1X9.844
N40890G1X9.863Y18.655
N40900G1X9.908Y18.700
N40910G1X10.152
N40920G00Z6.000
N40930G00X8.566Y18.514
N40940G1Z-0.500F480.0
N40950G1X9.073Y15.927F1200.0
N40960G1X9.106Y15.857
N40970G1X9.150Y15.806
N40980G1X9.205Y15.773
N40990G1X9.269Y15.758
N41000G1X9.334Y15.764
N41010G1X9.390Y15.790
N41020G1X9.437Y15.838
N41030G1X9.476Y15.906
N41040G1X10.025Y17.796
N41050G1X10.579Y15.906
N41060G1X10.616Y15.839
N41070G1X10.663Y15.793
N41080G1X10.720Y15.766
N41090G1X10.787Y15.758
N41100G1X10.853Y15.771
N41110G1X10.907Y15.804
N41120G1X10.949Y15.855
N41130G1X10.979Y15.927
N41140G1X11.485Y18.514
N41150G1X11.481Y18.605
N41160G1X11.452Y18.675
N41170G1X11.398Y18.724
N41180G1X11.321Y18.753
N41190G1X11.238Y18.756
N41200G1X11.171Y18.731
N41210G1X11.118Y18.676
N41220G1X11.080Y18.592
N41230G1X10.737Y16.840
N41240G1X10.224Y18.592
N41250G1X10.190Y18.659
N41260G1X10.147Y18.706
N41270G1X10.093Y18.733
N41280G1X10.029Y18.741
N41290G1X9.964Y18.730
N41300G1X9.909Y18.702
N41310G1X9.863Y18.655
N41320G1X9.827Y18.592
N41330G1X9.314Y16.837
N41340G1X8.976Y18.592
N41350G1X8.932Y18.675
N41360G1X8.877Y18.730
N41370G1X8.811Y18.757
N41380G1X8.733Y18.755
N41390G1X8.660Y18.728
N41400G1X8.608Y18.679
N41410G1X8.576Y18.608
N41420G1X8.566Y18.514
N41430G00Z6.000
N41440G00X12.453Y15.808
N41450G1Z-0.500F480.0
N41460G1X13.072F1200.0
N41470G1X13.116Y15.820
N41480G1X13.255Y15.888
N41490G1X12.265
N41500G1X12.150Y15.968
N41510G1X13.369
N41520G1X13.419Y16.005
N41530G1X13.458Y16.048
N41540G1X12.060
N41550G1X11.995Y16.112
N41560G1X11.984Y16.128
N41570G1X13.531
N41580G1X13.574Y16.175
N41590G1X13.593Y16.208
N41600G1X12.957
N41610G1X13.049Y16.246
N41620G1X13.104Y16.288
N41630G1X13.637
N41640G1X13.682Y16.368
N41650G1X13.194
N41660G1X13.260Y16.444
N41670G1X13.262Y16.448
N41680G1X13.709
N41690G1X13.733Y16.528
N41700G1X13.299
N41710G1X13.315Y16.561
N41720G1X13.329Y16.607
N41730G1X13.329Y16.608
N41740G1X13.756
N41750G1X13.758Y16.688
N41760G1X13.342
N41770G1X13.344Y16.768
N41780G1X13.760
N41790G1X13.762Y16.838
N41800G1X13.760Y16.848
N41810G1X13.343
N41820G1X13.340Y16.889
N41830G1X13.327Y16.928
N41840G1X13.747
N41850G1X13.737Y16.989
N41860G1X13.731Y17.008
N41870G1X13.295
N41880G1X13.258Y17.078
N41890G1X13.251Y17.088
N41900G1X13.706
N41910G1X13.693Y17.131
N41920G1X13.675Y17.168
N41930G1X13.188
N41940G1X13.110Y17.238
N41950G1X13.094Y17.248
N41960G1X13.637
N41970G1X13.630Y17.263
N41980G1X13.586Y17.328
N41990G1X12.933
N42000G1X12.915Y17.335
N42010G1X12.809Y17.353
N42020G1X12.699Y17.351
N42030G1X12.584Y17.329
N42040G1X12.581Y17.328
N42050G1X12.437
N42060G00Z6.000
N42070G00X12.545Y16.208
N42080G1Z-0.500F480.0
N42090G1X11.927F1200.0
N42100G1X11.895Y16.252
N42110G1X11.878Y16.288
N42120G1X12.408
N42130G1X12.389Y16.301
N42140G1X12.331Y16.368
N42150G1X11.841
N42160G1X11.821Y16.408
N42170G1X11.810Y16.448
N42180G1X12.262
N42190G1X12.256Y16.454
N42200G1X12.222Y16.528
N42210G1X11.788
N42220G1X11.773Y16.582
N42230G1X11.771Y16.608
N42240G1X12.192
N42250G1X12.180Y16.656
N42260G1X12.167Y16.688
N42270G1X11.783
N42280G1X11.796Y16.726
N42290G1X11.830Y16.768
N42300G1X12.113
N42310G00Z6.000
N42320G00X12.339Y17.408
N42330G1Z-0.500F480.0
N42340G1X13.528F1200.0
N42350G1X13.455Y17.488
N42360G1X12.304
N42370G1X12.303Y17.494
N42380G1X12.305Y17.568
N42390G1X13.360
N42400G1X13.335Y17.588
N42410G1X13.234Y17.648
N42420G1X12.345
N42430G1X12.347Y17.651
N42440G1X12.409Y17.728
N42450G1X13.047
N42460G1X13.004Y17.738
N42470G1X12.959Y17.749
N42480G1X13.007Y17.808
N42490G1X12.474
N42500G1X12.538Y17.888
N42510G1X13.071
N42520G1X13.136Y17.968
N42530G1X12.603
N42540G1X12.668Y18.048
N42550G1X13.201
N42560G1X13.266Y18.128
N42570G1X12.733
N42580G1X12.798Y18.208
N42590G1X13.331
N42600G1X13.396Y18.288
N42610G1X12.862
N42620G1X12.908Y18.344
N42630G1X12.215
N42640G1X12.127Y18.362
N42650G1X12.119Y18.368
N42660G1X13.460
N42670G1X13.504Y18.422
N42680G1X13.519Y18.448
N42690G1X12.038
N42700G1X12.012Y18.495
N42710G1X12.012Y18.528
N42720G1X13.546
N42730G1X13.548Y18.580
N42740G1X13.539Y18.608
N42750G1X12.017
N42760G1X12.033Y18.661
N42770G1X12.053Y18.688
N42780G1X13.501
N42790G00Z6.000
N42800G00X11.901Y16.814
N42810G1Z-0.500F480.0
N42820G1X11.840Y16.781F1200.0
N42830G1X11.796Y16.726
N42840G1X11.770Y16.649
N42850G1X11.770Y16.613
N42860G1X11.773Y16.582
N42870G1X11.821Y16.408
N42880G1X11.895Y16.252
N42890G1X11.995Y16.112
N42900G1X12.121Y15.988
N42910G1X12.265Y15.888
N42920G1X12.421Y15.816
N42930G1X12.590Y15.773
N42940G1X12.770Y15.758
N42950G1X12.949Y15.774
N42960G1X13.116Y15.820
N42970G1X13.273Y15.897
N42980G1X13.419Y16.005
N42990G1X13.574Y16.175
N43000G1X13.689Y16.380
N43010G1X13.756Y16.606
N43020G1X13.762Y16.838
N43030G1X13.737Y16.989
N43040G1X13.693Y17.131
N43050G1X13.630Y17.263
N43060G1X13.547Y17.386
N43070G1X13.448Y17.496
N43080G1X13.335Y17.588
N43090G1X13.207Y17.664
N43100G1X13.065Y17.723
N43110G1X13.049Y17.727
N43120G1X13.004Y17.738
N43130G1X12.959Y17.749
N43140G1X13.504Y18.422
N43150G1X13.544Y18.491
N43160G1X13.548Y18.580
N43170G1X13.524Y18.658
N43180G1X13.481Y18.714
N43190G1X13.421Y18.747
N43200G1X13.343Y18.759
N43210G1X12.214
N43220G1X12.135Y18.748
N43230G1X12.075Y18.715
N43240G1X12.033Y18.661
N43250G1X12.010Y18.586
N43260G1X12.012Y18.495
N43270G1X12.055Y18.417
N43280G1X12.127Y18.362
N43290G1X12.215Y18.344
N43300G1X12.908
N43310G1X12.347Y17.651
N43320G1X12.305Y17.581
N43330G1X12.303Y17.494
N43340G1X12.313Y17.452
N43350G1X12.355Y17.380
N43360G1X12.416Y17.335
N43370G1X12.479Y17.314
N43380G1X12.548Y17.317
N43390G1X12.575Y17.326
N43400G1X12.584Y17.329
N43410G1X12.699Y17.351
N43420G1X12.809Y17.353
N43430G1X12.915Y17.335
N43440G1X13.017Y17.295
N43450G1X13.110Y17.238
N43460G1X13.191Y17.166
N43470G1X13.258Y17.078
N43480G1X13.312Y16.976
N43490G1X13.340Y16.889
N43500G1X13.345Y16.811
N43510G1X13.342Y16.648
N43520G1X13.329Y16.607
N43530G1X13.315Y16.561
N43540G1X13.260Y16.444
N43550G1X13.165Y16.334
N43560G1X13.049Y16.246
N43570G1X12.930Y16.196
N43580G1X12.726Y16.172
N43590G1X12.633Y16.183
N43600G1X12.546Y16.207
N43610G1X12.465Y16.247
N43620G1X12.389Y16.301
N43630G1X12.256Y16.454
N43640G1X12.201Y16.571
N43650G1X12.180Y16.656
N43660G1X12.148Y16.732
N43670G1X12.090Y16.791
N43680G1X11.979Y16.825
N43690G1X11.901Y16.814
N43700G00Z6.000
N43710G00X10.294Y11.282
N43720G1Z-0.500F480.0
N43730G1X10.537F1200.0
N43740G1X10.555Y11.293
N43750G1X10.597Y11.357
N43760G1X10.599Y11.362
N43770G1X10.232
N43780G1X10.211Y11.442
N43790G1X10.621
N43800G1X10.622Y11.447
N43810G1Y11.522
N43820G1X10.209
N43830G1Y11.602
N43840G1X10.622
N43850G1Y11.682
N43860G1X10.209
N43870G1Y11.762
N43880G1X10.622
N43890G1Y11.842
N43900G1X10.209
N43910G1Y11.922
N43920G1X10.622
N43930G1Y12.002
N43940G1X10.209
N43950G1Y12.082
N43960G1X10.622
N43970G1Y12.162
N43980G1X10.209
N43990G1Y12.242
N44000G1X10.622
N44010G1Y12.322
N44020G1X10.209
N44030G1Y12.402
N44040G1X10.622
N44050G1Y12.482
N44060G1X10.209
N44070G1Y12.562
N44080G1X10.622
N44090G1Y12.642
N44100G1X10.209
N44110G1Y12.722
N44120G1X10.622
N44130G1Y12.802
N44140G1X10.209
N44150G1Y12.882
N44160G1X10.622
N44170G1Y12.962
N44180G1X10.209
N44190G1Y13.042
N44200G1X10.622
N44210G1Y13.122
N44220G1X10.209
N44230G1Y13.202
N44240G1X10.622
N44250G1Y13.282
N44260G1X10.209
N44270G1Y13.362
N44280G1X11.076
N44290G1X11.026Y13.442
N44300G1X10.209
N44310G1Y13.522
N44320G1X10.976
N44330G1X10.926Y13.602
N44340G1X10.209
N44350G1Y13.682
N44360G1X10.876
N44370G1X10.827Y13.762
N44380G1X10.209
N44390G1Y13.842
N44400G1X10.777
N44410G1X10.727Y13.922
N44420G1X10.209
N44430G1Y14.002
N44440G1X10.677
N44450G1X10.627Y14.082
N44460G1X10.222
N44470G1X10.227Y14.104
N44480G1X10.259Y14.161
N44490G1X10.261Y14.162
N44500G1X10.574
N44510G1X10.541Y14.202
N44520G1X10.488Y14.236
N44530G1X10.458Y14.242
N44540G1X10.402
N44550G00Z6.000
N44560G00X11.903Y11.282
N44570G1Z-0.500F480.0
N44580G1X12.152F1200.0
N44590G1X12.195Y11.321
N44600G1X12.216Y11.362
N44610G1X11.838
N44620G1X11.789Y11.442
N44630G1X12.232
N44640G1X12.232Y11.447
N44650G1Y11.522
N44660G1X11.739
N44670G1X11.689Y11.602
N44680G1X12.232
N44690G1Y11.682
N44700G1X11.639
N44710G1X11.589Y11.762
N44720G1X12.232
N44730G1Y11.842
N44740G1X11.539
N44750G1X11.489Y11.922
N44760G1X12.232
N44770G1Y12.002
N44780G1X11.439
N44790G1X11.389Y12.082
N44800G1X12.232
N44810G1Y12.162
N44820G1X11.340
N44830G1X11.290Y12.242
N44840G1X11.773
N44850G1X11.723Y12.322
N44860G1X11.240
N44870G1X11.190Y12.402
N44880G1X11.673
N44890G1X11.624Y12.482
N44900G1X11.140
N44910G1X11.090Y12.562
N44920G1X11.574
N44930G1X11.524Y12.642
N44940G1X11.040
N44950G1X10.990Y12.722
N44960G1X11.474
N44970G1X11.424Y12.802
N44980G1X10.940
N44990G1X10.891Y12.882
N45000G1X11.375
N45010G1X11.325Y12.962
N45020G1X10.841
N45030G1X10.791Y13.042
N45040G1X11.275
N45050G1X11.225Y13.122
N45060G1X10.741
N45070G1X10.691Y13.202
N45080G1X11.175
N45090G1X11.126Y13.282
N45100G1X10.641
N45110G00Z6.000
N45120G00X11.819Y12.242
N45130G1Z-0.500F480.0
N45140G1X12.232F1200.0
N45150G1Y12.322
N45160G1X11.819
N45170G1Y12.402
N45180G1X12.232
N45190G1Y12.482
N45200G1X11.819
N45210G1Y12.562
N45220G1X12.232
N45230G1Y12.642
N45240G1X11.819
N45250G1Y12.722
N45260G1X12.232
N45270G1Y12.802
N45280G1X11.819
N45290G1Y12.882
N45300G1X12.232
N45310G1Y12.962
N45320G1X11.819
N45330G1Y13.042
N45340G1X12.232
N45350G1Y13.122
N45360G1X11.819
N45370G1Y13.202
N45380G1X12.232
N45390G1Y13.282
N45400G1X11.819
N45410G1Y13.362
N45420G1X12.232
N45430G1Y13.442
N45440G1X11.819
N45450G1Y13.522
N45460G1X12.232
N45470G1Y13.602
N45480G1X11.819
N45490G1Y13.682
N45500G1X12.232
N45510G1Y13.762
N45520G1X11.819
N45530G1Y13.842
N45540G1X12.232
N45550G1Y13.922
N45560G1X11.819
N45570G1Y14.002
N45580G1X12.232
N45590G1Y14.034
N45600G1X12.223Y14.082
N45610G1X11.832
N45620G1X11.843Y14.126
N45630G1X11.867Y14.162
N45640G1X12.191
N45650G00Z6.000
N45660G00X10.209Y11.447
N45670G1Z-0.500F480.0
N45680G1X10.234Y11.357F1200.0
N45690G1X10.276Y11.293
N45700G1X10.337Y11.255
N45710G1X10.415Y11.242
N45720G1X10.494Y11.255
N45730G1X10.555Y11.293
N45740G1X10.597Y11.357
N45750G1X10.622Y11.447
N45760G1Y13.312
N45770G1X11.853Y11.339
N45780G1X11.898Y11.285
N45790G1X11.952Y11.252
N45800G1X12.014Y11.241
N45810G1X12.084Y11.252
N45820G1X12.149Y11.279
N45830G1X12.195Y11.321
N45840G1X12.223Y11.377
N45850G1X12.232Y11.447
N45860G1Y14.034
N45870G1X12.214Y14.124
N45880G1X12.175Y14.189
N45890G1X12.114Y14.228
N45900G1X12.032Y14.242
N45910G1X11.950Y14.229
N45920G1X11.887Y14.191
N45930G1X11.843Y14.126
N45940G1X11.819Y14.034
N45950G1Y12.168
N45960G1X10.589Y14.144
N45970G1X10.541Y14.202
N45980G1X10.488Y14.236
N45990G1X10.430Y14.247
N46000G1X10.365Y14.235
N46010G1X10.305Y14.204
N46020G1X10.259Y14.161
N46030G1X10.227Y14.104
N46040G1X10.209Y14.034
N46050G1Y11.447
N46060G00Z6.000
N46070G00X8.648Y11.273
N46080G1Z-0.500F480.0
N46090G1X9.033F1200.0
N46100G1X9.105Y11.297
N46110G1X9.204Y11.353
N46120G1X8.433
N46130G1X8.331Y11.407
N46140G1X8.300Y11.433
N46150G1X9.303
N46160G1X9.396Y11.513
N46170G1X8.207
N46180G1X8.174Y11.542
N46190G1X8.135Y11.593
N46200G1X9.465
N46210G1X9.524Y11.673
N46220G1X8.927
N46230G1X8.970Y11.690
N46240G1X9.048Y11.750
N46250G1X9.051Y11.753
N46260G1X9.581
N46270G1X9.621Y11.833
N46280G1X9.121
N46290G1X9.179Y11.900
N46300G1X9.187Y11.913
N46310G1X9.661
N46320G1X9.669Y11.928
N46330G1X9.692Y11.993
N46340G1X9.234
N46350G1X9.273Y12.059
N46360G1X9.278Y12.073
N46370G1X9.722
N46380G1X9.740Y12.122
N46390G1X9.747Y12.153
N46400G1X9.305
N46410G1X9.331Y12.233
N46420G1X9.766
N46430G1X9.785Y12.313
N46440G1X9.348
N46450G1X9.361Y12.393
N46460G1X9.797
N46470G1X9.807Y12.473
N46480G1X9.375
N46490G1X9.379Y12.502
N46500G1X9.381Y12.553
N46510G1X9.816
N46520G1X9.819Y12.633
N46530G1X9.385
N46540G1X9.388Y12.713
N46550G1X9.821
N46560G1X9.822Y12.756
N46570G1X9.819Y12.793
N46580G1X9.389
N46590G1X9.382Y12.873
N46600G1X9.814
N46610G1X9.808Y12.953
N46620G1X9.375
N46630G1X9.368Y13.033
N46640G1X9.796
N46650G1X9.782Y13.113
N46660G1X9.351
N46670G1X9.332Y13.193
N46680G1X9.767
N46690G1X9.745Y13.273
N46700G1X9.313
N46710G1X9.305Y13.309
N46720G1X9.285Y13.353
N46730G1X9.722
N46740G1X9.714Y13.382
N46750G1X9.690Y13.433
N46760G1X9.250
N46770G1X9.215Y13.513
N46780G1X9.652
N46790G1X9.614Y13.593
N46800G1X9.168
N46810G1X9.136Y13.641
N46820G1X9.104Y13.673
N46830G1X9.576
