( SWITCH_PANELS_CUTOUT )
( File created: Friday December 13 2019 - 01:57 PM)
( USBCNC Postprocessor )
( Material Size)
( X= 250.000, Y= 250.000, Z= 2.000)
()
(Toolpaths used in this file:)
(Profile 1)
(Profile 2)
(Profile 3)
(Profile 4)
(Profile 5)
(Profile 6)
(Profile 7)
(Profile 8)
(Profile 9)
(Tools used in this file: )
(1 = End Mill {2 mm})
N180G00G21G17G90G40G49
N190G80
N200 (End Mill {2 mm})
N210G00G43Z20.000H1
N220S12000M03
N230(Toolpath:- Profile 1)
N240()
N250G94
N260X0.000Y0.000F3600.0
N270G00X-22.042Y5.596Z6.000
N280G1Z-0.500F1200.0
N290G1X-22.091Y5.405F3600.0
N300G1X-22.158Y5.222
N310G1X-22.242Y5.048
N320G1X-22.342Y4.883
N330G1X-22.457Y4.729
N340G1X-22.587Y4.587
N350G1X-22.729Y4.457
N360G1X-22.883Y4.342
N370G1X-23.048Y4.242
N380G1X-23.222Y4.158
N390G1X-23.405Y4.091
N400G1X-23.596Y4.042
N410G1X-23.794Y4.012
N420G1X-24.000Y4.001
N430G1X-24.206Y4.012
N440G1X-24.404Y4.042
N450G1X-24.595Y4.091
N460G1X-24.778Y4.158
N470G1X-24.952Y4.242
N480G1X-25.117Y4.342
N490G1X-25.271Y4.457
N500G1X-25.413Y4.587
N510G1X-25.543Y4.729
N520G1X-25.658Y4.883
N530G1X-25.758Y5.048
N540G1X-25.842Y5.222
N550G1X-25.909Y5.405
N560G1X-25.958Y5.596
N570G1X-25.988Y5.794
N580G1X-25.999Y6.000
N590G1X-25.988Y6.206
N600G1X-25.958Y6.404
N610G1X-25.909Y6.595
N620G1X-25.842Y6.778
N630G1X-25.758Y6.952
N640G1X-25.658Y7.117
N650G1X-25.543Y7.271
N660G1X-25.413Y7.413
N670G1X-25.271Y7.543
N680G1X-25.117Y7.658
N690G1X-24.952Y7.758
N700G1X-24.778Y7.842
N710G1X-24.595Y7.909
N720G1X-24.404Y7.958
N730G1X-24.206Y7.988
N740G1X-24.000Y7.999
N750G1X-23.794Y7.988
N760G1X-23.596Y7.958
N770G1X-23.405Y7.909
N780G1X-23.222Y7.842
N790G1X-23.048Y7.758
N800G1X-22.883Y7.658
N810G1X-22.729Y7.543
N820G1X-22.587Y7.413
N830G1X-22.457Y7.271
N840G1X-22.342Y7.117
N850G1X-22.242Y6.952
N860G1X-22.158Y6.778
N870G1X-22.091Y6.595
N880G1X-22.042Y6.404
N890G1X-22.012Y6.206
N900G1X-22.001Y6.000
N910G1X-22.012Y5.794
N920G1X-22.042Y5.596
N930G1Z-1.000F1200.0
N940G1X-22.091Y5.405F3600.0
N950G1X-22.158Y5.222
N960G1X-22.242Y5.048
N970G1X-22.342Y4.883
N980G1X-22.457Y4.729
N990G1X-22.587Y4.587
N1000G1X-22.729Y4.457
N1010G1X-22.883Y4.342
N1020G1X-23.048Y4.242
N1030G1X-23.222Y4.158
N1040G1X-23.405Y4.091
N1050G1X-23.596Y4.042
N1060G1X-23.794Y4.012
N1070G1X-24.000Y4.001
N1080G1X-24.206Y4.012
N1090G1X-24.404Y4.042
N1100G1X-24.595Y4.091
N1110G1X-24.778Y4.158
N1120G1X-24.952Y4.242
N1130G1X-25.117Y4.342
N1140G1X-25.271Y4.457
N1150G1X-25.413Y4.587
N1160G1X-25.543Y4.729
N1170G1X-25.658Y4.883
N1180G1X-25.758Y5.048
N1190G1X-25.842Y5.222
N1200G1X-25.909Y5.405
N1210G1X-25.958Y5.596
N1220G1X-25.988Y5.794
N1230G1X-25.999Y6.000
N1240G1X-25.988Y6.206
N1250G1X-25.958Y6.404
N1260G1X-25.909Y6.595
N1270G1X-25.842Y6.778
N1280G1X-25.758Y6.952
N1290G1X-25.658Y7.117
N1300G1X-25.543Y7.271
N1310G1X-25.413Y7.413
N1320G1X-25.271Y7.543
N1330G1X-25.117Y7.658
N1340G1X-24.952Y7.758
N1350G1X-24.778Y7.842
N1360G1X-24.595Y7.909
N1370G1X-24.404Y7.958
N1380G1X-24.206Y7.988
N1390G1X-24.000Y7.999
N1400G1X-23.794Y7.988
N1410G1X-23.596Y7.958
N1420G1X-23.405Y7.909
N1430G1X-23.222Y7.842
N1440G1X-23.048Y7.758
N1450G1X-22.883Y7.658
N1460G1X-22.729Y7.543
N1470G1X-22.587Y7.413
N1480G1X-22.457Y7.271
N1490G1X-22.342Y7.117
N1500G1X-22.242Y6.952
N1510G1X-22.158Y6.778
N1520G1X-22.091Y6.595
N1530G1X-22.042Y6.404
N1540G1X-22.012Y6.206
N1550G1X-22.001Y6.000
N1560G1X-22.012Y5.794
N1570G1X-22.042Y5.596
N1580G1Z-1.500F1200.0
N1590G1X-22.091Y5.405F3600.0
N1600G1X-22.158Y5.222
N1610G1X-22.242Y5.048
N1620G1X-22.342Y4.883
N1630G1X-22.457Y4.729
N1640G1X-22.587Y4.587
N1650G1X-22.729Y4.457
N1660G1X-22.883Y4.342
N1670G1X-23.048Y4.242
N1680G1X-23.222Y4.158
N1690G1X-23.405Y4.091
N1700G1X-23.596Y4.042
N1710G1X-23.794Y4.012
N1720G1X-24.000Y4.001
N1730G1X-24.206Y4.012
N1740G1X-24.404Y4.042
N1750G1X-24.595Y4.091
N1760G1X-24.778Y4.158
N1770G1X-24.952Y4.242
N1780G1X-25.117Y4.342
N1790G1X-25.271Y4.457
N1800G1X-25.413Y4.587
N1810G1X-25.543Y4.729
N1820G1X-25.658Y4.883
N1830G1X-25.758Y5.048
N1840G1X-25.842Y5.222
N1850G1X-25.909Y5.405
N1860G1X-25.958Y5.596
N1870G1X-25.988Y5.794
N1880G1X-25.999Y6.000
N1890G1X-25.988Y6.206
N1900G1X-25.958Y6.404
N1910G1X-25.909Y6.595
N1920G1X-25.842Y6.778
N1930G1X-25.758Y6.952
N1940G1X-25.658Y7.117
N1950G1X-25.543Y7.271
N1960G1X-25.413Y7.413
N1970G1X-25.271Y7.543
N1980G1X-25.117Y7.658
N1990G1X-24.952Y7.758
N2000G1X-24.778Y7.842
N2010G1X-24.595Y7.909
N2020G1X-24.404Y7.958
N2030G1X-24.206Y7.988
N2040G1X-24.000Y7.999
N2050G1X-23.794Y7.988
N2060G1X-23.596Y7.958
N2070G1X-23.405Y7.909
N2080G1X-23.222Y7.842
N2090G1X-23.048Y7.758
N2100G1X-22.883Y7.658
N2110G1X-22.729Y7.543
N2120G1X-22.587Y7.413
N2130G1X-22.457Y7.271
N2140G1X-22.342Y7.117
N2150G1X-22.242Y6.952
N2160G1X-22.158Y6.778
N2170G1X-22.091Y6.595
N2180G1X-22.042Y6.404
N2190G1X-22.012Y6.206
N2200G1X-22.001Y6.000
N2210G1X-22.012Y5.794
N2220G1X-22.042Y5.596
N2230G1Z-2.000F1200.0
N2240G1X-22.091Y5.405F3600.0
N2250G1X-22.158Y5.222
N2260G1X-22.242Y5.048
N2270G1X-22.342Y4.883
N2280G1X-22.457Y4.729
N2290G1X-22.587Y4.587
N2300G1X-22.729Y4.457
N2310G1X-22.883Y4.342
N2320G1X-23.048Y4.242
N2330G1X-23.222Y4.158
N2340G1X-23.405Y4.091
N2350G1X-23.596Y4.042
N2360G1X-23.794Y4.012
N2370G1X-24.000Y4.001
N2380G1X-24.206Y4.012
N2390G1X-24.404Y4.042
N2400G1X-24.595Y4.091
N2410G1X-24.778Y4.158
N2420G1X-24.952Y4.242
N2430G1X-25.117Y4.342
N2440G1X-25.271Y4.457
N2450G1X-25.413Y4.587
N2460G1X-25.543Y4.729
N2470G1X-25.658Y4.883
N2480G1X-25.758Y5.048
N2490G1X-25.842Y5.222
N2500G1X-25.909Y5.405
N2510G1X-25.958Y5.596
N2520G1X-25.988Y5.794
N2530G1X-25.999Y6.000
N2540G1X-25.988Y6.206
N2550G1X-25.958Y6.404
N2560G1X-25.909Y6.595
N2570G1X-25.842Y6.778
N2580G1X-25.758Y6.952
N2590G1X-25.658Y7.117
N2600G1X-25.543Y7.271
N2610G1X-25.413Y7.413
N2620G1X-25.271Y7.543
N2630G1X-25.117Y7.658
N2640G1X-24.952Y7.758
N2650G1X-24.778Y7.842
N2660G1X-24.595Y7.909
N2670G1X-24.404Y7.958
N2680G1X-24.206Y7.988
N2690G1X-24.000Y7.999
N2700G1X-23.794Y7.988
N2710G1X-23.596Y7.958
N2720G1X-23.405Y7.909
N2730G1X-23.222Y7.842
N2740G1X-23.048Y7.758
N2750G1X-22.883Y7.658
N2760G1X-22.729Y7.543
N2770G1X-22.587Y7.413
N2780G1X-22.457Y7.271
N2790G1X-22.342Y7.117
N2800G1X-22.242Y6.952
N2810G1X-22.158Y6.778
N2820G1X-22.091Y6.595
N2830G1X-22.042Y6.404
N2840G1X-22.012Y6.206
N2850G1X-22.001Y6.000
N2860G1X-22.012Y5.794
N2870G1X-22.042Y5.596
N2880G00Z6.000
N2890G00X-9.999Y6.000
N2900G1Z-0.500F1200.0
N2910G1X-9.988Y6.206F3600.0
N2920G1X-9.958Y6.404
N2930G1X-9.909Y6.595
N2940G1X-9.842Y6.778
N2950G1X-9.758Y6.952
N2960G1X-9.658Y7.117
N2970G1X-9.543Y7.271
N2980G1X-9.413Y7.413
N2990G1X-9.271Y7.543
N3000G1X-9.117Y7.658
N3010G1X-8.952Y7.758
N3020G1X-8.778Y7.842
N3030G1X-8.595Y7.909
N3040G1X-8.404Y7.958
N3050G1X-8.206Y7.988
N3060G1X-8.000Y7.999
N3070G1X-7.794Y7.988
N3080G1X-7.596Y7.958
N3090G1X-7.405Y7.909
N3100G1X-7.222Y7.842
N3110G1X-7.048Y7.758
N3120G1X-6.883Y7.658
N3130G1X-6.729Y7.543
N3140G1X-6.587Y7.413
N3150G1X-6.457Y7.271
N3160G1X-6.342Y7.117
N3170G1X-6.242Y6.952
N3180G1X-6.158Y6.778
N3190G1X-6.091Y6.595
N3200G1X-6.042Y6.404
N3210G1X-6.012Y6.206
N3220G1X-6.001Y6.000
N3230G1X-6.012Y5.794
N3240G1X-6.042Y5.596
N3250G1X-6.091Y5.405
N3260G1X-6.158Y5.222
N3270G1X-6.242Y5.048
N3280G1X-6.342Y4.883
N3290G1X-6.457Y4.729
N3300G1X-6.587Y4.587
N3310G1X-6.729Y4.457
N3320G1X-6.883Y4.342
N3330G1X-7.048Y4.242
N3340G1X-7.222Y4.158
N3350G1X-7.405Y4.091
N3360G1X-7.596Y4.042
N3370G1X-7.794Y4.012
N3380G1X-8.000Y4.001
N3390G1X-8.206Y4.012
N3400G1X-8.404Y4.042
N3410G1X-8.595Y4.091
N3420G1X-8.778Y4.158
N3430G1X-8.952Y4.242
N3440G1X-9.117Y4.342
N3450G1X-9.271Y4.457
N3460G1X-9.413Y4.587
N3470G1X-9.543Y4.729
N3480G1X-9.658Y4.883
N3490G1X-9.758Y5.048
N3500G1X-9.842Y5.222
N3510G1X-9.909Y5.405
N3520G1X-9.958Y5.596
N3530G1X-9.988Y5.794
N3540G1X-9.999Y6.000
N3550G1Z-1.000F1200.0
N3560G1X-9.988Y6.206F3600.0
N3570G1X-9.958Y6.404
N3580G1X-9.909Y6.595
N3590G1X-9.842Y6.778
N3600G1X-9.758Y6.952
N3610G1X-9.658Y7.117
N3620G1X-9.543Y7.271
N3630G1X-9.413Y7.413
N3640G1X-9.271Y7.543
N3650G1X-9.117Y7.658
N3660G1X-8.952Y7.758
N3670G1X-8.778Y7.842
N3680G1X-8.595Y7.909
N3690G1X-8.404Y7.958
N3700G1X-8.206Y7.988
N3710G1X-8.000Y7.999
N3720G1X-7.794Y7.988
N3730G1X-7.596Y7.958
N3740G1X-7.405Y7.909
N3750G1X-7.222Y7.842
N3760G1X-7.048Y7.758
N3770G1X-6.883Y7.658
N3780G1X-6.729Y7.543
N3790G1X-6.587Y7.413
N3800G1X-6.457Y7.271
N3810G1X-6.342Y7.117
N3820G1X-6.242Y6.952
N3830G1X-6.158Y6.778
N3840G1X-6.091Y6.595
N3850G1X-6.042Y6.404
N3860G1X-6.012Y6.206
N3870G1X-6.001Y6.000
N3880G1X-6.012Y5.794
N3890G1X-6.042Y5.596
N3900G1X-6.091Y5.405
N3910G1X-6.158Y5.222
N3920G1X-6.242Y5.048
N3930G1X-6.342Y4.883
N3940G1X-6.457Y4.729
N3950G1X-6.587Y4.587
N3960G1X-6.729Y4.457
N3970G1X-6.883Y4.342
N3980G1X-7.048Y4.242
N3990G1X-7.222Y4.158
N4000G1X-7.405Y4.091
N4010G1X-7.596Y4.042
N4020G1X-7.794Y4.012
N4030G1X-8.000Y4.001
N4040G1X-8.206Y4.012
N4050G1X-8.404Y4.042
N4060G1X-8.595Y4.091
N4070G1X-8.778Y4.158
N4080G1X-8.952Y4.242
N4090G1X-9.117Y4.342
N4100G1X-9.271Y4.457
N4110G1X-9.413Y4.587
N4120G1X-9.543Y4.729
N4130G1X-9.658Y4.883
N4140G1X-9.758Y5.048
N4150G1X-9.842Y5.222
N4160G1X-9.909Y5.405
N4170G1X-9.958Y5.596
N4180G1X-9.988Y5.794
N4190G1X-9.999Y6.000
N4200G1Z-1.500F1200.0
N4210G1X-9.988Y6.206F3600.0
N4220G1X-9.958Y6.404
N4230G1X-9.909Y6.595
N4240G1X-9.842Y6.778
N4250G1X-9.758Y6.952
N4260G1X-9.658Y7.117
N4270G1X-9.543Y7.271
N4280G1X-9.413Y7.413
N4290G1X-9.271Y7.543
N4300G1X-9.117Y7.658
N4310G1X-8.952Y7.758
N4320G1X-8.778Y7.842
N4330G1X-8.595Y7.909
N4340G1X-8.404Y7.958
N4350G1X-8.206Y7.988
N4360G1X-8.000Y7.999
N4370G1X-7.794Y7.988
N4380G1X-7.596Y7.958
N4390G1X-7.405Y7.909
N4400G1X-7.222Y7.842
N4410G1X-7.048Y7.758
N4420G1X-6.883Y7.658
N4430G1X-6.729Y7.543
N4440G1X-6.587Y7.413
N4450G1X-6.457Y7.271
N4460G1X-6.342Y7.117
N4470G1X-6.242Y6.952
N4480G1X-6.158Y6.778
N4490G1X-6.091Y6.595
N4500G1X-6.042Y6.404
N4510G1X-6.012Y6.206
N4520G1X-6.001Y6.000
N4530G1X-6.012Y5.794
N4540G1X-6.042Y5.596
N4550G1X-6.091Y5.405
N4560G1X-6.158Y5.222
N4570G1X-6.242Y5.048
N4580G1X-6.342Y4.883
N4590G1X-6.457Y4.729
N4600G1X-6.587Y4.587
N4610G1X-6.729Y4.457
N4620G1X-6.883Y4.342
N4630G1X-7.048Y4.242
N4640G1X-7.222Y4.158
N4650G1X-7.405Y4.091
N4660G1X-7.596Y4.042
N4670G1X-7.794Y4.012
N4680G1X-8.000Y4.001
N4690G1X-8.206Y4.012
N4700G1X-8.404Y4.042
N4710G1X-8.595Y4.091
N4720G1X-8.778Y4.158
N4730G1X-8.952Y4.242
N4740G1X-9.117Y4.342
N4750G1X-9.271Y4.457
N4760G1X-9.413Y4.587
N4770G1X-9.543Y4.729
N4780G1X-9.658Y4.883
N4790G1X-9.758Y5.048
N4800G1X-9.842Y5.222
N4810G1X-9.909Y5.405
N4820G1X-9.958Y5.596
N4830G1X-9.988Y5.794
N4840G1X-9.999Y6.000
N4850G1Z-2.000F1200.0
N4860G1X-9.988Y6.206F3600.0
N4870G1X-9.958Y6.404
N4880G1X-9.909Y6.595
N4890G1X-9.842Y6.778
N4900G1X-9.758Y6.952
N4910G1X-9.658Y7.117
N4920G1X-9.543Y7.271
N4930G1X-9.413Y7.413
N4940G1X-9.271Y7.543
N4950G1X-9.117Y7.658
N4960G1X-8.952Y7.758
N4970G1X-8.778Y7.842
N4980G1X-8.595Y7.909
N4990G1X-8.404Y7.958
N5000G1X-8.206Y7.988
N5010G1X-8.000Y7.999
N5020G1X-7.794Y7.988
N5030G1X-7.596Y7.958
N5040G1X-7.405Y7.909
N5050G1X-7.222Y7.842
N5060G1X-7.048Y7.758
N5070G1X-6.883Y7.658
N5080G1X-6.729Y7.543
N5090G1X-6.587Y7.413
N5100G1X-6.457Y7.271
N5110G1X-6.342Y7.117
N5120G1X-6.242Y6.952
N5130G1X-6.158Y6.778
N5140G1X-6.091Y6.595
N5150G1X-6.042Y6.404
N5160G1X-6.012Y6.206
N5170G1X-6.001Y6.000
N5180G1X-6.012Y5.794
N5190G1X-6.042Y5.596
N5200G1X-6.091Y5.405
N5210G1X-6.158Y5.222
N5220G1X-6.242Y5.048
N5230G1X-6.342Y4.883
N5240G1X-6.457Y4.729
N5250G1X-6.587Y4.587
N5260G1X-6.729Y4.457
N5270G1X-6.883Y4.342
N5280G1X-7.048Y4.242
N5290G1X-7.222Y4.158
N5300G1X-7.405Y4.091
N5310G1X-7.596Y4.042
N5320G1X-7.794Y4.012
N5330G1X-8.000Y4.001
N5340G1X-8.206Y4.012
N5350G1X-8.404Y4.042
N5360G1X-8.595Y4.091
N5370G1X-8.778Y4.158
N5380G1X-8.952Y4.242
N5390G1X-9.117Y4.342
N5400G1X-9.271Y4.457
N5410G1X-9.413Y4.587
N5420G1X-9.543Y4.729
N5430G1X-9.658Y4.883
N5440G1X-9.758Y5.048
N5450G1X-9.842Y5.222
N5460G1X-9.909Y5.405
N5470G1X-9.958Y5.596
N5480G1X-9.988Y5.794
N5490G1X-9.999Y6.000
N5500G00Z6.000
N5510G00X6.001
N5520G1Z-0.500F1200.0
N5530G1X6.012Y6.206F3600.0
N5540G1X6.042Y6.404
N5550G1X6.091Y6.595
N5560G1X6.158Y6.778
N5570G1X6.242Y6.952
N5580G1X6.342Y7.117
N5590G1X6.457Y7.271
N5600G1X6.587Y7.413
N5610G1X6.729Y7.543
N5620G1X6.883Y7.658
N5630G1X7.048Y7.758
N5640G1X7.222Y7.842
N5650G1X7.405Y7.909
N5660G1X7.596Y7.958
N5670G1X7.794Y7.988
N5680G1X8.000Y7.999
N5690G1X8.206Y7.988
N5700G1X8.404Y7.958
N5710G1X8.595Y7.909
N5720G1X8.778Y7.842
N5730G1X8.952Y7.758
N5740G1X9.117Y7.658
N5750G1X9.271Y7.543
N5760G1X9.413Y7.413
N5770G1X9.543Y7.271
N5780G1X9.658Y7.117
N5790G1X9.758Y6.952
N5800G1X9.842Y6.778
N5810G1X9.909Y6.595
N5820G1X9.958Y6.404
N5830G1X9.988Y6.206
N5840G1X9.999Y6.000
N5850G1X9.988Y5.794
N5860G1X9.958Y5.596
N5870G1X9.909Y5.405
N5880G1X9.842Y5.222
N5890G1X9.758Y5.048
N5900G1X9.658Y4.883
N5910G1X9.543Y4.729
N5920G1X9.413Y4.587
N5930G1X9.271Y4.457
N5940G1X9.117Y4.342
N5950G1X8.952Y4.242
N5960G1X8.778Y4.158
N5970G1X8.595Y4.091
N5980G1X8.404Y4.042
N5990G1X8.206Y4.012
N6000G1X8.000Y4.001
N6010G1X7.794Y4.012
N6020G1X7.596Y4.042
N6030G1X7.405Y4.091
N6040G1X7.222Y4.158
N6050G1X7.048Y4.242
N6060G1X6.883Y4.342
N6070G1X6.729Y4.457
N6080G1X6.587Y4.587
N6090G1X6.457Y4.729
N6100G1X6.342Y4.883
N6110G1X6.242Y5.048
N6120G1X6.158Y5.222
N6130G1X6.091Y5.405
N6140G1X6.042Y5.596
N6150G1X6.012Y5.794
N6160G1X6.001Y6.000
N6170G1Z-1.000F1200.0
N6180G1X6.012Y6.206F3600.0
N6190G1X6.042Y6.404
N6200G1X6.091Y6.595
N6210G1X6.158Y6.778
N6220G1X6.242Y6.952
N6230G1X6.342Y7.117
N6240G1X6.457Y7.271
N6250G1X6.587Y7.413
N6260G1X6.729Y7.543
N6270G1X6.883Y7.658
N6280G1X7.048Y7.758
N6290G1X7.222Y7.842
N6300G1X7.405Y7.909
N6310G1X7.596Y7.958
N6320G1X7.794Y7.988
N6330G1X8.000Y7.999
N6340G1X8.206Y7.988
N6350G1X8.404Y7.958
N6360G1X8.595Y7.909
N6370G1X8.778Y7.842
N6380G1X8.952Y7.758
N6390G1X9.117Y7.658
N6400G1X9.271Y7.543
N6410G1X9.413Y7.413
N6420G1X9.543Y7.271
N6430G1X9.658Y7.117
N6440G1X9.758Y6.952
N6450G1X9.842Y6.778
N6460G1X9.909Y6.595
N6470G1X9.958Y6.404
N6480G1X9.988Y6.206
N6490G1X9.999Y6.000
N6500G1X9.988Y5.794
N6510G1X9.958Y5.596
N6520G1X9.909Y5.405
N6530G1X9.842Y5.222
N6540G1X9.758Y5.048
N6550G1X9.658Y4.883
N6560G1X9.543Y4.729
N6570G1X9.413Y4.587
N6580G1X9.271Y4.457
N6590G1X9.117Y4.342
N6600G1X8.952Y4.242
N6610G1X8.778Y4.158
N6620G1X8.595Y4.091
N6630G1X8.404Y4.042
N6640G1X8.206Y4.012
N6650G1X8.000Y4.001
N6660G1X7.794Y4.012
N6670G1X7.596Y4.042
N6680G1X7.405Y4.091
N6690G1X7.222Y4.158
N6700G1X7.048Y4.242
N6710G1X6.883Y4.342
N6720G1X6.729Y4.457
N6730G1X6.587Y4.587
N6740G1X6.457Y4.729
N6750G1X6.342Y4.883
N6760G1X6.242Y5.048
N6770G1X6.158Y5.222
N6780G1X6.091Y5.405
N6790G1X6.042Y5.596
N6800G1X6.012Y5.794
N6810G1X6.001Y6.000
N6820G1Z-1.500F1200.0
N6830G1X6.012Y6.206F3600.0
N6840G1X6.042Y6.404
N6850G1X6.091Y6.595
N6860G1X6.158Y6.778
N6870G1X6.242Y6.952
N6880G1X6.342Y7.117
N6890G1X6.457Y7.271
N6900G1X6.587Y7.413
N6910G1X6.729Y7.543
N6920G1X6.883Y7.658
N6930G1X7.048Y7.758
N6940G1X7.222Y7.842
N6950G1X7.405Y7.909
N6960G1X7.596Y7.958
N6970G1X7.794Y7.988
N6980G1X8.000Y7.999
N6990G1X8.206Y7.988
N7000G1X8.404Y7.958
N7010G1X8.595Y7.909
N7020G1X8.778Y7.842
N7030G1X8.952Y7.758
N7040G1X9.117Y7.658
N7050G1X9.271Y7.543
N7060G1X9.413Y7.413
N7070G1X9.543Y7.271
N7080G1X9.658Y7.117
N7090G1X9.758Y6.952
N7100G1X9.842Y6.778
N7110G1X9.909Y6.595
N7120G1X9.958Y6.404
N7130G1X9.988Y6.206
N7140G1X9.999Y6.000
N7150G1X9.988Y5.794
N7160G1X9.958Y5.596
N7170G1X9.909Y5.405
N7180G1X9.842Y5.222
N7190G1X9.758Y5.048
N7200G1X9.658Y4.883
N7210G1X9.543Y4.729
N7220G1X9.413Y4.587
N7230G1X9.271Y4.457
N7240G1X9.117Y4.342
N7250G1X8.952Y4.242
N7260G1X8.778Y4.158
N7270G1X8.595Y4.091
N7280G1X8.404Y4.042
N7290G1X8.206Y4.012
N7300G1X8.000Y4.001
N7310G1X7.794Y4.012
N7320G1X7.596Y4.042
N7330G1X7.405Y4.091
N7340G1X7.222Y4.158
N7350G1X7.048Y4.242
N7360G1X6.883Y4.342
N7370G1X6.729Y4.457
N7380G1X6.587Y4.587
N7390G1X6.457Y4.729
N7400G1X6.342Y4.883
N7410G1X6.242Y5.048
N7420G1X6.158Y5.222
N7430G1X6.091Y5.405
N7440G1X6.042Y5.596
N7450G1X6.012Y5.794
N7460G1X6.001Y6.000
N7470G1Z-2.000F1200.0
N7480G1X6.012Y6.206F3600.0
N7490G1X6.042Y6.404
N7500G1X6.091Y6.595
N7510G1X6.158Y6.778
N7520G1X6.242Y6.952
N7530G1X6.342Y7.117
N7540G1X6.457Y7.271
N7550G1X6.587Y7.413
N7560G1X6.729Y7.543
N7570G1X6.883Y7.658
N7580G1X7.048Y7.758
N7590G1X7.222Y7.842
N7600G1X7.405Y7.909
N7610G1X7.596Y7.958
N7620G1X7.794Y7.988
N7630G1X8.000Y7.999
N7640G1X8.206Y7.988
N7650G1X8.404Y7.958
N7660G1X8.595Y7.909
N7670G1X8.778Y7.842
N7680G1X8.952Y7.758
N7690G1X9.117Y7.658
N7700G1X9.271Y7.543
N7710G1X9.413Y7.413
N7720G1X9.543Y7.271
N7730G1X9.658Y7.117
N7740G1X9.758Y6.952
N7750G1X9.842Y6.778
N7760G1X9.909Y6.595
N7770G1X9.958Y6.404
N7780G1X9.988Y6.206
N7790G1X9.999Y6.000
N7800G1X9.988Y5.794
N7810G1X9.958Y5.596
N7820G1X9.909Y5.405
N7830G1X9.842Y5.222
N7840G1X9.758Y5.048
N7850G1X9.658Y4.883
N7860G1X9.543Y4.729
N7870G1X9.413Y4.587
N7880G1X9.271Y4.457
N7890G1X9.117Y4.342
N7900G1X8.952Y4.242
N7910G1X8.778Y4.158
N7920G1X8.595Y4.091
N7930G1X8.404Y4.042
N7940G1X8.206Y4.012
N7950G1X8.000Y4.001
N7960G1X7.794Y4.012
N7970G1X7.596Y4.042
N7980G1X7.405Y4.091
N7990G1X7.222Y4.158
N8000G1X7.048Y4.242
N8010G1X6.883Y4.342
N8020G1X6.729Y4.457
N8030G1X6.587Y4.587
N8040G1X6.457Y4.729
N8050G1X6.342Y4.883
N8060G1X6.242Y5.048
N8070G1X6.158Y5.222
N8080G1X6.091Y5.405
N8090G1X6.042Y5.596
N8100G1X6.012Y5.794
N8110G1X6.001Y6.000
N8120G00Z6.000
N8130G00X22.001
N8140G1Z-0.500F1200.0
N8150G1X22.012Y6.206F3600.0
N8160G1X22.042Y6.404
N8170G1X22.091Y6.595
N8180G1X22.158Y6.778
N8190G1X22.242Y6.952
N8200G1X22.342Y7.117
N8210G1X22.457Y7.271
N8220G1X22.587Y7.413
N8230G1X22.729Y7.543
N8240G1X22.883Y7.658
N8250G1X23.048Y7.758
N8260G1X23.222Y7.842
N8270G1X23.405Y7.909
N8280G1X23.596Y7.958
N8290G1X23.794Y7.988
N8300G1X24.000Y7.999
N8310G1X24.206Y7.988
N8320G1X24.404Y7.958
N8330G1X24.595Y7.909
N8340G1X24.778Y7.842
N8350G1X24.952Y7.758
N8360G1X25.117Y7.658
N8370G1X25.271Y7.543
N8380G1X25.413Y7.413
N8390G1X25.543Y7.271
N8400G1X25.658Y7.117
N8410G1X25.758Y6.952
N8420G1X25.842Y6.778
N8430G1X25.909Y6.595
N8440G1X25.958Y6.404
N8450G1X25.988Y6.206
N8460G1X25.999Y6.000
N8470G1X25.988Y5.794
N8480G1X25.958Y5.596
N8490G1X25.909Y5.405
N8500G1X25.842Y5.222
N8510G1X25.758Y5.048
N8520G1X25.658Y4.883
N8530G1X25.543Y4.729
N8540G1X25.413Y4.587
N8550G1X25.271Y4.457
N8560G1X25.117Y4.342
N8570G1X24.952Y4.242
N8580G1X24.778Y4.158
N8590G1X24.595Y4.091
N8600G1X24.404Y4.042
N8610G1X24.206Y4.012
N8620G1X24.000Y4.001
N8630G1X23.794Y4.012
N8640G1X23.596Y4.042
N8650G1X23.405Y4.091
N8660G1X23.222Y4.158
N8670G1X23.048Y4.242
N8680G1X22.883Y4.342
N8690G1X22.729Y4.457
N8700G1X22.587Y4.587
N8710G1X22.457Y4.729
N8720G1X22.342Y4.883
N8730G1X22.242Y5.048
N8740G1X22.158Y5.222
N8750G1X22.091Y5.405
N8760G1X22.042Y5.596
N8770G1X22.012Y5.794
N8780G1X22.001Y6.000
N8790G1Z-1.000F1200.0
N8800G1X22.012Y6.206F3600.0
N8810G1X22.042Y6.404
N8820G1X22.091Y6.595
N8830G1X22.158Y6.778
N8840G1X22.242Y6.952
N8850G1X22.342Y7.117
N8860G1X22.457Y7.271
N8870G1X22.587Y7.413
N8880G1X22.729Y7.543
N8890G1X22.883Y7.658
N8900G1X23.048Y7.758
N8910G1X23.222Y7.842
N8920G1X23.405Y7.909
N8930G1X23.596Y7.958
N8940G1X23.794Y7.988
N8950G1X24.000Y7.999
N8960G1X24.206Y7.988
N8970G1X24.404Y7.958
N8980G1X24.595Y7.909
N8990G1X24.778Y7.842
N9000G1X24.952Y7.758
N9010G1X25.117Y7.658
N9020G1X25.271Y7.543
N9030G1X25.413Y7.413
N9040G1X25.543Y7.271
N9050G1X25.658Y7.117
N9060G1X25.758Y6.952
N9070G1X25.842Y6.778
N9080G1X25.909Y6.595
N9090G1X25.958Y6.404
N9100G1X25.988Y6.206
N9110G1X25.999Y6.000
N9120G1X25.988Y5.794
N9130G1X25.958Y5.596
N9140G1X25.909Y5.405
N9150G1X25.842Y5.222
N9160G1X25.758Y5.048
N9170G1X25.658Y4.883
N9180G1X25.543Y4.729
N9190G1X25.413Y4.587
N9200G1X25.271Y4.457
N9210G1X25.117Y4.342
N9220G1X24.952Y4.242
N9230G1X24.778Y4.158
N9240G1X24.595Y4.091
N9250G1X24.404Y4.042
N9260G1X24.206Y4.012
N9270G1X24.000Y4.001
N9280G1X23.794Y4.012
N9290G1X23.596Y4.042
N9300G1X23.405Y4.091
N9310G1X23.222Y4.158
N9320G1X23.048Y4.242
N9330G1X22.883Y4.342
N9340G1X22.729Y4.457
N9350G1X22.587Y4.587
N9360G1X22.457Y4.729
N9370G1X22.342Y4.883
N9380G1X22.242Y5.048
N9390G1X22.158Y5.222
N9400G1X22.091Y5.405
N9410G1X22.042Y5.596
N9420G1X22.012Y5.794
N9430G1X22.001Y6.000
N9440G1Z-1.500F1200.0
N9450G1X22.012Y6.206F3600.0
N9460G1X22.042Y6.404
N9470G1X22.091Y6.595
N9480G1X22.158Y6.778
N9490G1X22.242Y6.952
N9500G1X22.342Y7.117
N9510G1X22.457Y7.271
N9520G1X22.587Y7.413
N9530G1X22.729Y7.543
N9540G1X22.883Y7.658
N9550G1X23.048Y7.758
N9560G1X23.222Y7.842
N9570G1X23.405Y7.909
N9580G1X23.596Y7.958
N9590G1X23.794Y7.988
N9600G1X24.000Y7.999
N9610G1X24.206Y7.988
N9620G1X24.404Y7.958
N9630G1X24.595Y7.909
N9640G1X24.778Y7.842
N9650G1X24.952Y7.758
N9660G1X25.117Y7.658
N9670G1X25.271Y7.543
N9680G1X25.413Y7.413
N9690G1X25.543Y7.271
N9700G1X25.658Y7.117
N9710G1X25.758Y6.952
N9720G1X25.842Y6.778
N9730G1X25.909Y6.595
N9740G1X25.958Y6.404
N9750G1X25.988Y6.206
N9760G1X25.999Y6.000
N9770G1X25.988Y5.794
N9780G1X25.958Y5.596
N9790G1X25.909Y5.405
N9800G1X25.842Y5.222
N9810G1X25.758Y5.048
N9820G1X25.658Y4.883
N9830G1X25.543Y4.729
N9840G1X25.413Y4.587
N9850G1X25.271Y4.457
N9860G1X25.117Y4.342
N9870G1X24.952Y4.242
N9880G1X24.778Y4.158
N9890G1X24.595Y4.091
N9900G1X24.404Y4.042
N9910G1X24.206Y4.012
N9920G1X24.000Y4.001
N9930G1X23.794Y4.012
N9940G1X23.596Y4.042
N9950G1X23.405Y4.091
N9960G1X23.222Y4.158
N9970G1X23.048Y4.242
N9980G1X22.883Y4.342
N9990G1X22.729Y4.457
N10000G1X22.587Y4.587
N10010G1X22.457Y4.729
N10020G1X22.342Y4.883
N10030G1X22.242Y5.048
N10040G1X22.158Y5.222
N10050G1X22.091Y5.405
N10060G1X22.042Y5.596
N10070G1X22.012Y5.794
N10080G1X22.001Y6.000
N10090G1Z-2.000F1200.0
N10100G1X22.012Y6.206F3600.0
N10110G1X22.042Y6.404
N10120G1X22.091Y6.595
N10130G1X22.158Y6.778
N10140G1X22.242Y6.952
N10150G1X22.342Y7.117
N10160G1X22.457Y7.271
N10170G1X22.587Y7.413
N10180G1X22.729Y7.543
N10190G1X22.883Y7.658
N10200G1X23.048Y7.758
N10210G1X23.222Y7.842
N10220G1X23.405Y7.909
N10230G1X23.596Y7.958
N10240G1X23.794Y7.988
N10250G1X24.000Y7.999
N10260G1X24.206Y7.988
N10270G1X24.404Y7.958
N10280G1X24.595Y7.909
N10290G1X24.778Y7.842
N10300G1X24.952Y7.758
N10310G1X25.117Y7.658
N10320G1X25.271Y7.543
N10330G1X25.413Y7.413
N10340G1X25.543Y7.271
N10350G1X25.658Y7.117
N10360G1X25.758Y6.952
N10370G1X25.842Y6.778
N10380G1X25.909Y6.595
N10390G1X25.958Y6.404
N10400G1X25.988Y6.206
N10410G1X25.999Y6.000
N10420G1X25.988Y5.794
N10430G1X25.958Y5.596
N10440G1X25.909Y5.405
N10450G1X25.842Y5.222
N10460G1X25.758Y5.048
N10470G1X25.658Y4.883
N10480G1X25.543Y4.729
N10490G1X25.413Y4.587
N10500G1X25.271Y4.457
N10510G1X25.117Y4.342
N10520G1X24.952Y4.242
N10530G1X24.778Y4.158
N10540G1X24.595Y4.091
N10550G1X24.404Y4.042
N10560G1X24.206Y4.012
N10570G1X24.000Y4.001
N10580G1X23.794Y4.012
N10590G1X23.596Y4.042
N10600G1X23.405Y4.091
N10610G1X23.222Y4.158
N10620G1X23.048Y4.242
N10630G1X22.883Y4.342
N10640G1X22.729Y4.457
N10650G1X22.587Y4.587
N10660G1X22.457Y4.729
N10670G1X22.342Y4.883
N10680G1X22.242Y5.048
N10690G1X22.158Y5.222
N10700G1X22.091Y5.405
N10710G1X22.042Y5.596
N10720G1X22.012Y5.794
N10730G1X22.001Y6.000
N10740G00Z6.000
N10750G00X-22.158Y-13.222
N10760G1Z-0.500F1200.0
N10770G1X-22.091Y-13.405F3600.0
N10780G1X-22.042Y-13.596
N10790G1X-22.012Y-13.794
N10800G1X-22.001Y-14.000
N10810G1X-22.012Y-14.206
N10820G1X-22.042Y-14.404
N10830G1X-22.091Y-14.595
N10840G1X-22.158Y-14.778
N10850G1X-22.242Y-14.952
N10860G1X-22.342Y-15.117
N10870G1X-22.457Y-15.271
N10880G1X-22.587Y-15.413
N10890G1X-22.729Y-15.543
N10900G1X-22.883Y-15.658
N10910G1X-23.048Y-15.758
N10920G1X-23.222Y-15.842
N10930G1X-23.405Y-15.909
N10940G1X-23.596Y-15.958
N10950G1X-23.794Y-15.988
N10960G1X-24.000Y-15.999
N10970G1X-24.206Y-15.988
N10980G1X-24.404Y-15.958
N10990G1X-24.595Y-15.909
N11000G1X-24.778Y-15.842
N11010G1X-24.952Y-15.758
N11020G1X-25.117Y-15.658
N11030G1X-25.271Y-15.543
N11040G1X-25.413Y-15.413
N11050G1X-25.543Y-15.271
N11060G1X-25.658Y-15.117
N11070G1X-25.758Y-14.952
N11080G1X-25.842Y-14.778
N11090G1X-25.909Y-14.595
N11100G1X-25.958Y-14.404
N11110G1X-25.988Y-14.206
N11120G1X-25.999Y-14.000
N11130G1X-25.988Y-13.794
N11140G1X-25.958Y-13.596
N11150G1X-25.909Y-13.405
N11160G1X-25.842Y-13.222
N11170G1X-25.758Y-13.048
N11180G1X-25.658Y-12.883
N11190G1X-25.543Y-12.729
N11200G1X-25.413Y-12.587
N11210G1X-25.271Y-12.457
N11220G1X-25.117Y-12.342
N11230G1X-24.952Y-12.242
N11240G1X-24.778Y-12.158
N11250G1X-24.595Y-12.091
N11260G1X-24.404Y-12.042
N11270G1X-24.206Y-12.012
N11280G1X-24.000Y-12.001
N11290G1X-23.794Y-12.012
N11300G1X-23.596Y-12.042
N11310G1X-23.405Y-12.091
N11320G1X-23.222Y-12.158
N11330G1X-23.048Y-12.242
N11340G1X-22.883Y-12.342
N11350G1X-22.729Y-12.457
N11360G1X-22.587Y-12.587
N11370G1X-22.457Y-12.729
N11380G1X-22.342Y-12.883
N11390G1X-22.242Y-13.048
N11400G1X-22.158Y-13.222
N11410G1Z-1.000F1200.0
N11420G1X-22.091Y-13.405F3600.0
N11430G1X-22.042Y-13.596
N11440G1X-22.012Y-13.794
N11450G1X-22.001Y-14.000
N11460G1X-22.012Y-14.206
N11470G1X-22.042Y-14.404
N11480G1X-22.091Y-14.595
N11490G1X-22.158Y-14.778
N11500G1X-22.242Y-14.952
N11510G1X-22.342Y-15.117
N11520G1X-22.457Y-15.271
N11530G1X-22.587Y-15.413
N11540G1X-22.729Y-15.543
N11550G1X-22.883Y-15.658
N11560G1X-23.048Y-15.758
N11570G1X-23.222Y-15.842
N11580G1X-23.405Y-15.909
N11590G1X-23.596Y-15.958
N11600G1X-23.794Y-15.988
N11610G1X-24.000Y-15.999
N11620G1X-24.206Y-15.988
N11630G1X-24.404Y-15.958
N11640G1X-24.595Y-15.909
N11650G1X-24.778Y-15.842
N11660G1X-24.952Y-15.758
N11670G1X-25.117Y-15.658
N11680G1X-25.271Y-15.543
N11690G1X-25.413Y-15.413
N11700G1X-25.543Y-15.271
N11710G1X-25.658Y-15.117
N11720G1X-25.758Y-14.952
N11730G1X-25.842Y-14.778
N11740G1X-25.909Y-14.595
N11750G1X-25.958Y-14.404
N11760G1X-25.988Y-14.206
N11770G1X-25.999Y-14.000
N11780G1X-25.988Y-13.794
N11790G1X-25.958Y-13.596
N11800G1X-25.909Y-13.405
N11810G1X-25.842Y-13.222
N11820G1X-25.758Y-13.048
N11830G1X-25.658Y-12.883
N11840G1X-25.543Y-12.729
N11850G1X-25.413Y-12.587
N11860G1X-25.271Y-12.457
N11870G1X-25.117Y-12.342
N11880G1X-24.952Y-12.242
N11890G1X-24.778Y-12.158
N11900G1X-24.595Y-12.091
N11910G1X-24.404Y-12.042
N11920G1X-24.206Y-12.012
N11930G1X-24.000Y-12.001
N11940G1X-23.794Y-12.012
N11950G1X-23.596Y-12.042
N11960G1X-23.405Y-12.091
N11970G1X-23.222Y-12.158
N11980G1X-23.048Y-12.242
N11990G1X-22.883Y-12.342
N12000G1X-22.729Y-12.457
N12010G1X-22.587Y-12.587
N12020G1X-22.457Y-12.729
N12030G1X-22.342Y-12.883
N12040G1X-22.242Y-13.048
N12050G1X-22.158Y-13.222
N12060G1Z-1.500F1200.0
N12070G1X-22.091Y-13.405F3600.0
N12080G1X-22.042Y-13.596
N12090G1X-22.012Y-13.794
N12100G1X-22.001Y-14.000
N12110G1X-22.012Y-14.206
N12120G1X-22.042Y-14.404
N12130G1X-22.091Y-14.595
N12140G1X-22.158Y-14.778
N12150G1X-22.242Y-14.952
N12160G1X-22.342Y-15.117
N12170G1X-22.457Y-15.271
N12180G1X-22.587Y-15.413
N12190G1X-22.729Y-15.543
N12200G1X-22.883Y-15.658
N12210G1X-23.048Y-15.758
N12220G1X-23.222Y-15.842
N12230G1X-23.405Y-15.909
N12240G1X-23.596Y-15.958
N12250G1X-23.794Y-15.988
N12260G1X-24.000Y-15.999
N12270G1X-24.206Y-15.988
N12280G1X-24.404Y-15.958
N12290G1X-24.595Y-15.909
N12300G1X-24.778Y-15.842
N12310G1X-24.952Y-15.758
N12320G1X-25.117Y-15.658
N12330G1X-25.271Y-15.543
N12340G1X-25.413Y-15.413
N12350G1X-25.543Y-15.271
N12360G1X-25.658Y-15.117
N12370G1X-25.758Y-14.952
N12380G1X-25.842Y-14.778
N12390G1X-25.909Y-14.595
N12400G1X-25.958Y-14.404
N12410G1X-25.988Y-14.206
N12420G1X-25.999Y-14.000
N12430G1X-25.988Y-13.794
N12440G1X-25.958Y-13.596
N12450G1X-25.909Y-13.405
N12460G1X-25.842Y-13.222
N12470G1X-25.758Y-13.048
N12480G1X-25.658Y-12.883
N12490G1X-25.543Y-12.729
N12500G1X-25.413Y-12.587
N12510G1X-25.271Y-12.457
N12520G1X-25.117Y-12.342
N12530G1X-24.952Y-12.242
N12540G1X-24.778Y-12.158
N12550G1X-24.595Y-12.091
N12560G1X-24.404Y-12.042
N12570G1X-24.206Y-12.012
N12580G1X-24.000Y-12.001
N12590G1X-23.794Y-12.012
N12600G1X-23.596Y-12.042
N12610G1X-23.405Y-12.091
N12620G1X-23.222Y-12.158
N12630G1X-23.048Y-12.242
N12640G1X-22.883Y-12.342
N12650G1X-22.729Y-12.457
N12660G1X-22.587Y-12.587
N12670G1X-22.457Y-12.729
N12680G1X-22.342Y-12.883
N12690G1X-22.242Y-13.048
N12700G1X-22.158Y-13.222
N12710G1Z-2.000F1200.0
N12720G1X-22.091Y-13.405F3600.0
N12730G1X-22.042Y-13.596
N12740G1X-22.012Y-13.794
N12750G1X-22.001Y-14.000
N12760G1X-22.012Y-14.206
N12770G1X-22.042Y-14.404
N12780G1X-22.091Y-14.595
N12790G1X-22.158Y-14.778
N12800G1X-22.242Y-14.952
N12810G1X-22.342Y-15.117
N12820G1X-22.457Y-15.271
N12830G1X-22.587Y-15.413
N12840G1X-22.729Y-15.543
N12850G1X-22.883Y-15.658
N12860G1X-23.048Y-15.758
N12870G1X-23.222Y-15.842
N12880G1X-23.405Y-15.909
N12890G1X-23.596Y-15.958
N12900G1X-23.794Y-15.988
N12910G1X-24.000Y-15.999
N12920G1X-24.206Y-15.988
N12930G1X-24.404Y-15.958
N12940G1X-24.595Y-15.909
N12950G1X-24.778Y-15.842
N12960G1X-24.952Y-15.758
N12970G1X-25.117Y-15.658
N12980G1X-25.271Y-15.543
N12990G1X-25.413Y-15.413
N13000G1X-25.543Y-15.271
N13010G1X-25.658Y-15.117
N13020G1X-25.758Y-14.952
N13030G1X-25.842Y-14.778
N13040G1X-25.909Y-14.595
N13050G1X-25.958Y-14.404
N13060G1X-25.988Y-14.206
N13070G1X-25.999Y-14.000
N13080G1X-25.988Y-13.794
N13090G1X-25.958Y-13.596
N13100G1X-25.909Y-13.405
N13110G1X-25.842Y-13.222
N13120G1X-25.758Y-13.048
N13130G1X-25.658Y-12.883
N13140G1X-25.543Y-12.729
N13150G1X-25.413Y-12.587
N13160G1X-25.271Y-12.457
N13170G1X-25.117Y-12.342
N13180G1X-24.952Y-12.242
N13190G1X-24.778Y-12.158
N13200G1X-24.595Y-12.091
N13210G1X-24.404Y-12.042
N13220G1X-24.206Y-12.012
N13230G1X-24.000Y-12.001
N13240G1X-23.794Y-12.012
N13250G1X-23.596Y-12.042
N13260G1X-23.405Y-12.091
N13270G1X-23.222Y-12.158
N13280G1X-23.048Y-12.242
N13290G1X-22.883Y-12.342
N13300G1X-22.729Y-12.457
N13310G1X-22.587Y-12.587
N13320G1X-22.457Y-12.729
N13330G1X-22.342Y-12.883
N13340G1X-22.242Y-13.048
N13350G1X-22.158Y-13.222
N13360G00Z6.000
N13370G00X-9.988Y-13.794
N13380G1Z-0.500F1200.0
N13390G1X-9.958Y-13.596F3600.0
N13400G1X-9.909Y-13.405
N13410G1X-9.842Y-13.222
N13420G1X-9.758Y-13.048
N13430G1X-9.658Y-12.883
N13440G1X-9.543Y-12.729
N13450G1X-9.413Y-12.587
N13460G1X-9.271Y-12.457
N13470G1X-9.117Y-12.342
N13480G1X-8.952Y-12.242
N13490G1X-8.778Y-12.158
N13500G1X-8.595Y-12.091
N13510G1X-8.404Y-12.042
N13520G1X-8.206Y-12.012
N13530G1X-8.000Y-12.001
N13540G1X-7.794Y-12.012
N13550G1X-7.596Y-12.042
N13560G1X-7.405Y-12.091
N13570G1X-7.222Y-12.158
N13580G1X-7.048Y-12.242
N13590G1X-6.883Y-12.342
N13600G1X-6.729Y-12.457
N13610G1X-6.587Y-12.587
N13620G1X-6.457Y-12.729
N13630G1X-6.342Y-12.883
N13640G1X-6.242Y-13.048
N13650G1X-6.158Y-13.222
N13660G1X-6.091Y-13.405
N13670G1X-6.042Y-13.596
N13680G1X-6.012Y-13.794
N13690G1X-6.001Y-14.000
N13700G1X-6.012Y-14.206
N13710G1X-6.042Y-14.404
N13720G1X-6.091Y-14.595
N13730G1X-6.158Y-14.778
N13740G1X-6.242Y-14.952
N13750G1X-6.342Y-15.117
N13760G1X-6.457Y-15.271
N13770G1X-6.587Y-15.413
N13780G1X-6.729Y-15.543
N13790G1X-6.883Y-15.658
N13800G1X-7.048Y-15.758
N13810G1X-7.222Y-15.842
N13820G1X-7.405Y-15.909
N13830G1X-7.596Y-15.958
N13840G1X-7.794Y-15.988
N13850G1X-8.000Y-15.999
N13860G1X-8.206Y-15.988
N13870G1X-8.404Y-15.958
N13880G1X-8.595Y-15.909
N13890G1X-8.778Y-15.842
N13900G1X-8.952Y-15.758
N13910G1X-9.117Y-15.658
N13920G1X-9.271Y-15.543
N13930G1X-9.413Y-15.413
N13940G1X-9.543Y-15.271
N13950G1X-9.658Y-15.117
N13960G1X-9.758Y-14.952
N13970G1X-9.842Y-14.778
N13980G1X-9.909Y-14.595
N13990G1X-9.958Y-14.404
N14000G1X-9.988Y-14.206
N14010G1X-9.999Y-14.000
N14020G1X-9.988Y-13.794
N14030G1Z-1.000F1200.0
N14040G1X-9.958Y-13.596F3600.0
N14050G1X-9.909Y-13.405
N14060G1X-9.842Y-13.222
N14070G1X-9.758Y-13.048
N14080G1X-9.658Y-12.883
N14090G1X-9.543Y-12.729
N14100G1X-9.413Y-12.587
N14110G1X-9.271Y-12.457
N14120G1X-9.117Y-12.342
N14130G1X-8.952Y-12.242
N14140G1X-8.778Y-12.158
N14150G1X-8.595Y-12.091
N14160G1X-8.404Y-12.042
N14170G1X-8.206Y-12.012
N14180G1X-8.000Y-12.001
N14190G1X-7.794Y-12.012
N14200G1X-7.596Y-12.042
N14210G1X-7.405Y-12.091
N14220G1X-7.222Y-12.158
N14230G1X-7.048Y-12.242
N14240G1X-6.883Y-12.342
N14250G1X-6.729Y-12.457
N14260G1X-6.587Y-12.587
N14270G1X-6.457Y-12.729
N14280G1X-6.342Y-12.883
N14290G1X-6.242Y-13.048
N14300G1X-6.158Y-13.222
N14310G1X-6.091Y-13.405
N14320G1X-6.042Y-13.596
N14330G1X-6.012Y-13.794
N14340G1X-6.001Y-14.000
N14350G1X-6.012Y-14.206
N14360G1X-6.042Y-14.404
N14370G1X-6.091Y-14.595
N14380G1X-6.158Y-14.778
N14390G1X-6.242Y-14.952
N14400G1X-6.342Y-15.117
N14410G1X-6.457Y-15.271
N14420G1X-6.587Y-15.413
N14430G1X-6.729Y-15.543
N14440G1X-6.883Y-15.658
N14450G1X-7.048Y-15.758
N14460G1X-7.222Y-15.842
N14470G1X-7.405Y-15.909
N14480G1X-7.596Y-15.958
N14490G1X-7.794Y-15.988
N14500G1X-8.000Y-15.999
N14510G1X-8.206Y-15.988
N14520G1X-8.404Y-15.958
N14530G1X-8.595Y-15.909
N14540G1X-8.778Y-15.842
N14550G1X-8.952Y-15.758
N14560G1X-9.117Y-15.658
N14570G1X-9.271Y-15.543
N14580G1X-9.413Y-15.413
N14590G1X-9.543Y-15.271
N14600G1X-9.658Y-15.117
N14610G1X-9.758Y-14.952
N14620G1X-9.842Y-14.778
N14630G1X-9.909Y-14.595
N14640G1X-9.958Y-14.404
N14650G1X-9.988Y-14.206
N14660G1X-9.999Y-14.000
N14670G1X-9.988Y-13.794
N14680G1Z-1.500F1200.0
N14690G1X-9.958Y-13.596F3600.0
N14700G1X-9.909Y-13.405
N14710G1X-9.842Y-13.222
N14720G1X-9.758Y-13.048
N14730G1X-9.658Y-12.883
N14740G1X-9.543Y-12.729
N14750G1X-9.413Y-12.587
N14760G1X-9.271Y-12.457
N14770G1X-9.117Y-12.342
N14780G1X-8.952Y-12.242
N14790G1X-8.778Y-12.158
N14800G1X-8.595Y-12.091
N14810G1X-8.404Y-12.042
N14820G1X-8.206Y-12.012
N14830G1X-8.000Y-12.001
N14840G1X-7.794Y-12.012
N14850G1X-7.596Y-12.042
N14860G1X-7.405Y-12.091
N14870G1X-7.222Y-12.158
N14880G1X-7.048Y-12.242
N14890G1X-6.883Y-12.342
N14900G1X-6.729Y-12.457
N14910G1X-6.587Y-12.587
N14920G1X-6.457Y-12.729
N14930G1X-6.342Y-12.883
N14940G1X-6.242Y-13.048
N14950G1X-6.158Y-13.222
N14960G1X-6.091Y-13.405
N14970G1X-6.042Y-13.596
N14980G1X-6.012Y-13.794
N14990G1X-6.001Y-14.000
N15000G1X-6.012Y-14.206
N15010G1X-6.042Y-14.404
N15020G1X-6.091Y-14.595
N15030G1X-6.158Y-14.778
N15040G1X-6.242Y-14.952
N15050G1X-6.342Y-15.117
N15060G1X-6.457Y-15.271
N15070G1X-6.587Y-15.413
N15080G1X-6.729Y-15.543
N15090G1X-6.883Y-15.658
N15100G1X-7.048Y-15.758
N15110G1X-7.222Y-15.842
N15120G1X-7.405Y-15.909
N15130G1X-7.596Y-15.958
N15140G1X-7.794Y-15.988
N15150G1X-8.000Y-15.999
N15160G1X-8.206Y-15.988
N15170G1X-8.404Y-15.958
N15180G1X-8.595Y-15.909
N15190G1X-8.778Y-15.842
N15200G1X-8.952Y-15.758
N15210G1X-9.117Y-15.658
N15220G1X-9.271Y-15.543
N15230G1X-9.413Y-15.413
N15240G1X-9.543Y-15.271
N15250G1X-9.658Y-15.117
N15260G1X-9.758Y-14.952
N15270G1X-9.842Y-14.778
N15280G1X-9.909Y-14.595
N15290G1X-9.958Y-14.404
N15300G1X-9.988Y-14.206
N15310G1X-9.999Y-14.000
N15320G1X-9.988Y-13.794
N15330G1Z-2.000F1200.0
N15340G1X-9.958Y-13.596F3600.0
N15350G1X-9.909Y-13.405
N15360G1X-9.842Y-13.222
N15370G1X-9.758Y-13.048
N15380G1X-9.658Y-12.883
N15390G1X-9.543Y-12.729
N15400G1X-9.413Y-12.587
N15410G1X-9.271Y-12.457
N15420G1X-9.117Y-12.342
N15430G1X-8.952Y-12.242
N15440G1X-8.778Y-12.158
N15450G1X-8.595Y-12.091
N15460G1X-8.404Y-12.042
N15470G1X-8.206Y-12.012
N15480G1X-8.000Y-12.001
N15490G1X-7.794Y-12.012
N15500G1X-7.596Y-12.042
N15510G1X-7.405Y-12.091
N15520G1X-7.222Y-12.158
N15530G1X-7.048Y-12.242
N15540G1X-6.883Y-12.342
N15550G1X-6.729Y-12.457
N15560G1X-6.587Y-12.587
N15570G1X-6.457Y-12.729
N15580G1X-6.342Y-12.883
N15590G1X-6.242Y-13.048
N15600G1X-6.158Y-13.222
N15610G1X-6.091Y-13.405
N15620G1X-6.042Y-13.596
N15630G1X-6.012Y-13.794
N15640G1X-6.001Y-14.000
N15650G1X-6.012Y-14.206
N15660G1X-6.042Y-14.404
N15670G1X-6.091Y-14.595
N15680G1X-6.158Y-14.778
N15690G1X-6.242Y-14.952
N15700G1X-6.342Y-15.117
N15710G1X-6.457Y-15.271
N15720G1X-6.587Y-15.413
N15730G1X-6.729Y-15.543
N15740G1X-6.883Y-15.658
N15750G1X-7.048Y-15.758
N15760G1X-7.222Y-15.842
N15770G1X-7.405Y-15.909
N15780G1X-7.596Y-15.958
N15790G1X-7.794Y-15.988
N15800G1X-8.000Y-15.999
N15810G1X-8.206Y-15.988
N15820G1X-8.404Y-15.958
N15830G1X-8.595Y-15.909
N15840G1X-8.778Y-15.842
N15850G1X-8.952Y-15.758
N15860G1X-9.117Y-15.658
N15870G1X-9.271Y-15.543
N15880G1X-9.413Y-15.413
N15890G1X-9.543Y-15.271
N15900G1X-9.658Y-15.117
N15910G1X-9.758Y-14.952
N15920G1X-9.842Y-14.778
N15930G1X-9.909Y-14.595
N15940G1X-9.958Y-14.404
N15950G1X-9.988Y-14.206
N15960G1X-9.999Y-14.000
N15970G1X-9.988Y-13.794
N15980G00Z6.000
N15990G00X6.001Y-14.000
N16000G1Z-0.500F1200.0
N16010G1X6.012Y-13.794F3600.0
N16020G1X6.042Y-13.596
N16030G1X6.091Y-13.405
N16040G1X6.158Y-13.222
N16050G1X6.242Y-13.048
N16060G1X6.342Y-12.883
N16070G1X6.457Y-12.729
N16080G1X6.587Y-12.587
N16090G1X6.729Y-12.457
N16100G1X6.883Y-12.342
N16110G1X7.048Y-12.242
N16120G1X7.222Y-12.158
N16130G1X7.405Y-12.091
N16140G1X7.596Y-12.042
N16150G1X7.794Y-12.012
N16160G1X8.000Y-12.001
N16170G1X8.206Y-12.012
N16180G1X8.404Y-12.042
N16190G1X8.595Y-12.091
N16200G1X8.778Y-12.158
N16210G1X8.952Y-12.242
N16220G1X9.117Y-12.342
N16230G1X9.271Y-12.457
N16240G1X9.413Y-12.587
N16250G1X9.543Y-12.729
N16260G1X9.658Y-12.883
N16270G1X9.758Y-13.048
N16280G1X9.842Y-13.222
N16290G1X9.909Y-13.405
N16300G1X9.958Y-13.596
N16310G1X9.988Y-13.794
N16320G1X9.999Y-14.000
N16330G1X9.988Y-14.206
N16340G1X9.958Y-14.404
N16350G1X9.909Y-14.595
N16360G1X9.842Y-14.778
N16370G1X9.758Y-14.952
N16380G1X9.658Y-15.117
N16390G1X9.543Y-15.271
N16400G1X9.413Y-15.413
N16410G1X9.271Y-15.543
N16420G1X9.117Y-15.658
N16430G1X8.952Y-15.758
N16440G1X8.778Y-15.842
N16450G1X8.595Y-15.909
N16460G1X8.404Y-15.958
N16470G1X8.206Y-15.988
N16480G1X8.000Y-15.999
N16490G1X7.794Y-15.988
N16500G1X7.596Y-15.958
N16510G1X7.405Y-15.909
N16520G1X7.222Y-15.842
N16530G1X7.048Y-15.758
N16540G1X6.883Y-15.658
N16550G1X6.729Y-15.543
N16560G1X6.587Y-15.413
N16570G1X6.457Y-15.271
N16580G1X6.342Y-15.117
N16590G1X6.242Y-14.952
N16600G1X6.158Y-14.778
N16610G1X6.091Y-14.595
N16620G1X6.042Y-14.404
N16630G1X6.012Y-14.206
N16640G1X6.001Y-14.000
N16650G1Z-1.000F1200.0
N16660G1X6.012Y-13.794F3600.0
N16670G1X6.042Y-13.596
N16680G1X6.091Y-13.405
N16690G1X6.158Y-13.222
N16700G1X6.242Y-13.048
N16710G1X6.342Y-12.883
N16720G1X6.457Y-12.729
N16730G1X6.587Y-12.587
N16740G1X6.729Y-12.457
N16750G1X6.883Y-12.342
N16760G1X7.048Y-12.242
N16770G1X7.222Y-12.158
N16780G1X7.405Y-12.091
N16790G1X7.596Y-12.042
N16800G1X7.794Y-12.012
N16810G1X8.000Y-12.001
N16820G1X8.206Y-12.012
N16830G1X8.404Y-12.042
N16840G1X8.595Y-12.091
N16850G1X8.778Y-12.158
N16860G1X8.952Y-12.242
N16870G1X9.117Y-12.342
N16880G1X9.271Y-12.457
N16890G1X9.413Y-12.587
N16900G1X9.543Y-12.729
N16910G1X9.658Y-12.883
N16920G1X9.758Y-13.048
N16930G1X9.842Y-13.222
N16940G1X9.909Y-13.405
N16950G1X9.958Y-13.596
N16960G1X9.988Y-13.794
N16970G1X9.999Y-14.000
N16980G1X9.988Y-14.206
N16990G1X9.958Y-14.404
N17000G1X9.909Y-14.595
N17010G1X9.842Y-14.778
N17020G1X9.758Y-14.952
N17030G1X9.658Y-15.117
N17040G1X9.543Y-15.271
N17050G1X9.413Y-15.413
N17060G1X9.271Y-15.543
N17070G1X9.117Y-15.658
N17080G1X8.952Y-15.758
N17090G1X8.778Y-15.842
N17100G1X8.595Y-15.909
N17110G1X8.404Y-15.958
N17120G1X8.206Y-15.988
N17130G1X8.000Y-15.999
N17140G1X7.794Y-15.988
N17150G1X7.596Y-15.958
N17160G1X7.405Y-15.909
N17170G1X7.222Y-15.842
N17180G1X7.048Y-15.758
N17190G1X6.883Y-15.658
N17200G1X6.729Y-15.543
N17210G1X6.587Y-15.413
N17220G1X6.457Y-15.271
N17230G1X6.342Y-15.117
N17240G1X6.242Y-14.952
N17250G1X6.158Y-14.778
N17260G1X6.091Y-14.595
N17270G1X6.042Y-14.404
N17280G1X6.012Y-14.206
N17290G1X6.001Y-14.000
N17300G1Z-1.500F1200.0
N17310G1X6.012Y-13.794F3600.0
N17320G1X6.042Y-13.596
N17330G1X6.091Y-13.405
N17340G1X6.158Y-13.222
N17350G1X6.242Y-13.048
N17360G1X6.342Y-12.883
N17370G1X6.457Y-12.729
N17380G1X6.587Y-12.587
N17390G1X6.729Y-12.457
N17400G1X6.883Y-12.342
N17410G1X7.048Y-12.242
N17420G1X7.222Y-12.158
N17430G1X7.405Y-12.091
N17440G1X7.596Y-12.042
N17450G1X7.794Y-12.012
N17460G1X8.000Y-12.001
N17470G1X8.206Y-12.012
N17480G1X8.404Y-12.042
N17490G1X8.595Y-12.091
N17500G1X8.778Y-12.158
N17510G1X8.952Y-12.242
N17520G1X9.117Y-12.342
N17530G1X9.271Y-12.457
N17540G1X9.413Y-12.587
N17550G1X9.543Y-12.729
N17560G1X9.658Y-12.883
N17570G1X9.758Y-13.048
N17580G1X9.842Y-13.222
N17590G1X9.909Y-13.405
N17600G1X9.958Y-13.596
N17610G1X9.988Y-13.794
N17620G1X9.999Y-14.000
N17630G1X9.988Y-14.206
N17640G1X9.958Y-14.404
N17650G1X9.909Y-14.595
N17660G1X9.842Y-14.778
N17670G1X9.758Y-14.952
N17680G1X9.658Y-15.117
N17690G1X9.543Y-15.271
N17700G1X9.413Y-15.413
N17710G1X9.271Y-15.543
N17720G1X9.117Y-15.658
N17730G1X8.952Y-15.758
N17740G1X8.778Y-15.842
N17750G1X8.595Y-15.909
N17760G1X8.404Y-15.958
N17770G1X8.206Y-15.988
N17780G1X8.000Y-15.999
N17790G1X7.794Y-15.988
N17800G1X7.596Y-15.958
N17810G1X7.405Y-15.909
N17820G1X7.222Y-15.842
N17830G1X7.048Y-15.758
N17840G1X6.883Y-15.658
N17850G1X6.729Y-15.543
N17860G1X6.587Y-15.413
N17870G1X6.457Y-15.271
N17880G1X6.342Y-15.117
N17890G1X6.242Y-14.952
N17900G1X6.158Y-14.778
N17910G1X6.091Y-14.595
N17920G1X6.042Y-14.404
N17930G1X6.012Y-14.206
N17940G1X6.001Y-14.000
N17950G1Z-2.000F1200.0
N17960G1X6.012Y-13.794F3600.0
N17970G1X6.042Y-13.596
N17980G1X6.091Y-13.405
N17990G1X6.158Y-13.222
N18000G1X6.242Y-13.048
N18010G1X6.342Y-12.883
N18020G1X6.457Y-12.729
N18030G1X6.587Y-12.587
N18040G1X6.729Y-12.457
N18050G1X6.883Y-12.342
N18060G1X7.048Y-12.242
N18070G1X7.222Y-12.158
N18080G1X7.405Y-12.091
N18090G1X7.596Y-12.042
N18100G1X7.794Y-12.012
N18110G1X8.000Y-12.001
N18120G1X8.206Y-12.012
N18130G1X8.404Y-12.042
N18140G1X8.595Y-12.091
N18150G1X8.778Y-12.158
N18160G1X8.952Y-12.242
N18170G1X9.117Y-12.342
N18180G1X9.271Y-12.457
N18190G1X9.413Y-12.587
N18200G1X9.543Y-12.729
N18210G1X9.658Y-12.883
N18220G1X9.758Y-13.048
N18230G1X9.842Y-13.222
N18240G1X9.909Y-13.405
N18250G1X9.958Y-13.596
N18260G1X9.988Y-13.794
N18270G1X9.999Y-14.000
N18280G1X9.988Y-14.206
N18290G1X9.958Y-14.404
N18300G1X9.909Y-14.595
N18310G1X9.842Y-14.778
N18320G1X9.758Y-14.952
N18330G1X9.658Y-15.117
N18340G1X9.543Y-15.271
N18350G1X9.413Y-15.413
N18360G1X9.271Y-15.543
N18370G1X9.117Y-15.658
N18380G1X8.952Y-15.758
N18390G1X8.778Y-15.842
N18400G1X8.595Y-15.909
N18410G1X8.404Y-15.958
N18420G1X8.206Y-15.988
N18430G1X8.000Y-15.999
N18440G1X7.794Y-15.988
N18450G1X7.596Y-15.958
N18460G1X7.405Y-15.909
N18470G1X7.222Y-15.842
N18480G1X7.048Y-15.758
N18490G1X6.883Y-15.658
N18500G1X6.729Y-15.543
N18510G1X6.587Y-15.413
N18520G1X6.457Y-15.271
N18530G1X6.342Y-15.117
N18540G1X6.242Y-14.952
N18550G1X6.158Y-14.778
N18560G1X6.091Y-14.595
N18570G1X6.042Y-14.404
N18580G1X6.012Y-14.206
N18590G1X6.001Y-14.000
N18600G00Z6.000
N18610G00X22.001
N18620G1Z-0.500F1200.0
N18630G1X22.012Y-13.794F3600.0
N18640G1X22.042Y-13.596
N18650G1X22.091Y-13.405
N18660G1X22.158Y-13.222
N18670G1X22.242Y-13.048
N18680G1X22.342Y-12.883
N18690G1X22.457Y-12.729
N18700G1X22.587Y-12.587
N18710G1X22.729Y-12.457
N18720G1X22.883Y-12.342
N18730G1X23.048Y-12.242
N18740G1X23.222Y-12.158
N18750G1X23.405Y-12.091
N18760G1X23.596Y-12.042
N18770G1X23.794Y-12.012
N18780G1X24.000Y-12.001
N18790G1X24.206Y-12.012
N18800G1X24.404Y-12.042
N18810G1X24.595Y-12.091
N18820G1X24.778Y-12.158
N18830G1X24.952Y-12.242
N18840G1X25.117Y-12.342
N18850G1X25.271Y-12.457
N18860G1X25.413Y-12.587
N18870G1X25.543Y-12.729
N18880G1X25.658Y-12.883
N18890G1X25.758Y-13.048
N18900G1X25.842Y-13.222
N18910G1X25.909Y-13.405
N18920G1X25.958Y-13.596
N18930G1X25.988Y-13.794
N18940G1X25.999Y-14.000
N18950G1X25.988Y-14.206
N18960G1X25.958Y-14.404
N18970G1X25.909Y-14.595
N18980G1X25.842Y-14.778
N18990G1X25.758Y-14.952
N19000G1X25.658Y-15.117
N19010G1X25.543Y-15.271
N19020G1X25.413Y-15.413
N19030G1X25.271Y-15.543
N19040G1X25.117Y-15.658
N19050G1X24.952Y-15.758
N19060G1X24.778Y-15.842
N19070G1X24.595Y-15.909
N19080G1X24.404Y-15.958
N19090G1X24.206Y-15.988
N19100G1X24.000Y-15.999
N19110G1X23.794Y-15.988
N19120G1X23.596Y-15.958
N19130G1X23.405Y-15.909
N19140G1X23.222Y-15.842
N19150G1X23.048Y-15.758
N19160G1X22.883Y-15.658
N19170G1X22.729Y-15.543
N19180G1X22.587Y-15.413
N19190G1X22.457Y-15.271
N19200G1X22.342Y-15.117
N19210G1X22.242Y-14.952
N19220G1X22.158Y-14.778
N19230G1X22.091Y-14.595
N19240G1X22.042Y-14.404
N19250G1X22.012Y-14.206
N19260G1X22.001Y-14.000
N19270G1Z-1.000F1200.0
N19280G1X22.012Y-13.794F3600.0
N19290G1X22.042Y-13.596
N19300G1X22.091Y-13.405
N19310G1X22.158Y-13.222
N19320G1X22.242Y-13.048
N19330G1X22.342Y-12.883
N19340G1X22.457Y-12.729
N19350G1X22.587Y-12.587
N19360G1X22.729Y-12.457
N19370G1X22.883Y-12.342
N19380G1X23.048Y-12.242
N19390G1X23.222Y-12.158
N19400G1X23.405Y-12.091
N19410G1X23.596Y-12.042
N19420G1X23.794Y-12.012
N19430G1X24.000Y-12.001
N19440G1X24.206Y-12.012
N19450G1X24.404Y-12.042
N19460G1X24.595Y-12.091
N19470G1X24.778Y-12.158
N19480G1X24.952Y-12.242
N19490G1X25.117Y-12.342
N19500G1X25.271Y-12.457
N19510G1X25.413Y-12.587
N19520G1X25.543Y-12.729
N19530G1X25.658Y-12.883
N19540G1X25.758Y-13.048
N19550G1X25.842Y-13.222
N19560G1X25.909Y-13.405
N19570G1X25.958Y-13.596
N19580G1X25.988Y-13.794
N19590G1X25.999Y-14.000
N19600G1X25.988Y-14.206
N19610G1X25.958Y-14.404
N19620G1X25.909Y-14.595
N19630G1X25.842Y-14.778
N19640G1X25.758Y-14.952
N19650G1X25.658Y-15.117
N19660G1X25.543Y-15.271
N19670G1X25.413Y-15.413
N19680G1X25.271Y-15.543
N19690G1X25.117Y-15.658
N19700G1X24.952Y-15.758
N19710G1X24.778Y-15.842
N19720G1X24.595Y-15.909
N19730G1X24.404Y-15.958
N19740G1X24.206Y-15.988
N19750G1X24.000Y-15.999
N19760G1X23.794Y-15.988
N19770G1X23.596Y-15.958
N19780G1X23.405Y-15.909
N19790G1X23.222Y-15.842
N19800G1X23.048Y-15.758
N19810G1X22.883Y-15.658
N19820G1X22.729Y-15.543
N19830G1X22.587Y-15.413
N19840G1X22.457Y-15.271
N19850G1X22.342Y-15.117
N19860G1X22.242Y-14.952
N19870G1X22.158Y-14.778
N19880G1X22.091Y-14.595
N19890G1X22.042Y-14.404
N19900G1X22.012Y-14.206
N19910G1X22.001Y-14.000
N19920G1Z-1.500F1200.0
N19930G1X22.012Y-13.794F3600.0
N19940G1X22.042Y-13.596
N19950G1X22.091Y-13.405
N19960G1X22.158Y-13.222
N19970G1X22.242Y-13.048
N19980G1X22.342Y-12.883
N19990G1X22.457Y-12.729
N20000G1X22.587Y-12.587
N20010G1X22.729Y-12.457
N20020G1X22.883Y-12.342
N20030G1X23.048Y-12.242
N20040G1X23.222Y-12.158
N20050G1X23.405Y-12.091
N20060G1X23.596Y-12.042
N20070G1X23.794Y-12.012
N20080G1X24.000Y-12.001
N20090G1X24.206Y-12.012
N20100G1X24.404Y-12.042
N20110G1X24.595Y-12.091
N20120G1X24.778Y-12.158
N20130G1X24.952Y-12.242
N20140G1X25.117Y-12.342
N20150G1X25.271Y-12.457
N20160G1X25.413Y-12.587
N20170G1X25.543Y-12.729
N20180G1X25.658Y-12.883
N20190G1X25.758Y-13.048
N20200G1X25.842Y-13.222
N20210G1X25.909Y-13.405
N20220G1X25.958Y-13.596
N20230G1X25.988Y-13.794
N20240G1X25.999Y-14.000
N20250G1X25.988Y-14.206
N20260G1X25.958Y-14.404
N20270G1X25.909Y-14.595
N20280G1X25.842Y-14.778
N20290G1X25.758Y-14.952
N20300G1X25.658Y-15.117
N20310G1X25.543Y-15.271
N20320G1X25.413Y-15.413
N20330G1X25.271Y-15.543
N20340G1X25.117Y-15.658
N20350G1X24.952Y-15.758
N20360G1X24.778Y-15.842
N20370G1X24.595Y-15.909
N20380G1X24.404Y-15.958
N20390G1X24.206Y-15.988
N20400G1X24.000Y-15.999
N20410G1X23.794Y-15.988
N20420G1X23.596Y-15.958
N20430G1X23.405Y-15.909
N20440G1X23.222Y-15.842
N20450G1X23.048Y-15.758
N20460G1X22.883Y-15.658
N20470G1X22.729Y-15.543
N20480G1X22.587Y-15.413
N20490G1X22.457Y-15.271
N20500G1X22.342Y-15.117
N20510G1X22.242Y-14.952
N20520G1X22.158Y-14.778
N20530G1X22.091Y-14.595
N20540G1X22.042Y-14.404
N20550G1X22.012Y-14.206
N20560G1X22.001Y-14.000
N20570G1Z-2.000F1200.0
N20580G1X22.012Y-13.794F3600.0
N20590G1X22.042Y-13.596
N20600G1X22.091Y-13.405
N20610G1X22.158Y-13.222
N20620G1X22.242Y-13.048
N20630G1X22.342Y-12.883
N20640G1X22.457Y-12.729
N20650G1X22.587Y-12.587
N20660G1X22.729Y-12.457
N20670G1X22.883Y-12.342
N20680G1X23.048Y-12.242
N20690G1X23.222Y-12.158
N20700G1X23.405Y-12.091
N20710G1X23.596Y-12.042
N20720G1X23.794Y-12.012
N20730G1X24.000Y-12.001
N20740G1X24.206Y-12.012
N20750G1X24.404Y-12.042
N20760G1X24.595Y-12.091
N20770G1X24.778Y-12.158
N20780G1X24.952Y-12.242
N20790G1X25.117Y-12.342
N20800G1X25.271Y-12.457
N20810G1X25.413Y-12.587
N20820G1X25.543Y-12.729
N20830G1X25.658Y-12.883
N20840G1X25.758Y-13.048
N20850G1X25.842Y-13.222
N20860G1X25.909Y-13.405
N20870G1X25.958Y-13.596
N20880G1X25.988Y-13.794
N20890G1X25.999Y-14.000
N20900G1X25.988Y-14.206
N20910G1X25.958Y-14.404
N20920G1X25.909Y-14.595
N20930G1X25.842Y-14.778
N20940G1X25.758Y-14.952
N20950G1X25.658Y-15.117
N20960G1X25.543Y-15.271
N20970G1X25.413Y-15.413
N20980G1X25.271Y-15.543
N20990G1X25.117Y-15.658
N21000G1X24.952Y-15.758
N21010G1X24.778Y-15.842
N21020G1X24.595Y-15.909
N21030G1X24.404Y-15.958
N21040G1X24.206Y-15.988
N21050G1X24.000Y-15.999
N21060G1X23.794Y-15.988
N21070G1X23.596Y-15.958
N21080G1X23.405Y-15.909
N21090G1X23.222Y-15.842
N21100G1X23.048Y-15.758
N21110G1X22.883Y-15.658
N21120G1X22.729Y-15.543
N21130G1X22.587Y-15.413
N21140G1X22.457Y-15.271
N21150G1X22.342Y-15.117
N21160G1X22.242Y-14.952
N21170G1X22.158Y-14.778
N21180G1X22.091Y-14.595
N21190G1X22.042Y-14.404
N21200G1X22.012Y-14.206
N21210G1X22.001Y-14.000
N21220G00Z6.000
N21230S12000M03
(Profile 2)
()
N21260G00X-16.060Y2.396Z6.000
N21270G1Z-0.500F1200.0
N21280G1X-16.014Y2.695F3600.0
N21290G1X-16.000Y2.975
N21300G1Y17.025
N21310G1X-16.014Y17.305
N21320G1X-16.060Y17.604
N21330G1X-16.134Y17.892
N21340G1X-16.235Y18.168
N21350G1X-16.362Y18.431
N21360G1X-16.512Y18.679
N21370G1X-16.685Y18.909
N21380G1X-16.878Y19.122
N21390G1X-17.091Y19.315
N21400G1X-17.321Y19.488
N21410G1X-17.569Y19.638
N21420G1X-17.832Y19.765
N21430G1X-18.108Y19.866
N21440G1X-18.396Y19.940
N21450G1X-18.695Y19.986
N21460G1X-18.975Y20.000
N21470G1X-29.025
N21480G1X-29.305Y19.986
N21490G1X-29.604Y19.940
N21500G1X-29.892Y19.866
N21510G1X-30.168Y19.765
N21520G1X-30.431Y19.638
N21530G1X-30.679Y19.488
N21540G1X-30.909Y19.315
N21550G1X-31.122Y19.122
N21560G1X-31.315Y18.909
N21570G1X-31.488Y18.679
N21580G1X-31.638Y18.431
N21590G1X-31.765Y18.168
N21600G1X-31.866Y17.892
N21610G1X-31.940Y17.604
N21620G1X-31.986Y17.305
N21630G1X-32.000Y17.025
N21640G1Y2.975
N21650G1X-31.986Y2.695
N21660G1X-31.940Y2.396
N21670G1X-31.866Y2.108
N21680G1X-31.765Y1.832
N21690G1X-31.638Y1.569
N21700G1X-31.488Y1.321
N21710G1X-31.315Y1.091
N21720G1X-31.122Y0.878
N21730G1X-30.909Y0.685
N21740G1X-30.679Y0.512
N21750G1X-30.431Y0.362
N21760G1X-30.168Y0.235
N21770G1X-29.892Y0.134
N21780G1X-29.604Y0.060
N21790G1X-29.305Y0.014
N21800G1X-29.025Y0.000
N21810G1X-18.975
N21820G1X-18.695Y0.014
N21830G1X-18.396Y0.060
N21840G1X-18.108Y0.134
N21850G1X-17.832Y0.235
N21860G1X-17.569Y0.362
N21870G1X-17.321Y0.512
N21880G1X-17.091Y0.685
N21890G1X-16.878Y0.878
N21900G1X-16.685Y1.091
N21910G1X-16.512Y1.321
N21920G1X-16.362Y1.569
N21930G1X-16.235Y1.832
N21940G1X-16.134Y2.108
N21950G1X-16.060Y2.396
N21960G1Z-1.000F1200.0
N21970G1X-16.014Y2.695F3600.0
N21980G1X-16.000Y2.975
N21990G1Y17.025
N22000G1X-16.014Y17.305
N22010G1X-16.060Y17.604
N22020G1X-16.134Y17.892
N22030G1X-16.235Y18.168
N22040G1X-16.362Y18.431
N22050G1X-16.512Y18.679
N22060G1X-16.685Y18.909
N22070G1X-16.878Y19.122
N22080G1X-17.091Y19.315
N22090G1X-17.321Y19.488
N22100G1X-17.569Y19.638
N22110G1X-17.832Y19.765
N22120G1X-18.108Y19.866
N22130G1X-18.396Y19.940
N22140G1X-18.695Y19.986
N22150G1X-18.975Y20.000
N22160G1X-29.025
N22170G1X-29.305Y19.986
N22180G1X-29.604Y19.940
N22190G1X-29.892Y19.866
N22200G1X-30.168Y19.765
N22210G1X-30.431Y19.638
N22220G1X-30.679Y19.488
N22230G1X-30.909Y19.315
N22240G1X-31.122Y19.122
N22250G1X-31.315Y18.909
N22260G1X-31.488Y18.679
N22270G1X-31.638Y18.431
N22280G1X-31.765Y18.168
N22290G1X-31.866Y17.892
N22300G1X-31.940Y17.604
N22310G1X-31.986Y17.305
N22320G1X-32.000Y17.025
N22330G1Y2.975
N22340G1X-31.986Y2.695
N22350G1X-31.940Y2.396
N22360G1X-31.866Y2.108
N22370G1X-31.765Y1.832
N22380G1X-31.638Y1.569
N22390G1X-31.488Y1.321
N22400G1X-31.315Y1.091
N22410G1X-31.122Y0.878
N22420G1X-30.909Y0.685
N22430G1X-30.679Y0.512
N22440G1X-30.431Y0.362
N22450G1X-30.168Y0.235
N22460G1X-29.892Y0.134
N22470G1X-29.604Y0.060
N22480G1X-29.305Y0.014
N22490G1X-29.025Y0.000
N22500G1X-18.975
N22510G1X-18.695Y0.014
N22520G1X-18.396Y0.060
N22530G1X-18.108Y0.134
N22540G1X-17.832Y0.235
N22550G1X-17.569Y0.362
N22560G1X-17.321Y0.512
N22570G1X-17.091Y0.685
N22580G1X-16.878Y0.878
N22590G1X-16.685Y1.091
N22600G1X-16.512Y1.321
N22610G1X-16.362Y1.569
N22620G1X-16.235Y1.832
N22630G1X-16.134Y2.108
N22640G1X-16.060Y2.396
N22650G1Z-1.500F1200.0
N22660G1X-16.014Y2.695F3600.0
N22670G1X-16.000Y2.975
N22680G1Y17.025
N22690G1X-16.014Y17.305
N22700G1X-16.060Y17.604
N22710G1X-16.134Y17.892
N22720G1X-16.235Y18.168
N22730G1X-16.362Y18.431
N22740G1X-16.512Y18.679
N22750G1X-16.685Y18.909
N22760G1X-16.878Y19.122
N22770G1X-17.091Y19.315
N22780G1X-17.321Y19.488
N22790G1X-17.569Y19.638
N22800G1X-17.832Y19.765
N22810G1X-18.108Y19.866
N22820G1X-18.396Y19.940
N22830G1X-18.695Y19.986
N22840G1X-18.975Y20.000
N22850G1X-29.025
N22860G1X-29.305Y19.986
N22870G1X-29.604Y19.940
N22880G1X-29.892Y19.866
N22890G1X-30.168Y19.765
N22900G1X-30.431Y19.638
N22910G1X-30.679Y19.488
N22920G1X-30.909Y19.315
N22930G1X-31.122Y19.122
N22940G1X-31.315Y18.909
N22950G1X-31.488Y18.679
N22960G1X-31.638Y18.431
N22970G1X-31.765Y18.168
N22980G1X-31.866Y17.892
N22990G1X-31.940Y17.604
N23000G1X-31.986Y17.305
N23010G1X-32.000Y17.025
N23020G1Y2.975
N23030G1X-31.986Y2.695
N23040G1X-31.940Y2.396
N23050G1X-31.866Y2.108
N23060G1X-31.765Y1.832
N23070G1X-31.638Y1.569
N23080G1X-31.488Y1.321
N23090G1X-31.315Y1.091
N23100G1X-31.122Y0.878
N23110G1X-30.909Y0.685
N23120G1X-30.679Y0.512
N23130G1X-30.431Y0.362
N23140G1X-30.168Y0.235
N23150G1X-29.892Y0.134
N23160G1X-29.604Y0.060
N23170G1X-29.305Y0.014
N23180G1X-29.025Y0.000
N23190G1X-18.975
N23200G1X-18.695Y0.014
N23210G1X-18.396Y0.060
N23220G1X-18.108Y0.134
N23230G1X-17.832Y0.235
N23240G1X-17.569Y0.362
N23250G1X-17.321Y0.512
N23260G1X-17.091Y0.685
N23270G1X-16.878Y0.878
N23280G1X-16.685Y1.091
N23290G1X-16.512Y1.321
N23300G1X-16.362Y1.569
N23310G1X-16.235Y1.832
N23320G1X-16.134Y2.108
N23330G1X-16.060Y2.396
N23340G1Z-2.000F1200.0
N23350G1X-16.014Y2.695F3600.0
N23360G1X-16.000Y2.975
N23370G1Y17.025
N23380G1X-16.014Y17.305
N23390G1X-16.060Y17.604
N23400G1X-16.134Y17.892
N23410G1X-16.235Y18.168
N23420G1X-16.362Y18.431
N23430G1X-16.512Y18.679
N23440G1X-16.685Y18.909
N23450G1X-16.878Y19.122
N23460G1X-17.091Y19.315
N23470G1X-17.321Y19.488
N23480G1X-17.569Y19.638
N23490G1X-17.832Y19.765
N23500G1X-18.108Y19.866
N23510G1X-18.396Y19.940
N23520G1X-18.695Y19.986
N23530G1X-18.975Y20.000
N23540G1X-29.025
N23550G1X-29.305Y19.986
N23560G1X-29.604Y19.940
N23570G1X-29.892Y19.866
N23580G1X-30.168Y19.765
N23590G1X-30.431Y19.638
N23600G1X-30.679Y19.488
N23610G1X-30.909Y19.315
N23620G1X-31.122Y19.122
N23630G1X-31.315Y18.909
N23640G1X-31.488Y18.679
N23650G1X-31.638Y18.431
N23660G1X-31.765Y18.168
N23670G1X-31.866Y17.892
N23680G1X-31.940Y17.604
N23690G1X-31.986Y17.305
N23700G1X-32.000Y17.025
N23710G1Y2.975
N23720G1X-31.986Y2.695
N23730G1X-31.940Y2.396
N23740G1X-31.866Y2.108
N23750G1X-31.765Y1.832
N23760G1X-31.638Y1.569
N23770G1X-31.488Y1.321
N23780G1X-31.315Y1.091
N23790G1X-31.122Y0.878
N23800G1X-30.909Y0.685
N23810G1X-30.679Y0.512
N23820G1X-30.431Y0.362
N23830G1X-30.168Y0.235
N23840G1X-29.892Y0.134
N23850G1X-29.604Y0.060
N23860G1X-29.305Y0.014
N23870G1X-29.025Y0.000
N23880G1X-18.975
N23890G1X-18.695Y0.014
N23900G1X-18.396Y0.060
N23910G1X-18.108Y0.134
N23920G1X-17.832Y0.235
N23930G1X-17.569Y0.362
N23940G1X-17.321Y0.512
N23950G1X-17.091Y0.685
N23960G1X-16.878Y0.878
N23970G1X-16.685Y1.091
N23980G1X-16.512Y1.321
N23990G1X-16.362Y1.569
N24000G1X-16.235Y1.832
N24010G1X-16.134Y2.108
N24020G1X-16.060Y2.396
N24030G00Z6.000
N24040S12000M03
(Profile 3)
()
N24070G00X-0.878Y0.878Z6.000
N24080G1Z-0.500F1200.0
N24090G1X-0.685Y1.091F3600.0
N24100G1X-0.512Y1.321
N24110G1X-0.362Y1.569
N24120G1X-0.235Y1.832
N24130G1X-0.134Y2.108
N24140G1X-0.060Y2.396
N24150G1X-0.014Y2.695
N24160G1X0.000Y2.975
N24170G1Y17.025
N24180G1X-0.014Y17.305
N24190G1X-0.060Y17.604
N24200G1X-0.134Y17.892
N24210G1X-0.235Y18.168
N24220G1X-0.362Y18.431
N24230G1X-0.512Y18.679
N24240G1X-0.685Y18.909
N24250G1X-0.878Y19.122
N24260G1X-1.091Y19.315
N24270G1X-1.321Y19.488
N24280G1X-1.569Y19.638
N24290G1X-1.832Y19.765
N24300G1X-2.108Y19.866
N24310G1X-2.396Y19.940
N24320G1X-2.695Y19.986
N24330G1X-2.975Y20.000
N24340G1X-13.025
N24350G1X-13.305Y19.986
N24360G1X-13.604Y19.940
N24370G1X-13.892Y19.866
N24380G1X-14.168Y19.765
N24390G1X-14.431Y19.638
N24400G1X-14.679Y19.488
N24410G1X-14.909Y19.315
N24420G1X-15.122Y19.122
N24430G1X-15.315Y18.909
N24440G1X-15.488Y18.679
N24450G1X-15.638Y18.431
N24460G1X-15.765Y18.168
N24470G1X-15.866Y17.892
N24480G1X-15.940Y17.604
N24490G1X-15.986Y17.305
N24500G1X-16.000Y17.025
N24510G1Y2.975
N24520G1X-15.986Y2.695
N24530G1X-15.940Y2.396
N24540G1X-15.866Y2.108
N24550G1X-15.765Y1.832
N24560G1X-15.638Y1.569
N24570G1X-15.488Y1.321
N24580G1X-15.315Y1.091
N24590G1X-15.122Y0.878
N24600G1X-14.909Y0.685
N24610G1X-14.679Y0.512
N24620G1X-14.431Y0.362
N24630G1X-14.168Y0.235
N24640G1X-13.892Y0.134
N24650G1X-13.604Y0.060
N24660G1X-13.305Y0.014
N24670G1X-13.025Y0.000
N24680G1X-2.975
N24690G1X-2.695Y0.014
N24700G1X-2.396Y0.060
N24710G1X-2.108Y0.134
N24720G1X-1.832Y0.235
N24730G1X-1.569Y0.362
N24740G1X-1.321Y0.512
N24750G1X-1.091Y0.685
N24760G1X-0.878Y0.878
N24770G1Z-1.000F1200.0
N24780G1X-0.685Y1.091F3600.0
N24790G1X-0.512Y1.321
N24800G1X-0.362Y1.569
N24810G1X-0.235Y1.832
N24820G1X-0.134Y2.108
N24830G1X-0.060Y2.396
N24840G1X-0.014Y2.695
N24850G1X0.000Y2.975
N24860G1Y17.025
N24870G1X-0.014Y17.305
N24880G1X-0.060Y17.604
N24890G1X-0.134Y17.892
N24900G1X-0.235Y18.168
N24910G1X-0.362Y18.431
N24920G1X-0.512Y18.679
N24930G1X-0.685Y18.909
N24940G1X-0.878Y19.122
N24950G1X-1.091Y19.315
N24960G1X-1.321Y19.488
N24970G1X-1.569Y19.638
N24980G1X-1.832Y19.765
N24990G1X-2.108Y19.866
N25000G1X-2.396Y19.940
N25010G1X-2.695Y19.986
N25020G1X-2.975Y20.000
N25030G1X-13.025
N25040G1X-13.305Y19.986
N25050G1X-13.604Y19.940
N25060G1X-13.892Y19.866
N25070G1X-14.168Y19.765
N25080G1X-14.431Y19.638
N25090G1X-14.679Y19.488
N25100G1X-14.909Y19.315
N25110G1X-15.122Y19.122
N25120G1X-15.315Y18.909
N25130G1X-15.488Y18.679
N25140G1X-15.638Y18.431
N25150G1X-15.765Y18.168
N25160G1X-15.866Y17.892
N25170G1X-15.940Y17.604
N25180G1X-15.986Y17.305
N25190G1X-16.000Y17.025
N25200G1Y2.975
N25210G1X-15.986Y2.695
N25220G1X-15.940Y2.396
N25230G1X-15.866Y2.108
N25240G1X-15.765Y1.832
N25250G1X-15.638Y1.569
N25260G1X-15.488Y1.321
N25270G1X-15.315Y1.091
N25280G1X-15.122Y0.878
N25290G1X-14.909Y0.685
N25300G1X-14.679Y0.512
N25310G1X-14.431Y0.362
N25320G1X-14.168Y0.235
N25330G1X-13.892Y0.134
N25340G1X-13.604Y0.060
N25350G1X-13.305Y0.014
N25360G1X-13.025Y0.000
N25370G1X-2.975
N25380G1X-2.695Y0.014
N25390G1X-2.396Y0.060
N25400G1X-2.108Y0.134
N25410G1X-1.832Y0.235
N25420G1X-1.569Y0.362
N25430G1X-1.321Y0.512
N25440G1X-1.091Y0.685
N25450G1X-0.878Y0.878
N25460G1Z-1.500F1200.0
N25470G1X-0.685Y1.091F3600.0
N25480G1X-0.512Y1.321
N25490G1X-0.362Y1.569
N25500G1X-0.235Y1.832
N25510G1X-0.134Y2.108
N25520G1X-0.060Y2.396
N25530G1X-0.014Y2.695
N25540G1X0.000Y2.975
N25550G1Y17.025
N25560G1X-0.014Y17.305
N25570G1X-0.060Y17.604
N25580G1X-0.134Y17.892
N25590G1X-0.235Y18.168
N25600G1X-0.362Y18.431
N25610G1X-0.512Y18.679
N25620G1X-0.685Y18.909
N25630G1X-0.878Y19.122
N25640G1X-1.091Y19.315
N25650G1X-1.321Y19.488
N25660G1X-1.569Y19.638
N25670G1X-1.832Y19.765
N25680G1X-2.108Y19.866
N25690G1X-2.396Y19.940
N25700G1X-2.695Y19.986
N25710G1X-2.975Y20.000
N25720G1X-13.025
N25730G1X-13.305Y19.986
N25740G1X-13.604Y19.940
N25750G1X-13.892Y19.866
N25760G1X-14.168Y19.765
N25770G1X-14.431Y19.638
N25780G1X-14.679Y19.488
N25790G1X-14.909Y19.315
N25800G1X-15.122Y19.122
N25810G1X-15.315Y18.909
N25820G1X-15.488Y18.679
N25830G1X-15.638Y18.431
N25840G1X-15.765Y18.168
N25850G1X-15.866Y17.892
N25860G1X-15.940Y17.604
N25870G1X-15.986Y17.305
N25880G1X-16.000Y17.025
N25890G1Y2.975
N25900G1X-15.986Y2.695
N25910G1X-15.940Y2.396
N25920G1X-15.866Y2.108
N25930G1X-15.765Y1.832
N25940G1X-15.638Y1.569
N25950G1X-15.488Y1.321
N25960G1X-15.315Y1.091
N25970G1X-15.122Y0.878
N25980G1X-14.909Y0.685
N25990G1X-14.679Y0.512
N26000G1X-14.431Y0.362
N26010G1X-14.168Y0.235
N26020G1X-13.892Y0.134
N26030G1X-13.604Y0.060
N26040G1X-13.305Y0.014
N26050G1X-13.025Y0.000
N26060G1X-2.975
N26070G1X-2.695Y0.014
N26080G1X-2.396Y0.060
N26090G1X-2.108Y0.134
N26100G1X-1.832Y0.235
N26110G1X-1.569Y0.362
N26120G1X-1.321Y0.512
N26130G1X-1.091Y0.685
N26140G1X-0.878Y0.878
N26150G1Z-2.000F1200.0
N26160G1X-0.685Y1.091F3600.0
N26170G1X-0.512Y1.321
N26180G1X-0.362Y1.569
N26190G1X-0.235Y1.832
N26200G1X-0.134Y2.108
N26210G1X-0.060Y2.396
N26220G1X-0.014Y2.695
N26230G1X0.000Y2.975
N26240G1Y17.025
N26250G1X-0.014Y17.305
N26260G1X-0.060Y17.604
N26270G1X-0.134Y17.892
N26280G1X-0.235Y18.168
N26290G1X-0.362Y18.431
N26300G1X-0.512Y18.679
N26310G1X-0.685Y18.909
N26320G1X-0.878Y19.122
N26330G1X-1.091Y19.315
N26340G1X-1.321Y19.488
N26350G1X-1.569Y19.638
N26360G1X-1.832Y19.765
N26370G1X-2.108Y19.866
N26380G1X-2.396Y19.940
N26390G1X-2.695Y19.986
N26400G1X-2.975Y20.000
N26410G1X-13.025
N26420G1X-13.305Y19.986
N26430G1X-13.604Y19.940
N26440G1X-13.892Y19.866
N26450G1X-14.168Y19.765
N26460G1X-14.431Y19.638
N26470G1X-14.679Y19.488
N26480G1X-14.909Y19.315
N26490G1X-15.122Y19.122
N26500G1X-15.315Y18.909
N26510G1X-15.488Y18.679
N26520G1X-15.638Y18.431
N26530G1X-15.765Y18.168
N26540G1X-15.866Y17.892
N26550G1X-15.940Y17.604
N26560G1X-15.986Y17.305
N26570G1X-16.000Y17.025
N26580G1Y2.975
N26590G1X-15.986Y2.695
N26600G1X-15.940Y2.396
N26610G1X-15.866Y2.108
N26620G1X-15.765Y1.832
N26630G1X-15.638Y1.569
N26640G1X-15.488Y1.321
N26650G1X-15.315Y1.091
N26660G1X-15.122Y0.878
N26670G1X-14.909Y0.685
N26680G1X-14.679Y0.512
N26690G1X-14.431Y0.362
N26700G1X-14.168Y0.235
N26710G1X-13.892Y0.134
N26720G1X-13.604Y0.060
N26730G1X-13.305Y0.014
N26740G1X-13.025Y0.000
N26750G1X-2.975
N26760G1X-2.695Y0.014
N26770G1X-2.396Y0.060
N26780G1X-2.108Y0.134
N26790G1X-1.832Y0.235
N26800G1X-1.569Y0.362
N26810G1X-1.321Y0.512
N26820G1X-1.091Y0.685
N26830G1X-0.878Y0.878
N26840G00Z6.000
N26850S12000M03
(Profile 4)
()
N26880G00X0.878Y0.878Z6.000
N26890G1Z-0.500F1200.0
N26900G1X1.091Y0.685F3600.0
N26910G1X1.321Y0.512
N26920G1X1.569Y0.362
N26930G1X1.832Y0.235
N26940G1X2.108Y0.134
N26950G1X2.396Y0.060
N26960G1X2.695Y0.014
N26970G1X2.975Y0.000
N26980G1X13.025
N26990G1X13.305Y0.014
N27000G1X13.604Y0.060
N27010G1X13.892Y0.134
N27020G1X14.168Y0.235
N27030G1X14.431Y0.362
N27040G1X14.679Y0.512
N27050G1X14.909Y0.685
N27060G1X15.122Y0.878
N27070G1X15.315Y1.091
N27080G1X15.488Y1.321
N27090G1X15.638Y1.569
N27100G1X15.765Y1.832
N27110G1X15.866Y2.108
N27120G1X15.940Y2.396
N27130G1X15.986Y2.695
N27140G1X16.000Y2.975
N27150G1Y17.025
N27160G1X15.986Y17.305
N27170G1X15.940Y17.604
N27180G1X15.866Y17.892
N27190G1X15.765Y18.168
N27200G1X15.638Y18.431
N27210G1X15.488Y18.679
N27220G1X15.315Y18.909
N27230G1X15.122Y19.122
N27240G1X14.909Y19.315
N27250G1X14.679Y19.488
N27260G1X14.431Y19.638
N27270G1X14.168Y19.765
N27280G1X13.892Y19.866
N27290G1X13.604Y19.940
N27300G1X13.305Y19.986
N27310G1X13.025Y20.000
N27320G1X2.975
N27330G1X2.695Y19.986
N27340G1X2.396Y19.940
N27350G1X2.108Y19.866
N27360G1X1.832Y19.765
N27370G1X1.569Y19.638
N27380G1X1.321Y19.488
N27390G1X1.091Y19.315
N27400G1X0.878Y19.122
N27410G1X0.685Y18.909
N27420G1X0.512Y18.679
N27430G1X0.362Y18.431
N27440G1X0.235Y18.168
N27450G1X0.134Y17.892
N27460G1X0.060Y17.604
N27470G1X0.014Y17.305
N27480G1X0.000Y17.025
N27490G1Y2.975
N27500G1X0.014Y2.695
N27510G1X0.060Y2.396
N27520G1X0.134Y2.108
N27530G1X0.235Y1.832
N27540G1X0.362Y1.569
N27550G1X0.512Y1.321
N27560G1X0.685Y1.091
N27570G1X0.878Y0.878
N27580G1Z-1.000F1200.0
N27590G1X1.091Y0.685F3600.0
N27600G1X1.321Y0.512
N27610G1X1.569Y0.362
N27620G1X1.832Y0.235
N27630G1X2.108Y0.134
N27640G1X2.396Y0.060
N27650G1X2.695Y0.014
N27660G1X2.975Y0.000
N27670G1X13.025
N27680G1X13.305Y0.014
N27690G1X13.604Y0.060
N27700G1X13.892Y0.134
N27710G1X14.168Y0.235
N27720G1X14.431Y0.362
N27730G1X14.679Y0.512
N27740G1X14.909Y0.685
N27750G1X15.122Y0.878
N27760G1X15.315Y1.091
N27770G1X15.488Y1.321
N27780G1X15.638Y1.569
N27790G1X15.765Y1.832
N27800G1X15.866Y2.108
N27810G1X15.940Y2.396
N27820G1X15.986Y2.695
N27830G1X16.000Y2.975
N27840G1Y17.025
N27850G1X15.986Y17.305
N27860G1X15.940Y17.604
N27870G1X15.866Y17.892
N27880G1X15.765Y18.168
N27890G1X15.638Y18.431
N27900G1X15.488Y18.679
N27910G1X15.315Y18.909
N27920G1X15.122Y19.122
N27930G1X14.909Y19.315
N27940G1X14.679Y19.488
N27950G1X14.431Y19.638
N27960G1X14.168Y19.765
N27970G1X13.892Y19.866
N27980G1X13.604Y19.940
N27990G1X13.305Y19.986
N28000G1X13.025Y20.000
N28010G1X2.975
N28020G1X2.695Y19.986
N28030G1X2.396Y19.940
N28040G1X2.108Y19.866
N28050G1X1.832Y19.765
N28060G1X1.569Y19.638
N28070G1X1.321Y19.488
N28080G1X1.091Y19.315
N28090G1X0.878Y19.122
N28100G1X0.685Y18.909
N28110G1X0.512Y18.679
N28120G1X0.362Y18.431
N28130G1X0.235Y18.168
N28140G1X0.134Y17.892
N28150G1X0.060Y17.604
N28160G1X0.014Y17.305
N28170G1X0.000Y17.025
N28180G1Y2.975
N28190G1X0.014Y2.695
N28200G1X0.060Y2.396
N28210G1X0.134Y2.108
N28220G1X0.235Y1.832
N28230G1X0.362Y1.569
N28240G1X0.512Y1.321
N28250G1X0.685Y1.091
N28260G1X0.878Y0.878
N28270G1Z-1.500F1200.0
N28280G1X1.091Y0.685F3600.0
N28290G1X1.321Y0.512
N28300G1X1.569Y0.362
N28310G1X1.832Y0.235
N28320G1X2.108Y0.134
N28330G1X2.396Y0.060
N28340G1X2.695Y0.014
N28350G1X2.975Y0.000
N28360G1X13.025
N28370G1X13.305Y0.014
N28380G1X13.604Y0.060
N28390G1X13.892Y0.134
N28400G1X14.168Y0.235
N28410G1X14.431Y0.362
N28420G1X14.679Y0.512
N28430G1X14.909Y0.685
N28440G1X15.122Y0.878
N28450G1X15.315Y1.091
N28460G1X15.488Y1.321
N28470G1X15.638Y1.569
N28480G1X15.765Y1.832
N28490G1X15.866Y2.108
N28500G1X15.940Y2.396
N28510G1X15.986Y2.695
N28520G1X16.000Y2.975
N28530G1Y17.025
N28540G1X15.986Y17.305
N28550G1X15.940Y17.604
N28560G1X15.866Y17.892
N28570G1X15.765Y18.168
N28580G1X15.638Y18.431
N28590G1X15.488Y18.679
N28600G1X15.315Y18.909
N28610G1X15.122Y19.122
N28620G1X14.909Y19.315
N28630G1X14.679Y19.488
N28640G1X14.431Y19.638
N28650G1X14.168Y19.765
N28660G1X13.892Y19.866
N28670G1X13.604Y19.940
N28680G1X13.305Y19.986
N28690G1X13.025Y20.000
N28700G1X2.975
N28710G1X2.695Y19.986
N28720G1X2.396Y19.940
N28730G1X2.108Y19.866
N28740G1X1.832Y19.765
N28750G1X1.569Y19.638
N28760G1X1.321Y19.488
N28770G1X1.091Y19.315
N28780G1X0.878Y19.122
N28790G1X0.685Y18.909
N28800G1X0.512Y18.679
N28810G1X0.362Y18.431
N28820G1X0.235Y18.168
N28830G1X0.134Y17.892
N28840G1X0.060Y17.604
N28850G1X0.014Y17.305
N28860G1X0.000Y17.025
N28870G1Y2.975
N28880G1X0.014Y2.695
N28890G1X0.060Y2.396
N28900G1X0.134Y2.108
N28910G1X0.235Y1.832
N28920G1X0.362Y1.569
N28930G1X0.512Y1.321
N28940G1X0.685Y1.091
N28950G1X0.878Y0.878
N28960G1Z-2.000F1200.0
N28970G1X1.091Y0.685F3600.0
N28980G1X1.321Y0.512
N28990G1X1.569Y0.362
N29000G1X1.832Y0.235
N29010G1X2.108Y0.134
N29020G1X2.396Y0.060
N29030G1X2.695Y0.014
N29040G1X2.975Y0.000
N29050G1X13.025
N29060G1X13.305Y0.014
N29070G1X13.604Y0.060
N29080G1X13.892Y0.134
N29090G1X14.168Y0.235
N29100G1X14.431Y0.362
N29110G1X14.679Y0.512
N29120G1X14.909Y0.685
N29130G1X15.122Y0.878
N29140G1X15.315Y1.091
N29150G1X15.488Y1.321
N29160G1X15.638Y1.569
N29170G1X15.765Y1.832
N29180G1X15.866Y2.108
N29190G1X15.940Y2.396
N29200G1X15.986Y2.695
N29210G1X16.000Y2.975
N29220G1Y17.025
N29230G1X15.986Y17.305
N29240G1X15.940Y17.604
N29250G1X15.866Y17.892
N29260G1X15.765Y18.168
N29270G1X15.638Y18.431
N29280G1X15.488Y18.679
N29290G1X15.315Y18.909
N29300G1X15.122Y19.122
N29310G1X14.909Y19.315
N29320G1X14.679Y19.488
N29330G1X14.431Y19.638
N29340G1X14.168Y19.765
N29350G1X13.892Y19.866
N29360G1X13.604Y19.940
N29370G1X13.305Y19.986
N29380G1X13.025Y20.000
N29390G1X2.975
N29400G1X2.695Y19.986
N29410G1X2.396Y19.940
N29420G1X2.108Y19.866
N29430G1X1.832Y19.765
N29440G1X1.569Y19.638
N29450G1X1.321Y19.488
N29460G1X1.091Y19.315
N29470G1X0.878Y19.122
N29480G1X0.685Y18.909
N29490G1X0.512Y18.679
N29500G1X0.362Y18.431
N29510G1X0.235Y18.168
N29520G1X0.134Y17.892
N29530G1X0.060Y17.604
N29540G1X0.014Y17.305
N29550G1X0.000Y17.025
N29560G1Y2.975
N29570G1X0.014Y2.695
N29580G1X0.060Y2.396
N29590G1X0.134Y2.108
N29600G1X0.235Y1.832
N29610G1X0.362Y1.569
N29620G1X0.512Y1.321
N29630G1X0.685Y1.091
N29640G1X0.878Y0.878
N29650G00Z6.000
N29660S12000M03
(Profile 5)
()
N29690G00X16.060Y2.396Z6.000
N29700G1Z-0.500F1200.0
N29710G1X16.134Y2.108F3600.0
N29720G1X16.235Y1.832
N29730G1X16.362Y1.569
N29740G1X16.512Y1.321
N29750G1X16.685Y1.091
N29760G1X16.878Y0.878
N29770G1X17.091Y0.685
N29780G1X17.321Y0.512
N29790G1X17.569Y0.362
N29800G1X17.832Y0.235
N29810G1X18.108Y0.134
N29820G1X18.396Y0.060
N29830G1X18.695Y0.014
N29840G1X18.975Y0.000
N29850G1X29.025
N29860G1X29.305Y0.014
N29870G1X29.604Y0.060
N29880G1X29.892Y0.134
N29890G1X30.168Y0.235
N29900G1X30.431Y0.362
N29910G1X30.679Y0.512
N29920G1X30.909Y0.685
N29930G1X31.122Y0.878
N29940G1X31.315Y1.091
N29950G1X31.488Y1.321
N29960G1X31.638Y1.569
N29970G1X31.765Y1.832
N29980G1X31.866Y2.108
N29990G1X31.940Y2.396
N30000G1X31.986Y2.695
N30010G1X32.000Y2.975
N30020G1Y17.025
N30030G1X31.986Y17.305
N30040G1X31.940Y17.604
N30050G1X31.866Y17.892
N30060G1X31.765Y18.168
N30070G1X31.638Y18.431
N30080G1X31.488Y18.679
N30090G1X31.315Y18.909
N30100G1X31.122Y19.122
N30110G1X30.909Y19.315
N30120G1X30.679Y19.488
N30130G1X30.431Y19.638
N30140G1X30.168Y19.765
N30150G1X29.892Y19.866
N30160G1X29.604Y19.940
N30170G1X29.305Y19.986
N30180G1X29.025Y20.000
N30190G1X18.975
N30200G1X18.695Y19.986
N30210G1X18.396Y19.940
N30220G1X18.108Y19.866
N30230G1X17.832Y19.765
N30240G1X17.569Y19.638
N30250G1X17.321Y19.488
N30260G1X17.091Y19.315
N30270G1X16.878Y19.122
N30280G1X16.685Y18.909
N30290G1X16.512Y18.679
N30300G1X16.362Y18.431
N30310G1X16.235Y18.168
N30320G1X16.134Y17.892
N30330G1X16.060Y17.604
N30340G1X16.014Y17.305
N30350G1X16.000Y17.025
N30360G1Y2.975
N30370G1X16.014Y2.695
N30380G1X16.060Y2.396
N30390G1Z-1.000F1200.0
N30400G1X16.134Y2.108F3600.0
N30410G1X16.235Y1.832
N30420G1X16.362Y1.569
N30430G1X16.512Y1.321
N30440G1X16.685Y1.091
N30450G1X16.878Y0.878
N30460G1X17.091Y0.685
N30470G1X17.321Y0.512
N30480G1X17.569Y0.362
N30490G1X17.832Y0.235
N30500G1X18.108Y0.134
N30510G1X18.396Y0.060
N30520G1X18.695Y0.014
N30530G1X18.975Y0.000
N30540G1X29.025
N30550G1X29.305Y0.014
N30560G1X29.604Y0.060
N30570G1X29.892Y0.134
N30580G1X30.168Y0.235
N30590G1X30.431Y0.362
N30600G1X30.679Y0.512
N30610G1X30.909Y0.685
N30620G1X31.122Y0.878
N30630G1X31.315Y1.091
N30640G1X31.488Y1.321
N30650G1X31.638Y1.569
N30660G1X31.765Y1.832
N30670G1X31.866Y2.108
N30680G1X31.940Y2.396
N30690G1X31.986Y2.695
N30700G1X32.000Y2.975
N30710G1Y17.025
N30720G1X31.986Y17.305
N30730G1X31.940Y17.604
N30740G1X31.866Y17.892
N30750G1X31.765Y18.168
N30760G1X31.638Y18.431
N30770G1X31.488Y18.679
N30780G1X31.315Y18.909
N30790G1X31.122Y19.122
N30800G1X30.909Y19.315
N30810G1X30.679Y19.488
N30820G1X30.431Y19.638
N30830G1X30.168Y19.765
N30840G1X29.892Y19.866
N30850G1X29.604Y19.940
N30860G1X29.305Y19.986
N30870G1X29.025Y20.000
N30880G1X18.975
N30890G1X18.695Y19.986
N30900G1X18.396Y19.940
N30910G1X18.108Y19.866
N30920G1X17.832Y19.765
N30930G1X17.569Y19.638
N30940G1X17.321Y19.488
N30950G1X17.091Y19.315
N30960G1X16.878Y19.122
N30970G1X16.685Y18.909
N30980G1X16.512Y18.679
N30990G1X16.362Y18.431
N31000G1X16.235Y18.168
N31010G1X16.134Y17.892
N31020G1X16.060Y17.604
N31030G1X16.014Y17.305
N31040G1X16.000Y17.025
N31050G1Y2.975
N31060G1X16.014Y2.695
N31070G1X16.060Y2.396
N31080G1Z-1.500F1200.0
N31090G1X16.134Y2.108F3600.0
N31100G1X16.235Y1.832
N31110G1X16.362Y1.569
N31120G1X16.512Y1.321
N31130G1X16.685Y1.091
N31140G1X16.878Y0.878
N31150G1X17.091Y0.685
N31160G1X17.321Y0.512
N31170G1X17.569Y0.362
N31180G1X17.832Y0.235
N31190G1X18.108Y0.134
N31200G1X18.396Y0.060
N31210G1X18.695Y0.014
N31220G1X18.975Y0.000
N31230G1X29.025
N31240G1X29.305Y0.014
N31250G1X29.604Y0.060
N31260G1X29.892Y0.134
N31270G1X30.168Y0.235
N31280G1X30.431Y0.362
N31290G1X30.679Y0.512
N31300G1X30.909Y0.685
N31310G1X31.122Y0.878
N31320G1X31.315Y1.091
N31330G1X31.488Y1.321
N31340G1X31.638Y1.569
N31350G1X31.765Y1.832
N31360G1X31.866Y2.108
N31370G1X31.940Y2.396
N31380G1X31.986Y2.695
N31390G1X32.000Y2.975
N31400G1Y17.025
N31410G1X31.986Y17.305
N31420G1X31.940Y17.604
N31430G1X31.866Y17.892
N31440G1X31.765Y18.168
N31450G1X31.638Y18.431
N31460G1X31.488Y18.679
N31470G1X31.315Y18.909
N31480G1X31.122Y19.122
N31490G1X30.909Y19.315
N31500G1X30.679Y19.488
N31510G1X30.431Y19.638
N31520G1X30.168Y19.765
N31530G1X29.892Y19.866
N31540G1X29.604Y19.940
N31550G1X29.305Y19.986
N31560G1X29.025Y20.000
N31570G1X18.975
N31580G1X18.695Y19.986
N31590G1X18.396Y19.940
N31600G1X18.108Y19.866
N31610G1X17.832Y19.765
N31620G1X17.569Y19.638
N31630G1X17.321Y19.488
N31640G1X17.091Y19.315
N31650G1X16.878Y19.122
N31660G1X16.685Y18.909
N31670G1X16.512Y18.679
N31680G1X16.362Y18.431
N31690G1X16.235Y18.168
N31700G1X16.134Y17.892
N31710G1X16.060Y17.604
N31720G1X16.014Y17.305
N31730G1X16.000Y17.025
N31740G1Y2.975
N31750G1X16.014Y2.695
N31760G1X16.060Y2.396
N31770G1Z-2.000F1200.0
N31780G1X16.134Y2.108F3600.0
N31790G1X16.235Y1.832
N31800G1X16.362Y1.569
N31810G1X16.512Y1.321
N31820G1X16.685Y1.091
N31830G1X16.878Y0.878
N31840G1X17.091Y0.685
N31850G1X17.321Y0.512
N31860G1X17.569Y0.362
N31870G1X17.832Y0.235
N31880G1X18.108Y0.134
N31890G1X18.396Y0.060
N31900G1X18.695Y0.014
N31910G1X18.975Y0.000
N31920G1X29.025
N31930G1X29.305Y0.014
N31940G1X29.604Y0.060
N31950G1X29.892Y0.134
N31960G1X30.168Y0.235
N31970G1X30.431Y0.362
N31980G1X30.679Y0.512
N31990G1X30.909Y0.685
N32000G1X31.122Y0.878
N32010G1X31.315Y1.091
N32020G1X31.488Y1.321
N32030G1X31.638Y1.569
N32040G1X31.765Y1.832
N32050G1X31.866Y2.108
N32060G1X31.940Y2.396
N32070G1X31.986Y2.695
N32080G1X32.000Y2.975
N32090G1Y17.025
N32100G1X31.986Y17.305
N32110G1X31.940Y17.604
N32120G1X31.866Y17.892
N32130G1X31.765Y18.168
N32140G1X31.638Y18.431
N32150G1X31.488Y18.679
N32160G1X31.315Y18.909
N32170G1X31.122Y19.122
N32180G1X30.909Y19.315
N32190G1X30.679Y19.488
N32200G1X30.431Y19.638
N32210G1X30.168Y19.765
N32220G1X29.892Y19.866
N32230G1X29.604Y19.940
N32240G1X29.305Y19.986
N32250G1X29.025Y20.000
N32260G1X18.975
N32270G1X18.695Y19.986
N32280G1X18.396Y19.940
N32290G1X18.108Y19.866
N32300G1X17.832Y19.765
N32310G1X17.569Y19.638
N32320G1X17.321Y19.488
N32330G1X17.091Y19.315
N32340G1X16.878Y19.122
N32350G1X16.685Y18.909
N32360G1X16.512Y18.679
N32370G1X16.362Y18.431
N32380G1X16.235Y18.168
N32390G1X16.134Y17.892
N32400G1X16.060Y17.604
N32410G1X16.014Y17.305
N32420G1X16.000Y17.025
N32430G1Y2.975
N32440G1X16.014Y2.695
N32450G1X16.060Y2.396
N32460G00Z6.000
N32470S12000M03
(Profile 6)
()
N32500G00X-16.060Y-2.396Z6.000
N32510G1Z-0.500F1200.0
N32520G1X-16.134Y-2.108F3600.0
N32530G1X-16.235Y-1.832
N32540G1X-16.362Y-1.569
N32550G1X-16.512Y-1.321
N32560G1X-16.685Y-1.091
N32570G1X-16.878Y-0.878
N32580G1X-17.091Y-0.685
N32590G1X-17.321Y-0.512
N32600G1X-17.569Y-0.362
N32610G1X-17.832Y-0.235
N32620G1X-18.108Y-0.134
N32630G1X-18.396Y-0.060
N32640G1X-18.695Y-0.014
N32650G1X-18.975Y0.000
N32660G1X-29.025
N32670G1X-29.305Y-0.014
N32680G1X-29.604Y-0.060
N32690G1X-29.892Y-0.134
N32700G1X-30.168Y-0.235
N32710G1X-30.431Y-0.362
N32720G1X-30.679Y-0.512
N32730G1X-30.909Y-0.685
N32740G1X-31.122Y-0.878
N32750G1X-31.315Y-1.091
N32760G1X-31.488Y-1.321
N32770G1X-31.638Y-1.569
N32780G1X-31.765Y-1.832
N32790G1X-31.866Y-2.108
N32800G1X-31.940Y-2.396
N32810G1X-31.986Y-2.695
N32820G1X-32.000Y-2.975
N32830G1Y-17.025
N32840G1X-31.986Y-17.305
N32850G1X-31.940Y-17.604
N32860G1X-31.866Y-17.892
N32870G1X-31.765Y-18.168
N32880G1X-31.638Y-18.431
N32890G1X-31.488Y-18.679
N32900G1X-31.315Y-18.909
N32910G1X-31.122Y-19.122
N32920G1X-30.909Y-19.315
N32930G1X-30.679Y-19.488
N32940G1X-30.431Y-19.638
N32950G1X-30.168Y-19.765
N32960G1X-29.892Y-19.866
N32970G1X-29.604Y-19.940
N32980G1X-29.305Y-19.986
N32990G1X-29.025Y-20.000
N33000G1X-18.975
N33010G1X-18.695Y-19.986
N33020G1X-18.396Y-19.940
N33030G1X-18.108Y-19.866
N33040G1X-17.832Y-19.765
N33050G1X-17.569Y-19.638
N33060G1X-17.321Y-19.488
N33070G1X-17.091Y-19.315
N33080G1X-16.878Y-19.122
N33090G1X-16.685Y-18.909
N33100G1X-16.512Y-18.679
N33110G1X-16.362Y-18.431
N33120G1X-16.235Y-18.168
N33130G1X-16.134Y-17.892
N33140G1X-16.060Y-17.604
N33150G1X-16.014Y-17.305
N33160G1X-16.000Y-17.025
N33170G1Y-2.975
N33180G1X-16.014Y-2.695
N33190G1X-16.060Y-2.396
N33200G1Z-1.000F1200.0
N33210G1X-16.134Y-2.108F3600.0
N33220G1X-16.235Y-1.832
N33230G1X-16.362Y-1.569
N33240G1X-16.512Y-1.321
N33250G1X-16.685Y-1.091
N33260G1X-16.878Y-0.878
N33270G1X-17.091Y-0.685
N33280G1X-17.321Y-0.512
N33290G1X-17.569Y-0.362
N33300G1X-17.832Y-0.235
N33310G1X-18.108Y-0.134
N33320G1X-18.396Y-0.060
N33330G1X-18.695Y-0.014
N33340G1X-18.975Y0.000
N33350G1X-29.025
N33360G1X-29.305Y-0.014
N33370G1X-29.604Y-0.060
N33380G1X-29.892Y-0.134
N33390G1X-30.168Y-0.235
N33400G1X-30.431Y-0.362
N33410G1X-30.679Y-0.512
N33420G1X-30.909Y-0.685
N33430G1X-31.122Y-0.878
N33440G1X-31.315Y-1.091
N33450G1X-31.488Y-1.321
N33460G1X-31.638Y-1.569
N33470G1X-31.765Y-1.832
N33480G1X-31.866Y-2.108
N33490G1X-31.940Y-2.396
N33500G1X-31.986Y-2.695
N33510G1X-32.000Y-2.975
N33520G1Y-17.025
N33530G1X-31.986Y-17.305
N33540G1X-31.940Y-17.604
N33550G1X-31.866Y-17.892
N33560G1X-31.765Y-18.168
N33570G1X-31.638Y-18.431
N33580G1X-31.488Y-18.679
N33590G1X-31.315Y-18.909
N33600G1X-31.122Y-19.122
N33610G1X-30.909Y-19.315
N33620G1X-30.679Y-19.488
N33630G1X-30.431Y-19.638
N33640G1X-30.168Y-19.765
N33650G1X-29.892Y-19.866
N33660G1X-29.604Y-19.940
N33670G1X-29.305Y-19.986
N33680G1X-29.025Y-20.000
N33690G1X-18.975
N33700G1X-18.695Y-19.986
N33710G1X-18.396Y-19.940
N33720G1X-18.108Y-19.866
N33730G1X-17.832Y-19.765
N33740G1X-17.569Y-19.638
N33750G1X-17.321Y-19.488
N33760G1X-17.091Y-19.315
N33770G1X-16.878Y-19.122
N33780G1X-16.685Y-18.909
N33790G1X-16.512Y-18.679
N33800G1X-16.362Y-18.431
N33810G1X-16.235Y-18.168
N33820G1X-16.134Y-17.892
N33830G1X-16.060Y-17.604
N33840G1X-16.014Y-17.305
N33850G1X-16.000Y-17.025
N33860G1Y-2.975
N33870G1X-16.014Y-2.695
N33880G1X-16.060Y-2.396
N33890G1Z-1.500F1200.0
N33900G1X-16.134Y-2.108F3600.0
N33910G1X-16.235Y-1.832
N33920G1X-16.362Y-1.569
N33930G1X-16.512Y-1.321
N33940G1X-16.685Y-1.091
N33950G1X-16.878Y-0.878
N33960G1X-17.091Y-0.685
N33970G1X-17.321Y-0.512
N33980G1X-17.569Y-0.362
N33990G1X-17.832Y-0.235
N34000G1X-18.108Y-0.134
N34010G1X-18.396Y-0.060
N34020G1X-18.695Y-0.014
N34030G1X-18.975Y0.000
N34040G1X-29.025
N34050G1X-29.305Y-0.014
N34060G1X-29.604Y-0.060
N34070G1X-29.892Y-0.134
N34080G1X-30.168Y-0.235
N34090G1X-30.431Y-0.362
N34100G1X-30.679Y-0.512
N34110G1X-30.909Y-0.685
N34120G1X-31.122Y-0.878
N34130G1X-31.315Y-1.091
N34140G1X-31.488Y-1.321
N34150G1X-31.638Y-1.569
N34160G1X-31.765Y-1.832
N34170G1X-31.866Y-2.108
N34180G1X-31.940Y-2.396
N34190G1X-31.986Y-2.695
N34200G1X-32.000Y-2.975
N34210G1Y-17.025
N34220G1X-31.986Y-17.305
N34230G1X-31.940Y-17.604
N34240G1X-31.866Y-17.892
N34250G1X-31.765Y-18.168
N34260G1X-31.638Y-18.431
N34270G1X-31.488Y-18.679
N34280G1X-31.315Y-18.909
N34290G1X-31.122Y-19.122
N34300G1X-30.909Y-19.315
N34310G1X-30.679Y-19.488
N34320G1X-30.431Y-19.638
N34330G1X-30.168Y-19.765
N34340G1X-29.892Y-19.866
N34350G1X-29.604Y-19.940
N34360G1X-29.305Y-19.986
N34370G1X-29.025Y-20.000
N34380G1X-18.975
N34390G1X-18.695Y-19.986
N34400G1X-18.396Y-19.940
N34410G1X-18.108Y-19.866
N34420G1X-17.832Y-19.765
N34430G1X-17.569Y-19.638
N34440G1X-17.321Y-19.488
N34450G1X-17.091Y-19.315
N34460G1X-16.878Y-19.122
N34470G1X-16.685Y-18.909
N34480G1X-16.512Y-18.679
N34490G1X-16.362Y-18.431
N34500G1X-16.235Y-18.168
N34510G1X-16.134Y-17.892
N34520G1X-16.060Y-17.604
N34530G1X-16.014Y-17.305
N34540G1X-16.000Y-17.025
N34550G1Y-2.975
N34560G1X-16.014Y-2.695
N34570G1X-16.060Y-2.396
N34580G1Z-2.000F1200.0
N34590G1X-16.134Y-2.108F3600.0
N34600G1X-16.235Y-1.832
N34610G1X-16.362Y-1.569
N34620G1X-16.512Y-1.321
N34630G1X-16.685Y-1.091
N34640G1X-16.878Y-0.878
N34650G1X-17.091Y-0.685
N34660G1X-17.321Y-0.512
N34670G1X-17.569Y-0.362
N34680G1X-17.832Y-0.235
N34690G1X-18.108Y-0.134
N34700G1X-18.396Y-0.060
N34710G1X-18.695Y-0.014
N34720G1X-18.975Y0.000
N34730G1X-29.025
N34740G1X-29.305Y-0.014
N34750G1X-29.604Y-0.060
N34760G1X-29.892Y-0.134
N34770G1X-30.168Y-0.235
N34780G1X-30.431Y-0.362
N34790G1X-30.679Y-0.512
N34800G1X-30.909Y-0.685
N34810G1X-31.122Y-0.878
N34820G1X-31.315Y-1.091
N34830G1X-31.488Y-1.321
N34840G1X-31.638Y-1.569
N34850G1X-31.765Y-1.832
N34860G1X-31.866Y-2.108
N34870G1X-31.940Y-2.396
N34880G1X-31.986Y-2.695
N34890G1X-32.000Y-2.975
N34900G1Y-17.025
N34910G1X-31.986Y-17.305
N34920G1X-31.940Y-17.604
N34930G1X-31.866Y-17.892
N34940G1X-31.765Y-18.168
N34950G1X-31.638Y-18.431
N34960G1X-31.488Y-18.679
N34970G1X-31.315Y-18.909
N34980G1X-31.122Y-19.122
N34990G1X-30.909Y-19.315
N35000G1X-30.679Y-19.488
N35010G1X-30.431Y-19.638
N35020G1X-30.168Y-19.765
N35030G1X-29.892Y-19.866
N35040G1X-29.604Y-19.940
N35050G1X-29.305Y-19.986
N35060G1X-29.025Y-20.000
N35070G1X-18.975
N35080G1X-18.695Y-19.986
N35090G1X-18.396Y-19.940
N35100G1X-18.108Y-19.866
N35110G1X-17.832Y-19.765
N35120G1X-17.569Y-19.638
N35130G1X-17.321Y-19.488
N35140G1X-17.091Y-19.315
N35150G1X-16.878Y-19.122
N35160G1X-16.685Y-18.909
N35170G1X-16.512Y-18.679
N35180G1X-16.362Y-18.431
N35190G1X-16.235Y-18.168
N35200G1X-16.134Y-17.892
N35210G1X-16.060Y-17.604
N35220G1X-16.014Y-17.305
N35230G1X-16.000Y-17.025
N35240G1Y-2.975
N35250G1X-16.014Y-2.695
N35260G1X-16.060Y-2.396
N35270G00Z6.000
N35280S12000M03
(Profile 7)
()
N35310G00X-0.878Y-0.878Z6.000
N35320G1Z-0.500F1200.0
N35330G1X-1.091Y-0.685F3600.0
N35340G1X-1.321Y-0.512
N35350G1X-1.569Y-0.362
N35360G1X-1.832Y-0.235
N35370G1X-2.108Y-0.134
N35380G1X-2.396Y-0.060
N35390G1X-2.695Y-0.014
N35400G1X-2.975Y0.000
N35410G1X-13.025
N35420G1X-13.305Y-0.014
N35430G1X-13.604Y-0.060
N35440G1X-13.892Y-0.134
N35450G1X-14.168Y-0.235
N35460G1X-14.431Y-0.362
N35470G1X-14.679Y-0.512
N35480G1X-14.909Y-0.685
N35490G1X-15.122Y-0.878
N35500G1X-15.315Y-1.091
N35510G1X-15.488Y-1.321
N35520G1X-15.638Y-1.569
N35530G1X-15.765Y-1.832
N35540G1X-15.866Y-2.108
N35550G1X-15.940Y-2.396
N35560G1X-15.986Y-2.695
N35570G1X-16.000Y-2.975
N35580G1Y-17.025
N35590G1X-15.986Y-17.305
N35600G1X-15.940Y-17.604
N35610G1X-15.866Y-17.892
N35620G1X-15.765Y-18.168
N35630G1X-15.638Y-18.431
N35640G1X-15.488Y-18.679
N35650G1X-15.315Y-18.909
N35660G1X-15.122Y-19.122
N35670G1X-14.909Y-19.315
N35680G1X-14.679Y-19.488
N35690G1X-14.431Y-19.638
N35700G1X-14.168Y-19.765
N35710G1X-13.892Y-19.866
N35720G1X-13.604Y-19.940
N35730G1X-13.305Y-19.986
N35740G1X-13.025Y-20.000
N35750G1X-2.975
N35760G1X-2.695Y-19.986
N35770G1X-2.396Y-19.940
N35780G1X-2.108Y-19.866
N35790G1X-1.832Y-19.765
N35800G1X-1.569Y-19.638
N35810G1X-1.321Y-19.488
N35820G1X-1.091Y-19.315
N35830G1X-0.878Y-19.122
N35840G1X-0.685Y-18.909
N35850G1X-0.512Y-18.679
N35860G1X-0.362Y-18.431
N35870G1X-0.235Y-18.168
N35880G1X-0.134Y-17.892
N35890G1X-0.060Y-17.604
N35900G1X-0.014Y-17.305
N35910G1X0.000Y-17.025
N35920G1Y-2.975
N35930G1X-0.014Y-2.695
N35940G1X-0.060Y-2.396
N35950G1X-0.134Y-2.108
N35960G1X-0.235Y-1.832
N35970G1X-0.362Y-1.569
N35980G1X-0.512Y-1.321
N35990G1X-0.685Y-1.091
N36000G1X-0.878Y-0.878
N36010G1Z-1.000F1200.0
N36020G1X-1.091Y-0.685F3600.0
N36030G1X-1.321Y-0.512
N36040G1X-1.569Y-0.362
N36050G1X-1.832Y-0.235
N36060G1X-2.108Y-0.134
N36070G1X-2.396Y-0.060
N36080G1X-2.695Y-0.014
N36090G1X-2.975Y0.000
N36100G1X-13.025
N36110G1X-13.305Y-0.014
N36120G1X-13.604Y-0.060
N36130G1X-13.892Y-0.134
N36140G1X-14.168Y-0.235
N36150G1X-14.431Y-0.362
N36160G1X-14.679Y-0.512
N36170G1X-14.909Y-0.685
N36180G1X-15.122Y-0.878
N36190G1X-15.315Y-1.091
N36200G1X-15.488Y-1.321
N36210G1X-15.638Y-1.569
N36220G1X-15.765Y-1.832
N36230G1X-15.866Y-2.108
N36240G1X-15.940Y-2.396
N36250G1X-15.986Y-2.695
N36260G1X-16.000Y-2.975
N36270G1Y-17.025
N36280G1X-15.986Y-17.305
N36290G1X-15.940Y-17.604
N36300G1X-15.866Y-17.892
N36310G1X-15.765Y-18.168
N36320G1X-15.638Y-18.431
N36330G1X-15.488Y-18.679
N36340G1X-15.315Y-18.909
N36350G1X-15.122Y-19.122
N36360G1X-14.909Y-19.315
N36370G1X-14.679Y-19.488
N36380G1X-14.431Y-19.638
N36390G1X-14.168Y-19.765
N36400G1X-13.892Y-19.866
N36410G1X-13.604Y-19.940
N36420G1X-13.305Y-19.986
N36430G1X-13.025Y-20.000
N36440G1X-2.975
N36450G1X-2.695Y-19.986
N36460G1X-2.396Y-19.940
N36470G1X-2.108Y-19.866
N36480G1X-1.832Y-19.765
N36490G1X-1.569Y-19.638
N36500G1X-1.321Y-19.488
N36510G1X-1.091Y-19.315
N36520G1X-0.878Y-19.122
N36530G1X-0.685Y-18.909
N36540G1X-0.512Y-18.679
N36550G1X-0.362Y-18.431
N36560G1X-0.235Y-18.168
N36570G1X-0.134Y-17.892
N36580G1X-0.060Y-17.604
N36590G1X-0.014Y-17.305
N36600G1X0.000Y-17.025
N36610G1Y-2.975
N36620G1X-0.014Y-2.695
N36630G1X-0.060Y-2.396
N36640G1X-0.134Y-2.108
N36650G1X-0.235Y-1.832
N36660G1X-0.362Y-1.569
N36670G1X-0.512Y-1.321
N36680G1X-0.685Y-1.091
N36690G1X-0.878Y-0.878
N36700G1Z-1.500F1200.0
N36710G1X-1.091Y-0.685F3600.0
N36720G1X-1.321Y-0.512
N36730G1X-1.569Y-0.362
N36740G1X-1.832Y-0.235
N36750G1X-2.108Y-0.134
N36760G1X-2.396Y-0.060
N36770G1X-2.695Y-0.014
N36780G1X-2.975Y0.000
N36790G1X-13.025
N36800G1X-13.305Y-0.014
N36810G1X-13.604Y-0.060
N36820G1X-13.892Y-0.134
N36830G1X-14.168Y-0.235
N36840G1X-14.431Y-0.362
N36850G1X-14.679Y-0.512
N36860G1X-14.909Y-0.685
N36870G1X-15.122Y-0.878
N36880G1X-15.315Y-1.091
N36890G1X-15.488Y-1.321
N36900G1X-15.638Y-1.569
N36910G1X-15.765Y-1.832
N36920G1X-15.866Y-2.108
N36930G1X-15.940Y-2.396
N36940G1X-15.986Y-2.695
N36950G1X-16.000Y-2.975
N36960G1Y-17.025
N36970G1X-15.986Y-17.305
N36980G1X-15.940Y-17.604
N36990G1X-15.866Y-17.892
N37000G1X-15.765Y-18.168
N37010G1X-15.638Y-18.431
N37020G1X-15.488Y-18.679
N37030G1X-15.315Y-18.909
N37040G1X-15.122Y-19.122
N37050G1X-14.909Y-19.315
N37060G1X-14.679Y-19.488
N37070G1X-14.431Y-19.638
N37080G1X-14.168Y-19.765
N37090G1X-13.892Y-19.866
N37100G1X-13.604Y-19.940
N37110G1X-13.305Y-19.986
N37120G1X-13.025Y-20.000
N37130G1X-2.975
N37140G1X-2.695Y-19.986
N37150G1X-2.396Y-19.940
N37160G1X-2.108Y-19.866
N37170G1X-1.832Y-19.765
N37180G1X-1.569Y-19.638
N37190G1X-1.321Y-19.488
N37200G1X-1.091Y-19.315
N37210G1X-0.878Y-19.122
N37220G1X-0.685Y-18.909
N37230G1X-0.512Y-18.679
N37240G1X-0.362Y-18.431
N37250G1X-0.235Y-18.168
N37260G1X-0.134Y-17.892
N37270G1X-0.060Y-17.604
N37280G1X-0.014Y-17.305
N37290G1X0.000Y-17.025
N37300G1Y-2.975
N37310G1X-0.014Y-2.695
N37320G1X-0.060Y-2.396
N37330G1X-0.134Y-2.108
N37340G1X-0.235Y-1.832
N37350G1X-0.362Y-1.569
N37360G1X-0.512Y-1.321
N37370G1X-0.685Y-1.091
N37380G1X-0.878Y-0.878
N37390G1Z-2.000F1200.0
N37400G1X-1.091Y-0.685F3600.0
N37410G1X-1.321Y-0.512
N37420G1X-1.569Y-0.362
N37430G1X-1.832Y-0.235
N37440G1X-2.108Y-0.134
N37450G1X-2.396Y-0.060
N37460G1X-2.695Y-0.014
N37470G1X-2.975Y0.000
N37480G1X-13.025
N37490G1X-13.305Y-0.014
N37500G1X-13.604Y-0.060
N37510G1X-13.892Y-0.134
N37520G1X-14.168Y-0.235
N37530G1X-14.431Y-0.362
N37540G1X-14.679Y-0.512
N37550G1X-14.909Y-0.685
N37560G1X-15.122Y-0.878
N37570G1X-15.315Y-1.091
N37580G1X-15.488Y-1.321
N37590G1X-15.638Y-1.569
N37600G1X-15.765Y-1.832
N37610G1X-15.866Y-2.108
N37620G1X-15.940Y-2.396
N37630G1X-15.986Y-2.695
N37640G1X-16.000Y-2.975
N37650G1Y-17.025
N37660G1X-15.986Y-17.305
N37670G1X-15.940Y-17.604
N37680G1X-15.866Y-17.892
N37690G1X-15.765Y-18.168
N37700G1X-15.638Y-18.431
N37710G1X-15.488Y-18.679
N37720G1X-15.315Y-18.909
N37730G1X-15.122Y-19.122
N37740G1X-14.909Y-19.315
N37750G1X-14.679Y-19.488
N37760G1X-14.431Y-19.638
N37770G1X-14.168Y-19.765
N37780G1X-13.892Y-19.866
N37790G1X-13.604Y-19.940
N37800G1X-13.305Y-19.986
N37810G1X-13.025Y-20.000
N37820G1X-2.975
N37830G1X-2.695Y-19.986
N37840G1X-2.396Y-19.940
N37850G1X-2.108Y-19.866
N37860G1X-1.832Y-19.765
N37870G1X-1.569Y-19.638
N37880G1X-1.321Y-19.488
N37890G1X-1.091Y-19.315
N37900G1X-0.878Y-19.122
N37910G1X-0.685Y-18.909
N37920G1X-0.512Y-18.679
N37930G1X-0.362Y-18.431
N37940G1X-0.235Y-18.168
N37950G1X-0.134Y-17.892
N37960G1X-0.060Y-17.604
N37970G1X-0.014Y-17.305
N37980G1X0.000Y-17.025
N37990G1Y-2.975
N38000G1X-0.014Y-2.695
N38010G1X-0.060Y-2.396
N38020G1X-0.134Y-2.108
N38030G1X-0.235Y-1.832
N38040G1X-0.362Y-1.569
N38050G1X-0.512Y-1.321
N38060G1X-0.685Y-1.091
N38070G1X-0.878Y-0.878
N38080G00Z6.000
N38090S12000M03
(Profile 8)
()
N38120G00X0.878Y-0.878Z6.000
N38130G1Z-0.500F1200.0
N38140G1X0.685Y-1.091F3600.0
N38150G1X0.512Y-1.321
N38160G1X0.362Y-1.569
N38170G1X0.235Y-1.832
N38180G1X0.134Y-2.108
N38190G1X0.060Y-2.396
N38200G1X0.014Y-2.695
N38210G1X0.000Y-2.975
N38220G1Y-17.025
N38230G1X0.014Y-17.305
N38240G1X0.060Y-17.604
N38250G1X0.134Y-17.892
N38260G1X0.235Y-18.168
N38270G1X0.362Y-18.431
N38280G1X0.512Y-18.679
N38290G1X0.685Y-18.909
N38300G1X0.878Y-19.122
N38310G1X1.091Y-19.315
N38320G1X1.321Y-19.488
N38330G1X1.569Y-19.638
N38340G1X1.832Y-19.765
N38350G1X2.108Y-19.866
N38360G1X2.396Y-19.940
N38370G1X2.695Y-19.986
N38380G1X2.975Y-20.000
N38390G1X13.025
N38400G1X13.305Y-19.986
N38410G1X13.604Y-19.940
N38420G1X13.892Y-19.866
N38430G1X14.168Y-19.765
N38440G1X14.431Y-19.638
N38450G1X14.679Y-19.488
N38460G1X14.909Y-19.315
N38470G1X15.122Y-19.122
N38480G1X15.315Y-18.909
N38490G1X15.488Y-18.679
N38500G1X15.638Y-18.431
N38510G1X15.765Y-18.168
N38520G1X15.866Y-17.892
N38530G1X15.940Y-17.604
N38540G1X15.986Y-17.305
N38550G1X16.000Y-17.025
N38560G1Y-2.975
N38570G1X15.986Y-2.695
N38580G1X15.940Y-2.396
N38590G1X15.866Y-2.108
N38600G1X15.765Y-1.832
N38610G1X15.638Y-1.569
N38620G1X15.488Y-1.321
N38630G1X15.315Y-1.091
N38640G1X15.122Y-0.878
N38650G1X14.909Y-0.685
N38660G1X14.679Y-0.512
N38670G1X14.431Y-0.362
N38680G1X14.168Y-0.235
N38690G1X13.892Y-0.134
N38700G1X13.604Y-0.060
N38710G1X13.305Y-0.014
N38720G1X13.025Y0.000
N38730G1X2.975
N38740G1X2.695Y-0.014
N38750G1X2.396Y-0.060
N38760G1X2.108Y-0.134
N38770G1X1.832Y-0.235
N38780G1X1.569Y-0.362
N38790G1X1.321Y-0.512
N38800G1X1.091Y-0.685
N38810G1X0.878Y-0.878
N38820G1Z-1.000F1200.0
N38830G1X0.685Y-1.091F3600.0
N38840G1X0.512Y-1.321
N38850G1X0.362Y-1.569
N38860G1X0.235Y-1.832
N38870G1X0.134Y-2.108
N38880G1X0.060Y-2.396
N38890G1X0.014Y-2.695
N38900G1X0.000Y-2.975
N38910G1Y-17.025
N38920G1X0.014Y-17.305
N38930G1X0.060Y-17.604
N38940G1X0.134Y-17.892
N38950G1X0.235Y-18.168
N38960G1X0.362Y-18.431
N38970G1X0.512Y-18.679
N38980G1X0.685Y-18.909
N38990G1X0.878Y-19.122
N39000G1X1.091Y-19.315
N39010G1X1.321Y-19.488
N39020G1X1.569Y-19.638
N39030G1X1.832Y-19.765
N39040G1X2.108Y-19.866
N39050G1X2.396Y-19.940
N39060G1X2.695Y-19.986
N39070G1X2.975Y-20.000
N39080G1X13.025
N39090G1X13.305Y-19.986
N39100G1X13.604Y-19.940
N39110G1X13.892Y-19.866
N39120G1X14.168Y-19.765
N39130G1X14.431Y-19.638
N39140G1X14.679Y-19.488
N39150G1X14.909Y-19.315
N39160G1X15.122Y-19.122
N39170G1X15.315Y-18.909
N39180G1X15.488Y-18.679
N39190G1X15.638Y-18.431
N39200G1X15.765Y-18.168
N39210G1X15.866Y-17.892
N39220G1X15.940Y-17.604
N39230G1X15.986Y-17.305
N39240G1X16.000Y-17.025
N39250G1Y-2.975
N39260G1X15.986Y-2.695
N39270G1X15.940Y-2.396
N39280G1X15.866Y-2.108
N39290G1X15.765Y-1.832
N39300G1X15.638Y-1.569
N39310G1X15.488Y-1.321
N39320G1X15.315Y-1.091
N39330G1X15.122Y-0.878
N39340G1X14.909Y-0.685
N39350G1X14.679Y-0.512
N39360G1X14.431Y-0.362
N39370G1X14.168Y-0.235
N39380G1X13.892Y-0.134
N39390G1X13.604Y-0.060
N39400G1X13.305Y-0.014
N39410G1X13.025Y0.000
N39420G1X2.975
N39430G1X2.695Y-0.014
N39440G1X2.396Y-0.060
N39450G1X2.108Y-0.134
N39460G1X1.832Y-0.235
N39470G1X1.569Y-0.362
N39480G1X1.321Y-0.512
N39490G1X1.091Y-0.685
N39500G1X0.878Y-0.878
N39510G1Z-1.500F1200.0
N39520G1X0.685Y-1.091F3600.0
N39530G1X0.512Y-1.321
N39540G1X0.362Y-1.569
N39550G1X0.235Y-1.832
N39560G1X0.134Y-2.108
N39570G1X0.060Y-2.396
N39580G1X0.014Y-2.695
N39590G1X0.000Y-2.975
N39600G1Y-17.025
N39610G1X0.014Y-17.305
N39620G1X0.060Y-17.604
N39630G1X0.134Y-17.892
N39640G1X0.235Y-18.168
N39650G1X0.362Y-18.431
N39660G1X0.512Y-18.679
N39670G1X0.685Y-18.909
N39680G1X0.878Y-19.122
N39690G1X1.091Y-19.315
N39700G1X1.321Y-19.488
N39710G1X1.569Y-19.638
N39720G1X1.832Y-19.765
N39730G1X2.108Y-19.866
N39740G1X2.396Y-19.940
N39750G1X2.695Y-19.986
N39760G1X2.975Y-20.000
N39770G1X13.025
N39780G1X13.305Y-19.986
N39790G1X13.604Y-19.940
N39800G1X13.892Y-19.866
N39810G1X14.168Y-19.765
N39820G1X14.431Y-19.638
N39830G1X14.679Y-19.488
N39840G1X14.909Y-19.315
N39850G1X15.122Y-19.122
N39860G1X15.315Y-18.909
N39870G1X15.488Y-18.679
N39880G1X15.638Y-18.431
N39890G1X15.765Y-18.168
N39900G1X15.866Y-17.892
N39910G1X15.940Y-17.604
N39920G1X15.986Y-17.305
N39930G1X16.000Y-17.025
N39940G1Y-2.975
N39950G1X15.986Y-2.695
N39960G1X15.940Y-2.396
N39970G1X15.866Y-2.108
N39980G1X15.765Y-1.832
N39990G1X15.638Y-1.569
N40000G1X15.488Y-1.321
N40010G1X15.315Y-1.091
N40020G1X15.122Y-0.878
N40030G1X14.909Y-0.685
N40040G1X14.679Y-0.512
N40050G1X14.431Y-0.362
N40060G1X14.168Y-0.235
N40070G1X13.892Y-0.134
N40080G1X13.604Y-0.060
N40090G1X13.305Y-0.014
N40100G1X13.025Y0.000
N40110G1X2.975
N40120G1X2.695Y-0.014
N40130G1X2.396Y-0.060
N40140G1X2.108Y-0.134
N40150G1X1.832Y-0.235
N40160G1X1.569Y-0.362
N40170G1X1.321Y-0.512
N40180G1X1.091Y-0.685
N40190G1X0.878Y-0.878
N40200G1Z-2.000F1200.0
N40210G1X0.685Y-1.091F3600.0
N40220G1X0.512Y-1.321
N40230G1X0.362Y-1.569
N40240G1X0.235Y-1.832
N40250G1X0.134Y-2.108
N40260G1X0.060Y-2.396
N40270G1X0.014Y-2.695
N40280G1X0.000Y-2.975
N40290G1Y-17.025
N40300G1X0.014Y-17.305
N40310G1X0.060Y-17.604
N40320G1X0.134Y-17.892
N40330G1X0.235Y-18.168
N40340G1X0.362Y-18.431
N40350G1X0.512Y-18.679
N40360G1X0.685Y-18.909
N40370G1X0.878Y-19.122
N40380G1X1.091Y-19.315
N40390G1X1.321Y-19.488
N40400G1X1.569Y-19.638
N40410G1X1.832Y-19.765
N40420G1X2.108Y-19.866
N40430G1X2.396Y-19.940
N40440G1X2.695Y-19.986
N40450G1X2.975Y-20.000
N40460G1X13.025
N40470G1X13.305Y-19.986
N40480G1X13.604Y-19.940
N40490G1X13.892Y-19.866
N40500G1X14.168Y-19.765
N40510G1X14.431Y-19.638
N40520G1X14.679Y-19.488
N40530G1X14.909Y-19.315
N40540G1X15.122Y-19.122
N40550G1X15.315Y-18.909
N40560G1X15.488Y-18.679
N40570G1X15.638Y-18.431
N40580G1X15.765Y-18.168
N40590G1X15.866Y-17.892
N40600G1X15.940Y-17.604
N40610G1X15.986Y-17.305
N40620G1X16.000Y-17.025
N40630G1Y-2.975
N40640G1X15.986Y-2.695
N40650G1X15.940Y-2.396
N40660G1X15.866Y-2.108
N40670G1X15.765Y-1.832
N40680G1X15.638Y-1.569
N40690G1X15.488Y-1.321
N40700G1X15.315Y-1.091
N40710G1X15.122Y-0.878
N40720G1X14.909Y-0.685
N40730G1X14.679Y-0.512
N40740G1X14.431Y-0.362
N40750G1X14.168Y-0.235
N40760G1X13.892Y-0.134
N40770G1X13.604Y-0.060
N40780G1X13.305Y-0.014
N40790G1X13.025Y0.000
N40800G1X2.975
N40810G1X2.695Y-0.014
N40820G1X2.396Y-0.060
N40830G1X2.108Y-0.134
N40840G1X1.832Y-0.235
N40850G1X1.569Y-0.362
N40860G1X1.321Y-0.512
N40870G1X1.091Y-0.685
N40880G1X0.878Y-0.878
N40890G00Z6.000
N40900S12000M03
(Profile 9)
()
N40930G00X16.060Y-2.396Z6.000
N40940G1Z-0.500F1200.0
N40950G1X16.014Y-2.695F3600.0
N40960G1X16.000Y-2.975
N40970G1Y-17.025
N40980G1X16.014Y-17.305
N40990G1X16.060Y-17.604
N41000G1X16.134Y-17.892
N41010G1X16.235Y-18.168
N41020G1X16.362Y-18.431
N41030G1X16.512Y-18.679
N41040G1X16.685Y-18.909
N41050G1X16.878Y-19.122
N41060G1X17.091Y-19.315
N41070G1X17.321Y-19.488
N41080G1X17.569Y-19.638
N41090G1X17.832Y-19.765
N41100G1X18.108Y-19.866
N41110G1X18.396Y-19.940
N41120G1X18.695Y-19.986
N41130G1X18.975Y-20.000
N41140G1X29.025
N41150G1X29.305Y-19.986
N41160G1X29.604Y-19.940
N41170G1X29.892Y-19.866
N41180G1X30.168Y-19.765
N41190G1X30.431Y-19.638
N41200G1X30.679Y-19.488
N41210G1X30.909Y-19.315
N41220G1X31.122Y-19.122
N41230G1X31.315Y-18.909
N41240G1X31.488Y-18.679
N41250G1X31.638Y-18.431
N41260G1X31.765Y-18.168
N41270G1X31.866Y-17.892
N41280G1X31.940Y-17.604
N41290G1X31.986Y-17.305
N41300G1X32.000Y-17.025
N41310G1Y-2.975
N41320G1X31.986Y-2.695
N41330G1X31.940Y-2.396
N41340G1X31.866Y-2.108
N41350G1X31.765Y-1.832
N41360G1X31.638Y-1.569
N41370G1X31.488Y-1.321
N41380G1X31.315Y-1.091
N41390G1X31.122Y-0.878
N41400G1X30.909Y-0.685
N41410G1X30.679Y-0.512
N41420G1X30.431Y-0.362
N41430G1X30.168Y-0.235
N41440G1X29.892Y-0.134
N41450G1X29.604Y-0.060
N41460G1X29.305Y-0.014
N41470G1X29.025Y0.000
N41480G1X18.975
N41490G1X18.695Y-0.014
N41500G1X18.396Y-0.060
N41510G1X18.108Y-0.134
N41520G1X17.832Y-0.235
N41530G1X17.569Y-0.362
N41540G1X17.321Y-0.512
N41550G1X17.091Y-0.685
N41560G1X16.878Y-0.878
N41570G1X16.685Y-1.091
N41580G1X16.512Y-1.321
N41590G1X16.362Y-1.569
N41600G1X16.235Y-1.832
N41610G1X16.134Y-2.108
N41620G1X16.060Y-2.396
N41630G1Z-1.000F1200.0
N41640G1X16.014Y-2.695F3600.0
N41650G1X16.000Y-2.975
N41660G1Y-17.025
N41670G1X16.014Y-17.305
N41680G1X16.060Y-17.604
N41690G1X16.134Y-17.892
N41700G1X16.235Y-18.168
N41710G1X16.362Y-18.431
N41720G1X16.512Y-18.679
N41730G1X16.685Y-18.909
N41740G1X16.878Y-19.122
N41750G1X17.091Y-19.315
N41760G1X17.321Y-19.488
N41770G1X17.569Y-19.638
N41780G1X17.832Y-19.765
N41790G1X18.108Y-19.866
N41800G1X18.396Y-19.940
N41810G1X18.695Y-19.986
N41820G1X18.975Y-20.000
N41830G1X29.025
N41840G1X29.305Y-19.986
N41850G1X29.604Y-19.940
N41860G1X29.892Y-19.866
N41870G1X30.168Y-19.765
N41880G1X30.431Y-19.638
N41890G1X30.679Y-19.488
N41900G1X30.909Y-19.315
N41910G1X31.122Y-19.122
N41920G1X31.315Y-18.909
N41930G1X31.488Y-18.679
N41940G1X31.638Y-18.431
N41950G1X31.765Y-18.168
N41960G1X31.866Y-17.892
N41970G1X31.940Y-17.604
N41980G1X31.986Y-17.305
N41990G1X32.000Y-17.025
N42000G1Y-2.975
N42010G1X31.986Y-2.695
N42020G1X31.940Y-2.396
N42030G1X31.866Y-2.108
N42040G1X31.765Y-1.832
N42050G1X31.638Y-1.569
N42060G1X31.488Y-1.321
N42070G1X31.315Y-1.091
N42080G1X31.122Y-0.878
N42090G1X30.909Y-0.685
N42100G1X30.679Y-0.512
N42110G1X30.431Y-0.362
N42120G1X30.168Y-0.235
N42130G1X29.892Y-0.134
N42140G1X29.604Y-0.060
N42150G1X29.305Y-0.014
N42160G1X29.025Y0.000
N42170G1X18.975
N42180G1X18.695Y-0.014
N42190G1X18.396Y-0.060
N42200G1X18.108Y-0.134
N42210G1X17.832Y-0.235
N42220G1X17.569Y-0.362
N42230G1X17.321Y-0.512
N42240G1X17.091Y-0.685
N42250G1X16.878Y-0.878
N42260G1X16.685Y-1.091
N42270G1X16.512Y-1.321
