( SWITCH_PANEL_CUTOUT )
( File created: Friday December 20 2019 - 12:40 PM)
( USBCNC Postprocessor )
( Material Size)
( X= 250.000, Y= 250.000, Z= 2.000)
()
(Toolpaths used in this file:)
(Profile 1)
(Profile 2)
(Tools used in this file: )
(1 = End Mill {2 mm})
N110G00G21G17G90G40G49
N120G80
N130 (End Mill {2 mm})
N140G00G43Z20.000H1
N150S12000M03
N160(Toolpath:- Profile 1)
N170()
N180G94
N190X0.000Y0.000F3600.0
N200G00X-28.042Y5.596Z6.000
N210G1Z-0.500F1200.0
N220G1X-28.091Y5.405F3600.0
N230G1X-28.158Y5.222
N240G1X-28.242Y5.048
N250G1X-28.342Y4.883
N260G1X-28.457Y4.729
N270G1X-28.587Y4.587
N280G1X-28.729Y4.457
N290G1X-28.883Y4.342
N300G1X-29.048Y4.242
N310G1X-29.222Y4.158
N320G1X-29.405Y4.091
N330G1X-29.596Y4.042
N340G1X-29.794Y4.012
N350G1X-30.000Y4.001
N360G1X-30.206Y4.012
N370G1X-30.404Y4.042
N380G1X-30.595Y4.091
N390G1X-30.778Y4.158
N400G1X-30.952Y4.242
N410G1X-31.117Y4.342
N420G1X-31.271Y4.457
N430G1X-31.413Y4.587
N440G1X-31.543Y4.729
N450G1X-31.658Y4.883
N460G1X-31.758Y5.048
N470G1X-31.842Y5.222
N480G1X-31.909Y5.405
N490G1X-31.958Y5.596
N500G1X-31.988Y5.794
N510G1X-31.999Y6.000
N520G1X-31.988Y6.206
N530G1X-31.958Y6.404
N540G1X-31.909Y6.595
N550G1X-31.842Y6.778
N560G1X-31.758Y6.952
N570G1X-31.658Y7.117
N580G1X-31.543Y7.271
N590G1X-31.413Y7.413
N600G1X-31.271Y7.543
N610G1X-31.117Y7.658
N620G1X-30.952Y7.758
N630G1X-30.778Y7.842
N640G1X-30.595Y7.909
N650G1X-30.404Y7.958
N660G1X-30.206Y7.988
N670G1X-30.000Y7.999
N680G1X-29.794Y7.988
N690G1X-29.596Y7.958
N700G1X-29.405Y7.909
N710G1X-29.222Y7.842
N720G1X-29.048Y7.758
N730G1X-28.883Y7.658
N740G1X-28.729Y7.543
N750G1X-28.587Y7.413
N760G1X-28.457Y7.271
N770G1X-28.342Y7.117
N780G1X-28.242Y6.952
N790G1X-28.158Y6.778
N800G1X-28.091Y6.595
N810G1X-28.042Y6.404
N820G1X-28.012Y6.206
N830G1X-28.001Y6.000
N840G1X-28.012Y5.794
N850G1X-28.042Y5.596
N860G1Z-1.000F1200.0
N870G1X-28.091Y5.405F3600.0
N880G1X-28.158Y5.222
N890G1X-28.242Y5.048
N900G1X-28.342Y4.883
N910G1X-28.457Y4.729
N920G1X-28.587Y4.587
N930G1X-28.729Y4.457
N940G1X-28.883Y4.342
N950G1X-29.048Y4.242
N960G1X-29.222Y4.158
N970G1X-29.405Y4.091
N980G1X-29.596Y4.042
N990G1X-29.794Y4.012
N1000G1X-30.000Y4.001
N1010G1X-30.206Y4.012
N1020G1X-30.404Y4.042
N1030G1X-30.595Y4.091
N1040G1X-30.778Y4.158
N1050G1X-30.952Y4.242
N1060G1X-31.117Y4.342
N1070G1X-31.271Y4.457
N1080G1X-31.413Y4.587
N1090G1X-31.543Y4.729
N1100G1X-31.658Y4.883
N1110G1X-31.758Y5.048
N1120G1X-31.842Y5.222
N1130G1X-31.909Y5.405
N1140G1X-31.958Y5.596
N1150G1X-31.988Y5.794
N1160G1X-31.999Y6.000
N1170G1X-31.988Y6.206
N1180G1X-31.958Y6.404
N1190G1X-31.909Y6.595
N1200G1X-31.842Y6.778
N1210G1X-31.758Y6.952
N1220G1X-31.658Y7.117
N1230G1X-31.543Y7.271
N1240G1X-31.413Y7.413
N1250G1X-31.271Y7.543
N1260G1X-31.117Y7.658
N1270G1X-30.952Y7.758
N1280G1X-30.778Y7.842
N1290G1X-30.595Y7.909
N1300G1X-30.404Y7.958
N1310G1X-30.206Y7.988
N1320G1X-30.000Y7.999
N1330G1X-29.794Y7.988
N1340G1X-29.596Y7.958
N1350G1X-29.405Y7.909
N1360G1X-29.222Y7.842
N1370G1X-29.048Y7.758
N1380G1X-28.883Y7.658
N1390G1X-28.729Y7.543
N1400G1X-28.587Y7.413
N1410G1X-28.457Y7.271
N1420G1X-28.342Y7.117
N1430G1X-28.242Y6.952
N1440G1X-28.158Y6.778
N1450G1X-28.091Y6.595
N1460G1X-28.042Y6.404
N1470G1X-28.012Y6.206
N1480G1X-28.001Y6.000
N1490G1X-28.012Y5.794
N1500G1X-28.042Y5.596
N1510G1Z-1.500F1200.0
N1520G1X-28.091Y5.405F3600.0
N1530G1X-28.158Y5.222
N1540G1X-28.242Y5.048
N1550G1X-28.342Y4.883
N1560G1X-28.457Y4.729
N1570G1X-28.587Y4.587
N1580G1X-28.729Y4.457
N1590G1X-28.883Y4.342
N1600G1X-29.048Y4.242
N1610G1X-29.222Y4.158
N1620G1X-29.405Y4.091
N1630G1X-29.596Y4.042
N1640G1X-29.794Y4.012
N1650G1X-30.000Y4.001
N1660G1X-30.206Y4.012
N1670G1X-30.404Y4.042
N1680G1X-30.595Y4.091
N1690G1X-30.778Y4.158
N1700G1X-30.952Y4.242
N1710G1X-31.117Y4.342
N1720G1X-31.271Y4.457
N1730G1X-31.413Y4.587
N1740G1X-31.543Y4.729
N1750G1X-31.658Y4.883
N1760G1X-31.758Y5.048
N1770G1X-31.842Y5.222
N1780G1X-31.909Y5.405
N1790G1X-31.958Y5.596
N1800G1X-31.988Y5.794
N1810G1X-31.999Y6.000
N1820G1X-31.988Y6.206
N1830G1X-31.958Y6.404
N1840G1X-31.909Y6.595
N1850G1X-31.842Y6.778
N1860G1X-31.758Y6.952
N1870G1X-31.658Y7.117
N1880G1X-31.543Y7.271
N1890G1X-31.413Y7.413
N1900G1X-31.271Y7.543
N1910G1X-31.117Y7.658
N1920G1X-30.952Y7.758
N1930G1X-30.778Y7.842
N1940G1X-30.595Y7.909
N1950G1X-30.404Y7.958
N1960G1X-30.206Y7.988
N1970G1X-30.000Y7.999
N1980G1X-29.794Y7.988
N1990G1X-29.596Y7.958
N2000G1X-29.405Y7.909
N2010G1X-29.222Y7.842
N2020G1X-29.048Y7.758
N2030G1X-28.883Y7.658
N2040G1X-28.729Y7.543
N2050G1X-28.587Y7.413
N2060G1X-28.457Y7.271
N2070G1X-28.342Y7.117
N2080G1X-28.242Y6.952
N2090G1X-28.158Y6.778
N2100G1X-28.091Y6.595
N2110G1X-28.042Y6.404
N2120G1X-28.012Y6.206
N2130G1X-28.001Y6.000
N2140G1X-28.012Y5.794
N2150G1X-28.042Y5.596
N2160G1Z-2.000F1200.0
N2170G1X-28.091Y5.405F3600.0
N2180G1X-28.158Y5.222
N2190G1X-28.242Y5.048
N2200G1X-28.342Y4.883
N2210G1X-28.457Y4.729
N2220G1X-28.587Y4.587
N2230G1X-28.729Y4.457
N2240G1X-28.883Y4.342
N2250G1X-29.048Y4.242
N2260G1X-29.222Y4.158
N2270G1X-29.405Y4.091
N2280G1X-29.596Y4.042
N2290G1X-29.794Y4.012
N2300G1X-30.000Y4.001
N2310G1X-30.206Y4.012
N2320G1X-30.404Y4.042
N2330G1X-30.595Y4.091
N2340G1X-30.778Y4.158
N2350G1X-30.952Y4.242
N2360G1X-31.117Y4.342
N2370G1X-31.271Y4.457
N2380G1X-31.413Y4.587
N2390G1X-31.543Y4.729
N2400G1X-31.658Y4.883
N2410G1X-31.758Y5.048
N2420G1X-31.842Y5.222
N2430G1X-31.909Y5.405
N2440G1X-31.958Y5.596
N2450G1X-31.988Y5.794
N2460G1X-31.999Y6.000
N2470G1X-31.988Y6.206
N2480G1X-31.958Y6.404
N2490G1X-31.909Y6.595
N2500G1X-31.842Y6.778
N2510G1X-31.758Y6.952
N2520G1X-31.658Y7.117
N2530G1X-31.543Y7.271
N2540G1X-31.413Y7.413
N2550G1X-31.271Y7.543
N2560G1X-31.117Y7.658
N2570G1X-30.952Y7.758
N2580G1X-30.778Y7.842
N2590G1X-30.595Y7.909
N2600G1X-30.404Y7.958
N2610G1X-30.206Y7.988
N2620G1X-30.000Y7.999
N2630G1X-29.794Y7.988
N2640G1X-29.596Y7.958
N2650G1X-29.405Y7.909
N2660G1X-29.222Y7.842
N2670G1X-29.048Y7.758
N2680G1X-28.883Y7.658
N2690G1X-28.729Y7.543
N2700G1X-28.587Y7.413
N2710G1X-28.457Y7.271
N2720G1X-28.342Y7.117
N2730G1X-28.242Y6.952
N2740G1X-28.158Y6.778
N2750G1X-28.091Y6.595
N2760G1X-28.042Y6.404
N2770G1X-28.012Y6.206
N2780G1X-28.001Y6.000
N2790G1X-28.012Y5.794
N2800G1X-28.042Y5.596
N2810G00Z6.000
N2820G00X-11.999Y6.000
N2830G1Z-0.500F1200.0
N2840G1X-11.988Y6.206F3600.0
N2850G1X-11.958Y6.404
N2860G1X-11.909Y6.595
N2870G1X-11.842Y6.778
N2880G1X-11.758Y6.952
N2890G1X-11.658Y7.117
N2900G1X-11.543Y7.271
N2910G1X-11.413Y7.413
N2920G1X-11.271Y7.543
N2930G1X-11.117Y7.658
N2940G1X-10.952Y7.758
N2950G1X-10.778Y7.842
N2960G1X-10.595Y7.909
N2970G1X-10.404Y7.958
N2980G1X-10.206Y7.988
N2990G1X-10.000Y7.999
N3000G1X-9.794Y7.988
N3010G1X-9.596Y7.958
N3020G1X-9.405Y7.909
N3030G1X-9.222Y7.842
N3040G1X-9.048Y7.758
N3050G1X-8.883Y7.658
N3060G1X-8.729Y7.543
N3070G1X-8.587Y7.413
N3080G1X-8.457Y7.271
N3090G1X-8.342Y7.117
N3100G1X-8.242Y6.952
N3110G1X-8.158Y6.778
N3120G1X-8.091Y6.595
N3130G1X-8.042Y6.404
N3140G1X-8.012Y6.206
N3150G1X-8.001Y6.000
N3160G1X-8.012Y5.794
N3170G1X-8.042Y5.596
N3180G1X-8.091Y5.405
N3190G1X-8.158Y5.222
N3200G1X-8.242Y5.048
N3210G1X-8.342Y4.883
N3220G1X-8.457Y4.729
N3230G1X-8.587Y4.587
N3240G1X-8.729Y4.457
N3250G1X-8.883Y4.342
N3260G1X-9.048Y4.242
N3270G1X-9.222Y4.158
N3280G1X-9.405Y4.091
N3290G1X-9.596Y4.042
N3300G1X-9.794Y4.012
N3310G1X-10.000Y4.001
N3320G1X-10.206Y4.012
N3330G1X-10.404Y4.042
N3340G1X-10.595Y4.091
N3350G1X-10.778Y4.158
N3360G1X-10.952Y4.242
N3370G1X-11.117Y4.342
N3380G1X-11.271Y4.457
N3390G1X-11.413Y4.587
N3400G1X-11.543Y4.729
N3410G1X-11.658Y4.883
N3420G1X-11.758Y5.048
N3430G1X-11.842Y5.222
N3440G1X-11.909Y5.405
N3450G1X-11.958Y5.596
N3460G1X-11.988Y5.794
N3470G1X-11.999Y6.000
N3480G1Z-1.000F1200.0
N3490G1X-11.988Y6.206F3600.0
N3500G1X-11.958Y6.404
N3510G1X-11.909Y6.595
N3520G1X-11.842Y6.778
N3530G1X-11.758Y6.952
N3540G1X-11.658Y7.117
N3550G1X-11.543Y7.271
N3560G1X-11.413Y7.413
N3570G1X-11.271Y7.543
N3580G1X-11.117Y7.658
N3590G1X-10.952Y7.758
N3600G1X-10.778Y7.842
N3610G1X-10.595Y7.909
N3620G1X-10.404Y7.958
N3630G1X-10.206Y7.988
N3640G1X-10.000Y7.999
N3650G1X-9.794Y7.988
N3660G1X-9.596Y7.958
N3670G1X-9.405Y7.909
N3680G1X-9.222Y7.842
N3690G1X-9.048Y7.758
N3700G1X-8.883Y7.658
N3710G1X-8.729Y7.543
N3720G1X-8.587Y7.413
N3730G1X-8.457Y7.271
N3740G1X-8.342Y7.117
N3750G1X-8.242Y6.952
N3760G1X-8.158Y6.778
N3770G1X-8.091Y6.595
N3780G1X-8.042Y6.404
N3790G1X-8.012Y6.206
N3800G1X-8.001Y6.000
N3810G1X-8.012Y5.794
N3820G1X-8.042Y5.596
N3830G1X-8.091Y5.405
N3840G1X-8.158Y5.222
N3850G1X-8.242Y5.048
N3860G1X-8.342Y4.883
N3870G1X-8.457Y4.729
N3880G1X-8.587Y4.587
N3890G1X-8.729Y4.457
N3900G1X-8.883Y4.342
N3910G1X-9.048Y4.242
N3920G1X-9.222Y4.158
N3930G1X-9.405Y4.091
N3940G1X-9.596Y4.042
N3950G1X-9.794Y4.012
N3960G1X-10.000Y4.001
N3970G1X-10.206Y4.012
N3980G1X-10.404Y4.042
N3990G1X-10.595Y4.091
N4000G1X-10.778Y4.158
N4010G1X-10.952Y4.242
N4020G1X-11.117Y4.342
N4030G1X-11.271Y4.457
N4040G1X-11.413Y4.587
N4050G1X-11.543Y4.729
N4060G1X-11.658Y4.883
N4070G1X-11.758Y5.048
N4080G1X-11.842Y5.222
N4090G1X-11.909Y5.405
N4100G1X-11.958Y5.596
N4110G1X-11.988Y5.794
N4120G1X-11.999Y6.000
N4130G1Z-1.500F1200.0
N4140G1X-11.988Y6.206F3600.0
N4150G1X-11.958Y6.404
N4160G1X-11.909Y6.595
N4170G1X-11.842Y6.778
N4180G1X-11.758Y6.952
N4190G1X-11.658Y7.117
N4200G1X-11.543Y7.271
N4210G1X-11.413Y7.413
N4220G1X-11.271Y7.543
N4230G1X-11.117Y7.658
N4240G1X-10.952Y7.758
N4250G1X-10.778Y7.842
N4260G1X-10.595Y7.909
N4270G1X-10.404Y7.958
N4280G1X-10.206Y7.988
N4290G1X-10.000Y7.999
N4300G1X-9.794Y7.988
N4310G1X-9.596Y7.958
N4320G1X-9.405Y7.909
N4330G1X-9.222Y7.842
N4340G1X-9.048Y7.758
N4350G1X-8.883Y7.658
N4360G1X-8.729Y7.543
N4370G1X-8.587Y7.413
N4380G1X-8.457Y7.271
N4390G1X-8.342Y7.117
N4400G1X-8.242Y6.952
N4410G1X-8.158Y6.778
N4420G1X-8.091Y6.595
N4430G1X-8.042Y6.404
N4440G1X-8.012Y6.206
N4450G1X-8.001Y6.000
N4460G1X-8.012Y5.794
N4470G1X-8.042Y5.596
N4480G1X-8.091Y5.405
N4490G1X-8.158Y5.222
N4500G1X-8.242Y5.048
N4510G1X-8.342Y4.883
N4520G1X-8.457Y4.729
N4530G1X-8.587Y4.587
N4540G1X-8.729Y4.457
N4550G1X-8.883Y4.342
N4560G1X-9.048Y4.242
N4570G1X-9.222Y4.158
N4580G1X-9.405Y4.091
N4590G1X-9.596Y4.042
N4600G1X-9.794Y4.012
N4610G1X-10.000Y4.001
N4620G1X-10.206Y4.012
N4630G1X-10.404Y4.042
N4640G1X-10.595Y4.091
N4650G1X-10.778Y4.158
N4660G1X-10.952Y4.242
N4670G1X-11.117Y4.342
N4680G1X-11.271Y4.457
N4690G1X-11.413Y4.587
N4700G1X-11.543Y4.729
N4710G1X-11.658Y4.883
N4720G1X-11.758Y5.048
N4730G1X-11.842Y5.222
N4740G1X-11.909Y5.405
N4750G1X-11.958Y5.596
N4760G1X-11.988Y5.794
N4770G1X-11.999Y6.000
N4780G1Z-2.000F1200.0
N4790G1X-11.988Y6.206F3600.0
N4800G1X-11.958Y6.404
N4810G1X-11.909Y6.595
N4820G1X-11.842Y6.778
N4830G1X-11.758Y6.952
N4840G1X-11.658Y7.117
N4850G1X-11.543Y7.271
N4860G1X-11.413Y7.413
N4870G1X-11.271Y7.543
N4880G1X-11.117Y7.658
N4890G1X-10.952Y7.758
N4900G1X-10.778Y7.842
N4910G1X-10.595Y7.909
N4920G1X-10.404Y7.958
N4930G1X-10.206Y7.988
N4940G1X-10.000Y7.999
N4950G1X-9.794Y7.988
N4960G1X-9.596Y7.958
N4970G1X-9.405Y7.909
N4980G1X-9.222Y7.842
N4990G1X-9.048Y7.758
N5000G1X-8.883Y7.658
N5010G1X-8.729Y7.543
N5020G1X-8.587Y7.413
N5030G1X-8.457Y7.271
N5040G1X-8.342Y7.117
N5050G1X-8.242Y6.952
N5060G1X-8.158Y6.778
N5070G1X-8.091Y6.595
N5080G1X-8.042Y6.404
N5090G1X-8.012Y6.206
N5100G1X-8.001Y6.000
N5110G1X-8.012Y5.794
N5120G1X-8.042Y5.596
N5130G1X-8.091Y5.405
N5140G1X-8.158Y5.222
N5150G1X-8.242Y5.048
N5160G1X-8.342Y4.883
N5170G1X-8.457Y4.729
N5180G1X-8.587Y4.587
N5190G1X-8.729Y4.457
N5200G1X-8.883Y4.342
N5210G1X-9.048Y4.242
N5220G1X-9.222Y4.158
N5230G1X-9.405Y4.091
N5240G1X-9.596Y4.042
N5250G1X-9.794Y4.012
N5260G1X-10.000Y4.001
N5270G1X-10.206Y4.012
N5280G1X-10.404Y4.042
N5290G1X-10.595Y4.091
N5300G1X-10.778Y4.158
N5310G1X-10.952Y4.242
N5320G1X-11.117Y4.342
N5330G1X-11.271Y4.457
N5340G1X-11.413Y4.587
N5350G1X-11.543Y4.729
N5360G1X-11.658Y4.883
N5370G1X-11.758Y5.048
N5380G1X-11.842Y5.222
N5390G1X-11.909Y5.405
N5400G1X-11.958Y5.596
N5410G1X-11.988Y5.794
N5420G1X-11.999Y6.000
N5430G00Z6.000
N5440G00X8.001
N5450G1Z-0.500F1200.0
N5460G1X8.012Y6.206F3600.0
N5470G1X8.042Y6.404
N5480G1X8.091Y6.595
N5490G1X8.158Y6.778
N5500G1X8.242Y6.952
N5510G1X8.342Y7.117
N5520G1X8.457Y7.271
N5530G1X8.587Y7.413
N5540G1X8.729Y7.543
N5550G1X8.883Y7.658
N5560G1X9.048Y7.758
N5570G1X9.222Y7.842
N5580G1X9.405Y7.909
N5590G1X9.596Y7.958
N5600G1X9.794Y7.988
N5610G1X10.000Y7.999
N5620G1X10.206Y7.988
N5630G1X10.404Y7.958
N5640G1X10.595Y7.909
N5650G1X10.778Y7.842
N5660G1X10.952Y7.758
N5670G1X11.117Y7.658
N5680G1X11.271Y7.543
N5690G1X11.413Y7.413
N5700G1X11.543Y7.271
N5710G1X11.658Y7.117
N5720G1X11.758Y6.952
N5730G1X11.842Y6.778
N5740G1X11.909Y6.595
N5750G1X11.958Y6.404
N5760G1X11.988Y6.206
N5770G1X11.999Y6.000
N5780G1X11.988Y5.794
N5790G1X11.958Y5.596
N5800G1X11.909Y5.405
N5810G1X11.842Y5.222
N5820G1X11.758Y5.048
N5830G1X11.658Y4.883
N5840G1X11.543Y4.729
N5850G1X11.413Y4.587
N5860G1X11.271Y4.457
N5870G1X11.117Y4.342
N5880G1X10.952Y4.242
N5890G1X10.778Y4.158
N5900G1X10.595Y4.091
N5910G1X10.404Y4.042
N5920G1X10.206Y4.012
N5930G1X10.000Y4.001
N5940G1X9.794Y4.012
N5950G1X9.596Y4.042
N5960G1X9.405Y4.091
N5970G1X9.222Y4.158
N5980G1X9.048Y4.242
N5990G1X8.883Y4.342
N6000G1X8.729Y4.457
N6010G1X8.587Y4.587
N6020G1X8.457Y4.729
N6030G1X8.342Y4.883
N6040G1X8.242Y5.048
N6050G1X8.158Y5.222
N6060G1X8.091Y5.405
N6070G1X8.042Y5.596
N6080G1X8.012Y5.794
N6090G1X8.001Y6.000
N6100G1Z-1.000F1200.0
N6110G1X8.012Y6.206F3600.0
N6120G1X8.042Y6.404
N6130G1X8.091Y6.595
N6140G1X8.158Y6.778
N6150G1X8.242Y6.952
N6160G1X8.342Y7.117
N6170G1X8.457Y7.271
N6180G1X8.587Y7.413
N6190G1X8.729Y7.543
N6200G1X8.883Y7.658
N6210G1X9.048Y7.758
N6220G1X9.222Y7.842
N6230G1X9.405Y7.909
N6240G1X9.596Y7.958
N6250G1X9.794Y7.988
N6260G1X10.000Y7.999
N6270G1X10.206Y7.988
N6280G1X10.404Y7.958
N6290G1X10.595Y7.909
N6300G1X10.778Y7.842
N6310G1X10.952Y7.758
N6320G1X11.117Y7.658
N6330G1X11.271Y7.543
N6340G1X11.413Y7.413
N6350G1X11.543Y7.271
N6360G1X11.658Y7.117
N6370G1X11.758Y6.952
N6380G1X11.842Y6.778
N6390G1X11.909Y6.595
N6400G1X11.958Y6.404
N6410G1X11.988Y6.206
N6420G1X11.999Y6.000
N6430G1X11.988Y5.794
N6440G1X11.958Y5.596
N6450G1X11.909Y5.405
N6460G1X11.842Y5.222
N6470G1X11.758Y5.048
N6480G1X11.658Y4.883
N6490G1X11.543Y4.729
N6500G1X11.413Y4.587
N6510G1X11.271Y4.457
N6520G1X11.117Y4.342
N6530G1X10.952Y4.242
N6540G1X10.778Y4.158
N6550G1X10.595Y4.091
N6560G1X10.404Y4.042
N6570G1X10.206Y4.012
N6580G1X10.000Y4.001
N6590G1X9.794Y4.012
N6600G1X9.596Y4.042
N6610G1X9.405Y4.091
N6620G1X9.222Y4.158
N6630G1X9.048Y4.242
N6640G1X8.883Y4.342
N6650G1X8.729Y4.457
N6660G1X8.587Y4.587
N6670G1X8.457Y4.729
N6680G1X8.342Y4.883
N6690G1X8.242Y5.048
N6700G1X8.158Y5.222
N6710G1X8.091Y5.405
N6720G1X8.042Y5.596
N6730G1X8.012Y5.794
N6740G1X8.001Y6.000
N6750G1Z-1.500F1200.0
N6760G1X8.012Y6.206F3600.0
N6770G1X8.042Y6.404
N6780G1X8.091Y6.595
N6790G1X8.158Y6.778
N6800G1X8.242Y6.952
N6810G1X8.342Y7.117
N6820G1X8.457Y7.271
N6830G1X8.587Y7.413
N6840G1X8.729Y7.543
N6850G1X8.883Y7.658
N6860G1X9.048Y7.758
N6870G1X9.222Y7.842
N6880G1X9.405Y7.909
N6890G1X9.596Y7.958
N6900G1X9.794Y7.988
N6910G1X10.000Y7.999
N6920G1X10.206Y7.988
N6930G1X10.404Y7.958
N6940G1X10.595Y7.909
N6950G1X10.778Y7.842
N6960G1X10.952Y7.758
N6970G1X11.117Y7.658
N6980G1X11.271Y7.543
N6990G1X11.413Y7.413
N7000G1X11.543Y7.271
N7010G1X11.658Y7.117
N7020G1X11.758Y6.952
N7030G1X11.842Y6.778
N7040G1X11.909Y6.595
N7050G1X11.958Y6.404
N7060G1X11.988Y6.206
N7070G1X11.999Y6.000
N7080G1X11.988Y5.794
N7090G1X11.958Y5.596
N7100G1X11.909Y5.405
N7110G1X11.842Y5.222
N7120G1X11.758Y5.048
N7130G1X11.658Y4.883
N7140G1X11.543Y4.729
N7150G1X11.413Y4.587
N7160G1X11.271Y4.457
N7170G1X11.117Y4.342
N7180G1X10.952Y4.242
N7190G1X10.778Y4.158
N7200G1X10.595Y4.091
N7210G1X10.404Y4.042
N7220G1X10.206Y4.012
N7230G1X10.000Y4.001
N7240G1X9.794Y4.012
N7250G1X9.596Y4.042
N7260G1X9.405Y4.091
N7270G1X9.222Y4.158
N7280G1X9.048Y4.242
N7290G1X8.883Y4.342
N7300G1X8.729Y4.457
N7310G1X8.587Y4.587
N7320G1X8.457Y4.729
N7330G1X8.342Y4.883
N7340G1X8.242Y5.048
N7350G1X8.158Y5.222
N7360G1X8.091Y5.405
N7370G1X8.042Y5.596
N7380G1X8.012Y5.794
N7390G1X8.001Y6.000
N7400G1Z-2.000F1200.0
N7410G1X8.012Y6.206F3600.0
N7420G1X8.042Y6.404
N7430G1X8.091Y6.595
N7440G1X8.158Y6.778
N7450G1X8.242Y6.952
N7460G1X8.342Y7.117
N7470G1X8.457Y7.271
N7480G1X8.587Y7.413
N7490G1X8.729Y7.543
N7500G1X8.883Y7.658
N7510G1X9.048Y7.758
N7520G1X9.222Y7.842
N7530G1X9.405Y7.909
N7540G1X9.596Y7.958
N7550G1X9.794Y7.988
N7560G1X10.000Y7.999
N7570G1X10.206Y7.988
N7580G1X10.404Y7.958
N7590G1X10.595Y7.909
N7600G1X10.778Y7.842
N7610G1X10.952Y7.758
N7620G1X11.117Y7.658
N7630G1X11.271Y7.543
N7640G1X11.413Y7.413
N7650G1X11.543Y7.271
N7660G1X11.658Y7.117
N7670G1X11.758Y6.952
N7680G1X11.842Y6.778
N7690G1X11.909Y6.595
N7700G1X11.958Y6.404
N7710G1X11.988Y6.206
N7720G1X11.999Y6.000
N7730G1X11.988Y5.794
N7740G1X11.958Y5.596
N7750G1X11.909Y5.405
N7760G1X11.842Y5.222
N7770G1X11.758Y5.048
N7780G1X11.658Y4.883
N7790G1X11.543Y4.729
N7800G1X11.413Y4.587
N7810G1X11.271Y4.457
N7820G1X11.117Y4.342
N7830G1X10.952Y4.242
N7840G1X10.778Y4.158
N7850G1X10.595Y4.091
N7860G1X10.404Y4.042
N7870G1X10.206Y4.012
N7880G1X10.000Y4.001
N7890G1X9.794Y4.012
N7900G1X9.596Y4.042
N7910G1X9.405Y4.091
N7920G1X9.222Y4.158
N7930G1X9.048Y4.242
N7940G1X8.883Y4.342
N7950G1X8.729Y4.457
N7960G1X8.587Y4.587
N7970G1X8.457Y4.729
N7980G1X8.342Y4.883
N7990G1X8.242Y5.048
N8000G1X8.158Y5.222
N8010G1X8.091Y5.405
N8020G1X8.042Y5.596
N8030G1X8.012Y5.794
N8040G1X8.001Y6.000
N8050G00Z6.000
N8060G00X28.001
N8070G1Z-0.500F1200.0
N8080G1X28.012Y6.206F3600.0
N8090G1X28.042Y6.404
N8100G1X28.091Y6.595
N8110G1X28.158Y6.778
N8120G1X28.242Y6.952
N8130G1X28.342Y7.117
N8140G1X28.457Y7.271
N8150G1X28.587Y7.413
N8160G1X28.729Y7.543
N8170G1X28.883Y7.658
N8180G1X29.048Y7.758
N8190G1X29.222Y7.842
N8200G1X29.405Y7.909
N8210G1X29.596Y7.958
N8220G1X29.794Y7.988
N8230G1X30.000Y7.999
N8240G1X30.206Y7.988
N8250G1X30.404Y7.958
N8260G1X30.595Y7.909
N8270G1X30.778Y7.842
N8280G1X30.952Y7.758
N8290G1X31.117Y7.658
N8300G1X31.271Y7.543
N8310G1X31.413Y7.413
N8320G1X31.543Y7.271
N8330G1X31.658Y7.117
N8340G1X31.758Y6.952
N8350G1X31.842Y6.778
N8360G1X31.909Y6.595
N8370G1X31.958Y6.404
N8380G1X31.988Y6.206
N8390G1X31.999Y6.000
N8400G1X31.988Y5.794
N8410G1X31.958Y5.596
N8420G1X31.909Y5.405
N8430G1X31.842Y5.222
N8440G1X31.758Y5.048
N8450G1X31.658Y4.883
N8460G1X31.543Y4.729
N8470G1X31.413Y4.587
N8480G1X31.271Y4.457
N8490G1X31.117Y4.342
N8500G1X30.952Y4.242
N8510G1X30.778Y4.158
N8520G1X30.595Y4.091
N8530G1X30.404Y4.042
N8540G1X30.206Y4.012
N8550G1X30.000Y4.001
N8560G1X29.794Y4.012
N8570G1X29.596Y4.042
N8580G1X29.405Y4.091
N8590G1X29.222Y4.158
N8600G1X29.048Y4.242
N8610G1X28.883Y4.342
N8620G1X28.729Y4.457
N8630G1X28.587Y4.587
N8640G1X28.457Y4.729
N8650G1X28.342Y4.883
N8660G1X28.242Y5.048
N8670G1X28.158Y5.222
N8680G1X28.091Y5.405
N8690G1X28.042Y5.596
N8700G1X28.012Y5.794
N8710G1X28.001Y6.000
N8720G1Z-1.000F1200.0
N8730G1X28.012Y6.206F3600.0
N8740G1X28.042Y6.404
N8750G1X28.091Y6.595
N8760G1X28.158Y6.778
N8770G1X28.242Y6.952
N8780G1X28.342Y7.117
N8790G1X28.457Y7.271
N8800G1X28.587Y7.413
N8810G1X28.729Y7.543
N8820G1X28.883Y7.658
N8830G1X29.048Y7.758
N8840G1X29.222Y7.842
N8850G1X29.405Y7.909
N8860G1X29.596Y7.958
N8870G1X29.794Y7.988
N8880G1X30.000Y7.999
N8890G1X30.206Y7.988
N8900G1X30.404Y7.958
N8910G1X30.595Y7.909
N8920G1X30.778Y7.842
N8930G1X30.952Y7.758
N8940G1X31.117Y7.658
N8950G1X31.271Y7.543
N8960G1X31.413Y7.413
N8970G1X31.543Y7.271
N8980G1X31.658Y7.117
N8990G1X31.758Y6.952
N9000G1X31.842Y6.778
N9010G1X31.909Y6.595
N9020G1X31.958Y6.404
N9030G1X31.988Y6.206
N9040G1X31.999Y6.000
N9050G1X31.988Y5.794
N9060G1X31.958Y5.596
N9070G1X31.909Y5.405
N9080G1X31.842Y5.222
N9090G1X31.758Y5.048
N9100G1X31.658Y4.883
N9110G1X31.543Y4.729
N9120G1X31.413Y4.587
N9130G1X31.271Y4.457
N9140G1X31.117Y4.342
N9150G1X30.952Y4.242
N9160G1X30.778Y4.158
N9170G1X30.595Y4.091
N9180G1X30.404Y4.042
N9190G1X30.206Y4.012
N9200G1X30.000Y4.001
N9210G1X29.794Y4.012
N9220G1X29.596Y4.042
N9230G1X29.405Y4.091
N9240G1X29.222Y4.158
N9250G1X29.048Y4.242
N9260G1X28.883Y4.342
N9270G1X28.729Y4.457
N9280G1X28.587Y4.587
N9290G1X28.457Y4.729
N9300G1X28.342Y4.883
N9310G1X28.242Y5.048
N9320G1X28.158Y5.222
N9330G1X28.091Y5.405
N9340G1X28.042Y5.596
N9350G1X28.012Y5.794
N9360G1X28.001Y6.000
N9370G1Z-1.500F1200.0
N9380G1X28.012Y6.206F3600.0
N9390G1X28.042Y6.404
N9400G1X28.091Y6.595
N9410G1X28.158Y6.778
N9420G1X28.242Y6.952
N9430G1X28.342Y7.117
N9440G1X28.457Y7.271
N9450G1X28.587Y7.413
N9460G1X28.729Y7.543
N9470G1X28.883Y7.658
N9480G1X29.048Y7.758
N9490G1X29.222Y7.842
N9500G1X29.405Y7.909
N9510G1X29.596Y7.958
N9520G1X29.794Y7.988
N9530G1X30.000Y7.999
N9540G1X30.206Y7.988
N9550G1X30.404Y7.958
N9560G1X30.595Y7.909
N9570G1X30.778Y7.842
N9580G1X30.952Y7.758
N9590G1X31.117Y7.658
N9600G1X31.271Y7.543
N9610G1X31.413Y7.413
N9620G1X31.543Y7.271
N9630G1X31.658Y7.117
N9640G1X31.758Y6.952
N9650G1X31.842Y6.778
N9660G1X31.909Y6.595
N9670G1X31.958Y6.404
N9680G1X31.988Y6.206
N9690G1X31.999Y6.000
N9700G1X31.988Y5.794
N9710G1X31.958Y5.596
N9720G1X31.909Y5.405
N9730G1X31.842Y5.222
N9740G1X31.758Y5.048
N9750G1X31.658Y4.883
N9760G1X31.543Y4.729
N9770G1X31.413Y4.587
N9780G1X31.271Y4.457
N9790G1X31.117Y4.342
N9800G1X30.952Y4.242
N9810G1X30.778Y4.158
N9820G1X30.595Y4.091
N9830G1X30.404Y4.042
N9840G1X30.206Y4.012
N9850G1X30.000Y4.001
N9860G1X29.794Y4.012
N9870G1X29.596Y4.042
N9880G1X29.405Y4.091
N9890G1X29.222Y4.158
N9900G1X29.048Y4.242
N9910G1X28.883Y4.342
N9920G1X28.729Y4.457
N9930G1X28.587Y4.587
N9940G1X28.457Y4.729
N9950G1X28.342Y4.883
N9960G1X28.242Y5.048
N9970G1X28.158Y5.222
N9980G1X28.091Y5.405
N9990G1X28.042Y5.596
N10000G1X28.012Y5.794
N10010G1X28.001Y6.000
N10020G1Z-2.000F1200.0
N10030G1X28.012Y6.206F3600.0
N10040G1X28.042Y6.404
N10050G1X28.091Y6.595
N10060G1X28.158Y6.778
N10070G1X28.242Y6.952
N10080G1X28.342Y7.117
N10090G1X28.457Y7.271
N10100G1X28.587Y7.413
N10110G1X28.729Y7.543
N10120G1X28.883Y7.658
N10130G1X29.048Y7.758
N10140G1X29.222Y7.842
N10150G1X29.405Y7.909
N10160G1X29.596Y7.958
N10170G1X29.794Y7.988
N10180G1X30.000Y7.999
N10190G1X30.206Y7.988
N10200G1X30.404Y7.958
N10210G1X30.595Y7.909
N10220G1X30.778Y7.842
N10230G1X30.952Y7.758
N10240G1X31.117Y7.658
N10250G1X31.271Y7.543
N10260G1X31.413Y7.413
N10270G1X31.543Y7.271
N10280G1X31.658Y7.117
N10290G1X31.758Y6.952
N10300G1X31.842Y6.778
N10310G1X31.909Y6.595
N10320G1X31.958Y6.404
N10330G1X31.988Y6.206
N10340G1X31.999Y6.000
N10350G1X31.988Y5.794
N10360G1X31.958Y5.596
N10370G1X31.909Y5.405
N10380G1X31.842Y5.222
N10390G1X31.758Y5.048
N10400G1X31.658Y4.883
N10410G1X31.543Y4.729
N10420G1X31.413Y4.587
N10430G1X31.271Y4.457
N10440G1X31.117Y4.342
N10450G1X30.952Y4.242
N10460G1X30.778Y4.158
N10470G1X30.595Y4.091
N10480G1X30.404Y4.042
N10490G1X30.206Y4.012
N10500G1X30.000Y4.001
N10510G1X29.794Y4.012
N10520G1X29.596Y4.042
N10530G1X29.405Y4.091
N10540G1X29.222Y4.158
N10550G1X29.048Y4.242
N10560G1X28.883Y4.342
N10570G1X28.729Y4.457
N10580G1X28.587Y4.587
N10590G1X28.457Y4.729
N10600G1X28.342Y4.883
N10610G1X28.242Y5.048
N10620G1X28.158Y5.222
N10630G1X28.091Y5.405
N10640G1X28.042Y5.596
N10650G1X28.012Y5.794
N10660G1X28.001Y6.000
N10670G00Z6.000
N10680G00X-28.091Y-13.405
N10690G1Z-0.500F1200.0
N10700G1X-28.042Y-13.596F3600.0
N10710G1X-28.012Y-13.794
N10720G1X-28.001Y-14.000
N10730G1X-28.012Y-14.206
N10740G1X-28.042Y-14.404
N10750G1X-28.091Y-14.595
N10760G1X-28.158Y-14.778
N10770G1X-28.242Y-14.952
N10780G1X-28.342Y-15.117
N10790G1X-28.457Y-15.271
N10800G1X-28.587Y-15.413
N10810G1X-28.729Y-15.543
N10820G1X-28.883Y-15.658
N10830G1X-29.048Y-15.758
N10840G1X-29.222Y-15.842
N10850G1X-29.405Y-15.909
N10860G1X-29.596Y-15.958
N10870G1X-29.794Y-15.988
N10880G1X-30.000Y-15.999
N10890G1X-30.206Y-15.988
N10900G1X-30.404Y-15.958
N10910G1X-30.595Y-15.909
N10920G1X-30.778Y-15.842
N10930G1X-30.952Y-15.758
N10940G1X-31.117Y-15.658
N10950G1X-31.271Y-15.543
N10960G1X-31.413Y-15.413
N10970G1X-31.543Y-15.271
N10980G1X-31.658Y-15.117
N10990G1X-31.758Y-14.952
N11000G1X-31.842Y-14.778
N11010G1X-31.909Y-14.595
N11020G1X-31.958Y-14.404
N11030G1X-31.988Y-14.206
N11040G1X-31.999Y-14.000
N11050G1X-31.988Y-13.794
N11060G1X-31.958Y-13.596
N11070G1X-31.909Y-13.405
N11080G1X-31.842Y-13.222
N11090G1X-31.758Y-13.048
N11100G1X-31.658Y-12.883
N11110G1X-31.543Y-12.729
N11120G1X-31.413Y-12.587
N11130G1X-31.271Y-12.457
N11140G1X-31.117Y-12.342
N11150G1X-30.952Y-12.242
N11160G1X-30.778Y-12.158
N11170G1X-30.595Y-12.091
N11180G1X-30.404Y-12.042
N11190G1X-30.206Y-12.012
N11200G1X-30.000Y-12.001
N11210G1X-29.794Y-12.012
N11220G1X-29.596Y-12.042
N11230G1X-29.405Y-12.091
N11240G1X-29.222Y-12.158
N11250G1X-29.048Y-12.242
N11260G1X-28.883Y-12.342
N11270G1X-28.729Y-12.457
N11280G1X-28.587Y-12.587
N11290G1X-28.457Y-12.729
N11300G1X-28.342Y-12.883
N11310G1X-28.242Y-13.048
N11320G1X-28.158Y-13.222
N11330G1X-28.091Y-13.405
N11340G1Z-1.000F1200.0
N11350G1X-28.042Y-13.596F3600.0
N11360G1X-28.012Y-13.794
N11370G1X-28.001Y-14.000
N11380G1X-28.012Y-14.206
N11390G1X-28.042Y-14.404
N11400G1X-28.091Y-14.595
N11410G1X-28.158Y-14.778
N11420G1X-28.242Y-14.952
N11430G1X-28.342Y-15.117
N11440G1X-28.457Y-15.271
N11450G1X-28.587Y-15.413
N11460G1X-28.729Y-15.543
N11470G1X-28.883Y-15.658
N11480G1X-29.048Y-15.758
N11490G1X-29.222Y-15.842
N11500G1X-29.405Y-15.909
N11510G1X-29.596Y-15.958
N11520G1X-29.794Y-15.988
N11530G1X-30.000Y-15.999
N11540G1X-30.206Y-15.988
N11550G1X-30.404Y-15.958
N11560G1X-30.595Y-15.909
N11570G1X-30.778Y-15.842
N11580G1X-30.952Y-15.758
N11590G1X-31.117Y-15.658
N11600G1X-31.271Y-15.543
N11610G1X-31.413Y-15.413
N11620G1X-31.543Y-15.271
N11630G1X-31.658Y-15.117
N11640G1X-31.758Y-14.952
N11650G1X-31.842Y-14.778
N11660G1X-31.909Y-14.595
N11670G1X-31.958Y-14.404
N11680G1X-31.988Y-14.206
N11690G1X-31.999Y-14.000
N11700G1X-31.988Y-13.794
N11710G1X-31.958Y-13.596
N11720G1X-31.909Y-13.405
N11730G1X-31.842Y-13.222
N11740G1X-31.758Y-13.048
N11750G1X-31.658Y-12.883
N11760G1X-31.543Y-12.729
N11770G1X-31.413Y-12.587
N11780G1X-31.271Y-12.457
N11790G1X-31.117Y-12.342
N11800G1X-30.952Y-12.242
N11810G1X-30.778Y-12.158
N11820G1X-30.595Y-12.091
N11830G1X-30.404Y-12.042
N11840G1X-30.206Y-12.012
N11850G1X-30.000Y-12.001
N11860G1X-29.794Y-12.012
N11870G1X-29.596Y-12.042
N11880G1X-29.405Y-12.091
N11890G1X-29.222Y-12.158
N11900G1X-29.048Y-12.242
N11910G1X-28.883Y-12.342
N11920G1X-28.729Y-12.457
N11930G1X-28.587Y-12.587
N11940G1X-28.457Y-12.729
N11950G1X-28.342Y-12.883
N11960G1X-28.242Y-13.048
N11970G1X-28.158Y-13.222
N11980G1X-28.091Y-13.405
N11990G1Z-1.500F1200.0
N12000G1X-28.042Y-13.596F3600.0
N12010G1X-28.012Y-13.794
N12020G1X-28.001Y-14.000
N12030G1X-28.012Y-14.206
N12040G1X-28.042Y-14.404
N12050G1X-28.091Y-14.595
N12060G1X-28.158Y-14.778
N12070G1X-28.242Y-14.952
N12080G1X-28.342Y-15.117
N12090G1X-28.457Y-15.271
N12100G1X-28.587Y-15.413
N12110G1X-28.729Y-15.543
N12120G1X-28.883Y-15.658
N12130G1X-29.048Y-15.758
N12140G1X-29.222Y-15.842
N12150G1X-29.405Y-15.909
N12160G1X-29.596Y-15.958
N12170G1X-29.794Y-15.988
N12180G1X-30.000Y-15.999
N12190G1X-30.206Y-15.988
N12200G1X-30.404Y-15.958
N12210G1X-30.595Y-15.909
N12220G1X-30.778Y-15.842
N12230G1X-30.952Y-15.758
N12240G1X-31.117Y-15.658
N12250G1X-31.271Y-15.543
N12260G1X-31.413Y-15.413
N12270G1X-31.543Y-15.271
N12280G1X-31.658Y-15.117
N12290G1X-31.758Y-14.952
N12300G1X-31.842Y-14.778
N12310G1X-31.909Y-14.595
N12320G1X-31.958Y-14.404
N12330G1X-31.988Y-14.206
N12340G1X-31.999Y-14.000
N12350G1X-31.988Y-13.794
N12360G1X-31.958Y-13.596
N12370G1X-31.909Y-13.405
N12380G1X-31.842Y-13.222
N12390G1X-31.758Y-13.048
N12400G1X-31.658Y-12.883
N12410G1X-31.543Y-12.729
N12420G1X-31.413Y-12.587
N12430G1X-31.271Y-12.457
N12440G1X-31.117Y-12.342
N12450G1X-30.952Y-12.242
N12460G1X-30.778Y-12.158
N12470G1X-30.595Y-12.091
N12480G1X-30.404Y-12.042
N12490G1X-30.206Y-12.012
N12500G1X-30.000Y-12.001
N12510G1X-29.794Y-12.012
N12520G1X-29.596Y-12.042
N12530G1X-29.405Y-12.091
N12540G1X-29.222Y-12.158
N12550G1X-29.048Y-12.242
N12560G1X-28.883Y-12.342
N12570G1X-28.729Y-12.457
N12580G1X-28.587Y-12.587
N12590G1X-28.457Y-12.729
N12600G1X-28.342Y-12.883
N12610G1X-28.242Y-13.048
N12620G1X-28.158Y-13.222
N12630G1X-28.091Y-13.405
N12640G1Z-2.000F1200.0
N12650G1X-28.042Y-13.596F3600.0
N12660G1X-28.012Y-13.794
N12670G1X-28.001Y-14.000
N12680G1X-28.012Y-14.206
N12690G1X-28.042Y-14.404
N12700G1X-28.091Y-14.595
N12710G1X-28.158Y-14.778
N12720G1X-28.242Y-14.952
N12730G1X-28.342Y-15.117
N12740G1X-28.457Y-15.271
N12750G1X-28.587Y-15.413
N12760G1X-28.729Y-15.543
N12770G1X-28.883Y-15.658
N12780G1X-29.048Y-15.758
N12790G1X-29.222Y-15.842
N12800G1X-29.405Y-15.909
N12810G1X-29.596Y-15.958
N12820G1X-29.794Y-15.988
N12830G1X-30.000Y-15.999
N12840G1X-30.206Y-15.988
N12850G1X-30.404Y-15.958
N12860G1X-30.595Y-15.909
N12870G1X-30.778Y-15.842
N12880G1X-30.952Y-15.758
N12890G1X-31.117Y-15.658
N12900G1X-31.271Y-15.543
N12910G1X-31.413Y-15.413
N12920G1X-31.543Y-15.271
N12930G1X-31.658Y-15.117
N12940G1X-31.758Y-14.952
N12950G1X-31.842Y-14.778
N12960G1X-31.909Y-14.595
N12970G1X-31.958Y-14.404
N12980G1X-31.988Y-14.206
N12990G1X-31.999Y-14.000
N13000G1X-31.988Y-13.794
N13010G1X-31.958Y-13.596
N13020G1X-31.909Y-13.405
N13030G1X-31.842Y-13.222
N13040G1X-31.758Y-13.048
N13050G1X-31.658Y-12.883
N13060G1X-31.543Y-12.729
N13070G1X-31.413Y-12.587
N13080G1X-31.271Y-12.457
N13090G1X-31.117Y-12.342
N13100G1X-30.952Y-12.242
N13110G1X-30.778Y-12.158
N13120G1X-30.595Y-12.091
N13130G1X-30.404Y-12.042
N13140G1X-30.206Y-12.012
N13150G1X-30.000Y-12.001
N13160G1X-29.794Y-12.012
N13170G1X-29.596Y-12.042
N13180G1X-29.405Y-12.091
N13190G1X-29.222Y-12.158
N13200G1X-29.048Y-12.242
N13210G1X-28.883Y-12.342
N13220G1X-28.729Y-12.457
N13230G1X-28.587Y-12.587
N13240G1X-28.457Y-12.729
N13250G1X-28.342Y-12.883
N13260G1X-28.242Y-13.048
N13270G1X-28.158Y-13.222
N13280G1X-28.091Y-13.405
N13290G00Z6.000
N13300G00X-11.999Y-14.000
N13310G1Z-0.500F1200.0
N13320G1X-11.988Y-13.794F3600.0
N13330G1X-11.958Y-13.596
N13340G1X-11.909Y-13.405
N13350G1X-11.842Y-13.222
N13360G1X-11.758Y-13.048
N13370G1X-11.658Y-12.883
N13380G1X-11.543Y-12.729
N13390G1X-11.413Y-12.587
N13400G1X-11.271Y-12.457
N13410G1X-11.117Y-12.342
N13420G1X-10.952Y-12.242
N13430G1X-10.778Y-12.158
N13440G1X-10.595Y-12.091
N13450G1X-10.404Y-12.042
N13460G1X-10.206Y-12.012
N13470G1X-10.000Y-12.001
N13480G1X-9.794Y-12.012
N13490G1X-9.596Y-12.042
N13500G1X-9.405Y-12.091
N13510G1X-9.222Y-12.158
N13520G1X-9.048Y-12.242
N13530G1X-8.883Y-12.342
N13540G1X-8.729Y-12.457
N13550G1X-8.587Y-12.587
N13560G1X-8.457Y-12.729
N13570G1X-8.342Y-12.883
N13580G1X-8.242Y-13.048
N13590G1X-8.158Y-13.222
N13600G1X-8.091Y-13.405
N13610G1X-8.042Y-13.596
N13620G1X-8.012Y-13.794
N13630G1X-8.001Y-14.000
N13640G1X-8.012Y-14.206
N13650G1X-8.042Y-14.404
N13660G1X-8.091Y-14.595
N13670G1X-8.158Y-14.778
N13680G1X-8.242Y-14.952
N13690G1X-8.342Y-15.117
N13700G1X-8.457Y-15.271
N13710G1X-8.587Y-15.413
N13720G1X-8.729Y-15.543
N13730G1X-8.883Y-15.658
N13740G1X-9.048Y-15.758
N13750G1X-9.222Y-15.842
N13760G1X-9.405Y-15.909
N13770G1X-9.596Y-15.958
N13780G1X-9.794Y-15.988
N13790G1X-10.000Y-15.999
N13800G1X-10.206Y-15.988
N13810G1X-10.404Y-15.958
N13820G1X-10.595Y-15.909
N13830G1X-10.778Y-15.842
N13840G1X-10.952Y-15.758
N13850G1X-11.117Y-15.658
N13860G1X-11.271Y-15.543
N13870G1X-11.413Y-15.413
N13880G1X-11.543Y-15.271
N13890G1X-11.658Y-15.117
N13900G1X-11.758Y-14.952
N13910G1X-11.842Y-14.778
N13920G1X-11.909Y-14.595
N13930G1X-11.958Y-14.404
N13940G1X-11.988Y-14.206
N13950G1X-11.999Y-14.000
N13960G1Z-1.000F1200.0
N13970G1X-11.988Y-13.794F3600.0
N13980G1X-11.958Y-13.596
N13990G1X-11.909Y-13.405
N14000G1X-11.842Y-13.222
N14010G1X-11.758Y-13.048
N14020G1X-11.658Y-12.883
N14030G1X-11.543Y-12.729
N14040G1X-11.413Y-12.587
N14050G1X-11.271Y-12.457
N14060G1X-11.117Y-12.342
N14070G1X-10.952Y-12.242
N14080G1X-10.778Y-12.158
N14090G1X-10.595Y-12.091
N14100G1X-10.404Y-12.042
N14110G1X-10.206Y-12.012
N14120G1X-10.000Y-12.001
N14130G1X-9.794Y-12.012
N14140G1X-9.596Y-12.042
N14150G1X-9.405Y-12.091
N14160G1X-9.222Y-12.158
N14170G1X-9.048Y-12.242
N14180G1X-8.883Y-12.342
N14190G1X-8.729Y-12.457
N14200G1X-8.587Y-12.587
N14210G1X-8.457Y-12.729
N14220G1X-8.342Y-12.883
N14230G1X-8.242Y-13.048
N14240G1X-8.158Y-13.222
N14250G1X-8.091Y-13.405
N14260G1X-8.042Y-13.596
N14270G1X-8.012Y-13.794
N14280G1X-8.001Y-14.000
N14290G1X-8.012Y-14.206
N14300G1X-8.042Y-14.404
N14310G1X-8.091Y-14.595
N14320G1X-8.158Y-14.778
N14330G1X-8.242Y-14.952
N14340G1X-8.342Y-15.117
N14350G1X-8.457Y-15.271
N14360G1X-8.587Y-15.413
N14370G1X-8.729Y-15.543
N14380G1X-8.883Y-15.658
N14390G1X-9.048Y-15.758
N14400G1X-9.222Y-15.842
N14410G1X-9.405Y-15.909
N14420G1X-9.596Y-15.958
N14430G1X-9.794Y-15.988
N14440G1X-10.000Y-15.999
N14450G1X-10.206Y-15.988
N14460G1X-10.404Y-15.958
N14470G1X-10.595Y-15.909
N14480G1X-10.778Y-15.842
N14490G1X-10.952Y-15.758
N14500G1X-11.117Y-15.658
N14510G1X-11.271Y-15.543
N14520G1X-11.413Y-15.413
N14530G1X-11.543Y-15.271
N14540G1X-11.658Y-15.117
N14550G1X-11.758Y-14.952
N14560G1X-11.842Y-14.778
N14570G1X-11.909Y-14.595
N14580G1X-11.958Y-14.404
N14590G1X-11.988Y-14.206
N14600G1X-11.999Y-14.000
N14610G1Z-1.500F1200.0
N14620G1X-11.988Y-13.794F3600.0
N14630G1X-11.958Y-13.596
N14640G1X-11.909Y-13.405
N14650G1X-11.842Y-13.222
N14660G1X-11.758Y-13.048
N14670G1X-11.658Y-12.883
N14680G1X-11.543Y-12.729
N14690G1X-11.413Y-12.587
N14700G1X-11.271Y-12.457
N14710G1X-11.117Y-12.342
N14720G1X-10.952Y-12.242
N14730G1X-10.778Y-12.158
N14740G1X-10.595Y-12.091
N14750G1X-10.404Y-12.042
N14760G1X-10.206Y-12.012
N14770G1X-10.000Y-12.001
N14780G1X-9.794Y-12.012
N14790G1X-9.596Y-12.042
N14800G1X-9.405Y-12.091
N14810G1X-9.222Y-12.158
N14820G1X-9.048Y-12.242
N14830G1X-8.883Y-12.342
N14840G1X-8.729Y-12.457
N14850G1X-8.587Y-12.587
N14860G1X-8.457Y-12.729
N14870G1X-8.342Y-12.883
N14880G1X-8.242Y-13.048
N14890G1X-8.158Y-13.222
N14900G1X-8.091Y-13.405
N14910G1X-8.042Y-13.596
N14920G1X-8.012Y-13.794
N14930G1X-8.001Y-14.000
N14940G1X-8.012Y-14.206
N14950G1X-8.042Y-14.404
N14960G1X-8.091Y-14.595
N14970G1X-8.158Y-14.778
N14980G1X-8.242Y-14.952
N14990G1X-8.342Y-15.117
N15000G1X-8.457Y-15.271
N15010G1X-8.587Y-15.413
N15020G1X-8.729Y-15.543
N15030G1X-8.883Y-15.658
N15040G1X-9.048Y-15.758
N15050G1X-9.222Y-15.842
N15060G1X-9.405Y-15.909
N15070G1X-9.596Y-15.958
N15080G1X-9.794Y-15.988
N15090G1X-10.000Y-15.999
N15100G1X-10.206Y-15.988
N15110G1X-10.404Y-15.958
N15120G1X-10.595Y-15.909
N15130G1X-10.778Y-15.842
N15140G1X-10.952Y-15.758
N15150G1X-11.117Y-15.658
N15160G1X-11.271Y-15.543
N15170G1X-11.413Y-15.413
N15180G1X-11.543Y-15.271
N15190G1X-11.658Y-15.117
N15200G1X-11.758Y-14.952
N15210G1X-11.842Y-14.778
N15220G1X-11.909Y-14.595
N15230G1X-11.958Y-14.404
N15240G1X-11.988Y-14.206
N15250G1X-11.999Y-14.000
N15260G1Z-2.000F1200.0
N15270G1X-11.988Y-13.794F3600.0
N15280G1X-11.958Y-13.596
N15290G1X-11.909Y-13.405
N15300G1X-11.842Y-13.222
N15310G1X-11.758Y-13.048
N15320G1X-11.658Y-12.883
N15330G1X-11.543Y-12.729
N15340G1X-11.413Y-12.587
N15350G1X-11.271Y-12.457
N15360G1X-11.117Y-12.342
N15370G1X-10.952Y-12.242
N15380G1X-10.778Y-12.158
N15390G1X-10.595Y-12.091
N15400G1X-10.404Y-12.042
N15410G1X-10.206Y-12.012
N15420G1X-10.000Y-12.001
N15430G1X-9.794Y-12.012
N15440G1X-9.596Y-12.042
N15450G1X-9.405Y-12.091
N15460G1X-9.222Y-12.158
N15470G1X-9.048Y-12.242
N15480G1X-8.883Y-12.342
N15490G1X-8.729Y-12.457
N15500G1X-8.587Y-12.587
N15510G1X-8.457Y-12.729
N15520G1X-8.342Y-12.883
N15530G1X-8.242Y-13.048
N15540G1X-8.158Y-13.222
N15550G1X-8.091Y-13.405
N15560G1X-8.042Y-13.596
N15570G1X-8.012Y-13.794
N15580G1X-8.001Y-14.000
N15590G1X-8.012Y-14.206
N15600G1X-8.042Y-14.404
N15610G1X-8.091Y-14.595
N15620G1X-8.158Y-14.778
N15630G1X-8.242Y-14.952
N15640G1X-8.342Y-15.117
N15650G1X-8.457Y-15.271
N15660G1X-8.587Y-15.413
N15670G1X-8.729Y-15.543
N15680G1X-8.883Y-15.658
N15690G1X-9.048Y-15.758
N15700G1X-9.222Y-15.842
N15710G1X-9.405Y-15.909
N15720G1X-9.596Y-15.958
N15730G1X-9.794Y-15.988
N15740G1X-10.000Y-15.999
N15750G1X-10.206Y-15.988
N15760G1X-10.404Y-15.958
N15770G1X-10.595Y-15.909
N15780G1X-10.778Y-15.842
N15790G1X-10.952Y-15.758
N15800G1X-11.117Y-15.658
N15810G1X-11.271Y-15.543
N15820G1X-11.413Y-15.413
N15830G1X-11.543Y-15.271
N15840G1X-11.658Y-15.117
N15850G1X-11.758Y-14.952
N15860G1X-11.842Y-14.778
N15870G1X-11.909Y-14.595
N15880G1X-11.958Y-14.404
N15890G1X-11.988Y-14.206
N15900G1X-11.999Y-14.000
N15910G00Z6.000
N15920G00X8.001
N15930G1Z-0.500F1200.0
N15940G1X8.012Y-13.794F3600.0
N15950G1X8.042Y-13.596
N15960G1X8.091Y-13.405
N15970G1X8.158Y-13.222
N15980G1X8.242Y-13.048
N15990G1X8.342Y-12.883
N16000G1X8.457Y-12.729
N16010G1X8.587Y-12.587
N16020G1X8.729Y-12.457
N16030G1X8.883Y-12.342
N16040G1X9.048Y-12.242
N16050G1X9.222Y-12.158
N16060G1X9.405Y-12.091
N16070G1X9.596Y-12.042
N16080G1X9.794Y-12.012
N16090G1X10.000Y-12.001
N16100G1X10.206Y-12.012
N16110G1X10.404Y-12.042
N16120G1X10.595Y-12.091
N16130G1X10.778Y-12.158
N16140G1X10.952Y-12.242
N16150G1X11.117Y-12.342
N16160G1X11.271Y-12.457
N16170G1X11.413Y-12.587
N16180G1X11.543Y-12.729
N16190G1X11.658Y-12.883
N16200G1X11.758Y-13.048
N16210G1X11.842Y-13.222
N16220G1X11.909Y-13.405
N16230G1X11.958Y-13.596
N16240G1X11.988Y-13.794
N16250G1X11.999Y-14.000
N16260G1X11.988Y-14.206
N16270G1X11.958Y-14.404
N16280G1X11.909Y-14.595
N16290G1X11.842Y-14.778
N16300G1X11.758Y-14.952
N16310G1X11.658Y-15.117
N16320G1X11.543Y-15.271
N16330G1X11.413Y-15.413
N16340G1X11.271Y-15.543
N16350G1X11.117Y-15.658
N16360G1X10.952Y-15.758
N16370G1X10.778Y-15.842
N16380G1X10.595Y-15.909
N16390G1X10.404Y-15.958
N16400G1X10.206Y-15.988
N16410G1X10.000Y-15.999
N16420G1X9.794Y-15.988
N16430G1X9.596Y-15.958
N16440G1X9.405Y-15.909
N16450G1X9.222Y-15.842
N16460G1X9.048Y-15.758
N16470G1X8.883Y-15.658
N16480G1X8.729Y-15.543
N16490G1X8.587Y-15.413
N16500G1X8.457Y-15.271
N16510G1X8.342Y-15.117
N16520G1X8.242Y-14.952
N16530G1X8.158Y-14.778
N16540G1X8.091Y-14.595
N16550G1X8.042Y-14.404
N16560G1X8.012Y-14.206
N16570G1X8.001Y-14.000
N16580G1Z-1.000F1200.0
N16590G1X8.012Y-13.794F3600.0
N16600G1X8.042Y-13.596
N16610G1X8.091Y-13.405
N16620G1X8.158Y-13.222
N16630G1X8.242Y-13.048
N16640G1X8.342Y-12.883
N16650G1X8.457Y-12.729
N16660G1X8.587Y-12.587
N16670G1X8.729Y-12.457
N16680G1X8.883Y-12.342
N16690G1X9.048Y-12.242
N16700G1X9.222Y-12.158
N16710G1X9.405Y-12.091
N16720G1X9.596Y-12.042
N16730G1X9.794Y-12.012
N16740G1X10.000Y-12.001
N16750G1X10.206Y-12.012
N16760G1X10.404Y-12.042
N16770G1X10.595Y-12.091
N16780G1X10.778Y-12.158
N16790G1X10.952Y-12.242
N16800G1X11.117Y-12.342
N16810G1X11.271Y-12.457
N16820G1X11.413Y-12.587
N16830G1X11.543Y-12.729
N16840G1X11.658Y-12.883
N16850G1X11.758Y-13.048
N16860G1X11.842Y-13.222
N16870G1X11.909Y-13.405
N16880G1X11.958Y-13.596
N16890G1X11.988Y-13.794
N16900G1X11.999Y-14.000
N16910G1X11.988Y-14.206
N16920G1X11.958Y-14.404
N16930G1X11.909Y-14.595
N16940G1X11.842Y-14.778
N16950G1X11.758Y-14.952
N16960G1X11.658Y-15.117
N16970G1X11.543Y-15.271
N16980G1X11.413Y-15.413
N16990G1X11.271Y-15.543
N17000G1X11.117Y-15.658
N17010G1X10.952Y-15.758
N17020G1X10.778Y-15.842
N17030G1X10.595Y-15.909
N17040G1X10.404Y-15.958
N17050G1X10.206Y-15.988
N17060G1X10.000Y-15.999
N17070G1X9.794Y-15.988
N17080G1X9.596Y-15.958
N17090G1X9.405Y-15.909
N17100G1X9.222Y-15.842
N17110G1X9.048Y-15.758
N17120G1X8.883Y-15.658
N17130G1X8.729Y-15.543
N17140G1X8.587Y-15.413
N17150G1X8.457Y-15.271
N17160G1X8.342Y-15.117
N17170G1X8.242Y-14.952
N17180G1X8.158Y-14.778
N17190G1X8.091Y-14.595
N17200G1X8.042Y-14.404
N17210G1X8.012Y-14.206
N17220G1X8.001Y-14.000
N17230G1Z-1.500F1200.0
N17240G1X8.012Y-13.794F3600.0
N17250G1X8.042Y-13.596
N17260G1X8.091Y-13.405
N17270G1X8.158Y-13.222
N17280G1X8.242Y-13.048
N17290G1X8.342Y-12.883
N17300G1X8.457Y-12.729
N17310G1X8.587Y-12.587
N17320G1X8.729Y-12.457
N17330G1X8.883Y-12.342
N17340G1X9.048Y-12.242
N17350G1X9.222Y-12.158
N17360G1X9.405Y-12.091
N17370G1X9.596Y-12.042
N17380G1X9.794Y-12.012
N17390G1X10.000Y-12.001
N17400G1X10.206Y-12.012
N17410G1X10.404Y-12.042
N17420G1X10.595Y-12.091
N17430G1X10.778Y-12.158
N17440G1X10.952Y-12.242
N17450G1X11.117Y-12.342
N17460G1X11.271Y-12.457
N17470G1X11.413Y-12.587
N17480G1X11.543Y-12.729
N17490G1X11.658Y-12.883
N17500G1X11.758Y-13.048
N17510G1X11.842Y-13.222
N17520G1X11.909Y-13.405
N17530G1X11.958Y-13.596
N17540G1X11.988Y-13.794
N17550G1X11.999Y-14.000
N17560G1X11.988Y-14.206
N17570G1X11.958Y-14.404
N17580G1X11.909Y-14.595
N17590G1X11.842Y-14.778
N17600G1X11.758Y-14.952
N17610G1X11.658Y-15.117
N17620G1X11.543Y-15.271
N17630G1X11.413Y-15.413
N17640G1X11.271Y-15.543
N17650G1X11.117Y-15.658
N17660G1X10.952Y-15.758
N17670G1X10.778Y-15.842
N17680G1X10.595Y-15.909
N17690G1X10.404Y-15.958
N17700G1X10.206Y-15.988
N17710G1X10.000Y-15.999
N17720G1X9.794Y-15.988
N17730G1X9.596Y-15.958
N17740G1X9.405Y-15.909
N17750G1X9.222Y-15.842
N17760G1X9.048Y-15.758
N17770G1X8.883Y-15.658
N17780G1X8.729Y-15.543
N17790G1X8.587Y-15.413
N17800G1X8.457Y-15.271
N17810G1X8.342Y-15.117
N17820G1X8.242Y-14.952
N17830G1X8.158Y-14.778
N17840G1X8.091Y-14.595
N17850G1X8.042Y-14.404
N17860G1X8.012Y-14.206
N17870G1X8.001Y-14.000
N17880G1Z-2.000F1200.0
N17890G1X8.012Y-13.794F3600.0
N17900G1X8.042Y-13.596
N17910G1X8.091Y-13.405
N17920G1X8.158Y-13.222
N17930G1X8.242Y-13.048
N17940G1X8.342Y-12.883
N17950G1X8.457Y-12.729
N17960G1X8.587Y-12.587
N17970G1X8.729Y-12.457
N17980G1X8.883Y-12.342
N17990G1X9.048Y-12.242
N18000G1X9.222Y-12.158
N18010G1X9.405Y-12.091
N18020G1X9.596Y-12.042
N18030G1X9.794Y-12.012
N18040G1X10.000Y-12.001
N18050G1X10.206Y-12.012
N18060G1X10.404Y-12.042
N18070G1X10.595Y-12.091
N18080G1X10.778Y-12.158
N18090G1X10.952Y-12.242
N18100G1X11.117Y-12.342
N18110G1X11.271Y-12.457
N18120G1X11.413Y-12.587
N18130G1X11.543Y-12.729
N18140G1X11.658Y-12.883
N18150G1X11.758Y-13.048
N18160G1X11.842Y-13.222
N18170G1X11.909Y-13.405
N18180G1X11.958Y-13.596
N18190G1X11.988Y-13.794
N18200G1X11.999Y-14.000
N18210G1X11.988Y-14.206
N18220G1X11.958Y-14.404
N18230G1X11.909Y-14.595
N18240G1X11.842Y-14.778
N18250G1X11.758Y-14.952
N18260G1X11.658Y-15.117
N18270G1X11.543Y-15.271
N18280G1X11.413Y-15.413
N18290G1X11.271Y-15.543
N18300G1X11.117Y-15.658
N18310G1X10.952Y-15.758
N18320G1X10.778Y-15.842
N18330G1X10.595Y-15.909
N18340G1X10.404Y-15.958
N18350G1X10.206Y-15.988
N18360G1X10.000Y-15.999
N18370G1X9.794Y-15.988
N18380G1X9.596Y-15.958
N18390G1X9.405Y-15.909
N18400G1X9.222Y-15.842
N18410G1X9.048Y-15.758
N18420G1X8.883Y-15.658
N18430G1X8.729Y-15.543
N18440G1X8.587Y-15.413
N18450G1X8.457Y-15.271
N18460G1X8.342Y-15.117
N18470G1X8.242Y-14.952
N18480G1X8.158Y-14.778
N18490G1X8.091Y-14.595
N18500G1X8.042Y-14.404
N18510G1X8.012Y-14.206
N18520G1X8.001Y-14.000
N18530G00Z6.000
N18540G00X28.001
N18550G1Z-0.500F1200.0
N18560G1X28.012Y-13.794F3600.0
N18570G1X28.042Y-13.596
N18580G1X28.091Y-13.405
N18590G1X28.158Y-13.222
N18600G1X28.242Y-13.048
N18610G1X28.342Y-12.883
N18620G1X28.457Y-12.729
N18630G1X28.587Y-12.587
N18640G1X28.729Y-12.457
N18650G1X28.883Y-12.342
N18660G1X29.048Y-12.242
N18670G1X29.222Y-12.158
N18680G1X29.405Y-12.091
N18690G1X29.596Y-12.042
N18700G1X29.794Y-12.012
N18710G1X30.000Y-12.001
N18720G1X30.206Y-12.012
N18730G1X30.404Y-12.042
N18740G1X30.595Y-12.091
N18750G1X30.778Y-12.158
N18760G1X30.952Y-12.242
N18770G1X31.117Y-12.342
N18780G1X31.271Y-12.457
N18790G1X31.413Y-12.587
N18800G1X31.543Y-12.729
N18810G1X31.658Y-12.883
N18820G1X31.758Y-13.048
N18830G1X31.842Y-13.222
N18840G1X31.909Y-13.405
N18850G1X31.958Y-13.596
N18860G1X31.988Y-13.794
N18870G1X31.999Y-14.000
N18880G1X31.988Y-14.206
N18890G1X31.958Y-14.404
N18900G1X31.909Y-14.595
N18910G1X31.842Y-14.778
N18920G1X31.758Y-14.952
N18930G1X31.658Y-15.117
N18940G1X31.543Y-15.271
N18950G1X31.413Y-15.413
N18960G1X31.271Y-15.543
N18970G1X31.117Y-15.658
N18980G1X30.952Y-15.758
N18990G1X30.778Y-15.842
N19000G1X30.595Y-15.909
N19010G1X30.404Y-15.958
N19020G1X30.206Y-15.988
N19030G1X30.000Y-15.999
N19040G1X29.794Y-15.988
N19050G1X29.596Y-15.958
N19060G1X29.405Y-15.909
N19070G1X29.222Y-15.842
N19080G1X29.048Y-15.758
N19090G1X28.883Y-15.658
N19100G1X28.729Y-15.543
N19110G1X28.587Y-15.413
N19120G1X28.457Y-15.271
N19130G1X28.342Y-15.117
N19140G1X28.242Y-14.952
N19150G1X28.158Y-14.778
N19160G1X28.091Y-14.595
N19170G1X28.042Y-14.404
N19180G1X28.012Y-14.206
N19190G1X28.001Y-14.000
N19200G1Z-1.000F1200.0
N19210G1X28.012Y-13.794F3600.0
N19220G1X28.042Y-13.596
N19230G1X28.091Y-13.405
N19240G1X28.158Y-13.222
N19250G1X28.242Y-13.048
N19260G1X28.342Y-12.883
N19270G1X28.457Y-12.729
N19280G1X28.587Y-12.587
N19290G1X28.729Y-12.457
N19300G1X28.883Y-12.342
N19310G1X29.048Y-12.242
N19320G1X29.222Y-12.158
N19330G1X29.405Y-12.091
N19340G1X29.596Y-12.042
N19350G1X29.794Y-12.012
N19360G1X30.000Y-12.001
N19370G1X30.206Y-12.012
N19380G1X30.404Y-12.042
N19390G1X30.595Y-12.091
N19400G1X30.778Y-12.158
N19410G1X30.952Y-12.242
N19420G1X31.117Y-12.342
N19430G1X31.271Y-12.457
N19440G1X31.413Y-12.587
N19450G1X31.543Y-12.729
N19460G1X31.658Y-12.883
N19470G1X31.758Y-13.048
N19480G1X31.842Y-13.222
N19490G1X31.909Y-13.405
N19500G1X31.958Y-13.596
N19510G1X31.988Y-13.794
N19520G1X31.999Y-14.000
N19530G1X31.988Y-14.206
N19540G1X31.958Y-14.404
N19550G1X31.909Y-14.595
N19560G1X31.842Y-14.778
N19570G1X31.758Y-14.952
N19580G1X31.658Y-15.117
N19590G1X31.543Y-15.271
N19600G1X31.413Y-15.413
N19610G1X31.271Y-15.543
N19620G1X31.117Y-15.658
N19630G1X30.952Y-15.758
N19640G1X30.778Y-15.842
N19650G1X30.595Y-15.909
N19660G1X30.404Y-15.958
N19670G1X30.206Y-15.988
N19680G1X30.000Y-15.999
N19690G1X29.794Y-15.988
N19700G1X29.596Y-15.958
N19710G1X29.405Y-15.909
N19720G1X29.222Y-15.842
N19730G1X29.048Y-15.758
N19740G1X28.883Y-15.658
N19750G1X28.729Y-15.543
N19760G1X28.587Y-15.413
N19770G1X28.457Y-15.271
N19780G1X28.342Y-15.117
N19790G1X28.242Y-14.952
N19800G1X28.158Y-14.778
N19810G1X28.091Y-14.595
N19820G1X28.042Y-14.404
N19830G1X28.012Y-14.206
N19840G1X28.001Y-14.000
N19850G1Z-1.500F1200.0
N19860G1X28.012Y-13.794F3600.0
N19870G1X28.042Y-13.596
N19880G1X28.091Y-13.405
N19890G1X28.158Y-13.222
N19900G1X28.242Y-13.048
N19910G1X28.342Y-12.883
N19920G1X28.457Y-12.729
N19930G1X28.587Y-12.587
N19940G1X28.729Y-12.457
N19950G1X28.883Y-12.342
N19960G1X29.048Y-12.242
N19970G1X29.222Y-12.158
N19980G1X29.405Y-12.091
N19990G1X29.596Y-12.042
N20000G1X29.794Y-12.012
N20010G1X30.000Y-12.001
N20020G1X30.206Y-12.012
N20030G1X30.404Y-12.042
N20040G1X30.595Y-12.091
N20050G1X30.778Y-12.158
N20060G1X30.952Y-12.242
N20070G1X31.117Y-12.342
N20080G1X31.271Y-12.457
N20090G1X31.413Y-12.587
N20100G1X31.543Y-12.729
N20110G1X31.658Y-12.883
N20120G1X31.758Y-13.048
N20130G1X31.842Y-13.222
N20140G1X31.909Y-13.405
N20150G1X31.958Y-13.596
N20160G1X31.988Y-13.794
N20170G1X31.999Y-14.000
N20180G1X31.988Y-14.206
N20190G1X31.958Y-14.404
N20200G1X31.909Y-14.595
N20210G1X31.842Y-14.778
N20220G1X31.758Y-14.952
N20230G1X31.658Y-15.117
N20240G1X31.543Y-15.271
N20250G1X31.413Y-15.413
N20260G1X31.271Y-15.543
N20270G1X31.117Y-15.658
N20280G1X30.952Y-15.758
N20290G1X30.778Y-15.842
N20300G1X30.595Y-15.909
N20310G1X30.404Y-15.958
N20320G1X30.206Y-15.988
N20330G1X30.000Y-15.999
N20340G1X29.794Y-15.988
N20350G1X29.596Y-15.958
N20360G1X29.405Y-15.909
N20370G1X29.222Y-15.842
N20380G1X29.048Y-15.758
N20390G1X28.883Y-15.658
N20400G1X28.729Y-15.543
N20410G1X28.587Y-15.413
N20420G1X28.457Y-15.271
N20430G1X28.342Y-15.117
N20440G1X28.242Y-14.952
N20450G1X28.158Y-14.778
N20460G1X28.091Y-14.595
N20470G1X28.042Y-14.404
N20480G1X28.012Y-14.206
N20490G1X28.001Y-14.000
N20500G1Z-2.000F1200.0
N20510G1X28.012Y-13.794F3600.0
N20520G1X28.042Y-13.596
N20530G1X28.091Y-13.405
N20540G1X28.158Y-13.222
N20550G1X28.242Y-13.048
N20560G1X28.342Y-12.883
N20570G1X28.457Y-12.729
N20580G1X28.587Y-12.587
N20590G1X28.729Y-12.457
N20600G1X28.883Y-12.342
N20610G1X29.048Y-12.242
N20620G1X29.222Y-12.158
N20630G1X29.405Y-12.091
N20640G1X29.596Y-12.042
N20650G1X29.794Y-12.012
N20660G1X30.000Y-12.001
N20670G1X30.206Y-12.012
N20680G1X30.404Y-12.042
N20690G1X30.595Y-12.091
N20700G1X30.778Y-12.158
N20710G1X30.952Y-12.242
N20720G1X31.117Y-12.342
N20730G1X31.271Y-12.457
N20740G1X31.413Y-12.587
N20750G1X31.543Y-12.729
N20760G1X31.658Y-12.883
N20770G1X31.758Y-13.048
N20780G1X31.842Y-13.222
N20790G1X31.909Y-13.405
N20800G1X31.958Y-13.596
N20810G1X31.988Y-13.794
N20820G1X31.999Y-14.000
N20830G1X31.988Y-14.206
N20840G1X31.958Y-14.404
N20850G1X31.909Y-14.595
N20860G1X31.842Y-14.778
N20870G1X31.758Y-14.952
N20880G1X31.658Y-15.117
N20890G1X31.543Y-15.271
N20900G1X31.413Y-15.413
N20910G1X31.271Y-15.543
N20920G1X31.117Y-15.658
N20930G1X30.952Y-15.758
N20940G1X30.778Y-15.842
N20950G1X30.595Y-15.909
N20960G1X30.404Y-15.958
N20970G1X30.206Y-15.988
N20980G1X30.000Y-15.999
N20990G1X29.794Y-15.988
N21000G1X29.596Y-15.958
N21010G1X29.405Y-15.909
N21020G1X29.222Y-15.842
N21030G1X29.048Y-15.758
N21040G1X28.883Y-15.658
N21050G1X28.729Y-15.543
N21060G1X28.587Y-15.413
N21070G1X28.457Y-15.271
N21080G1X28.342Y-15.117
N21090G1X28.242Y-14.952
N21100G1X28.158Y-14.778
N21110G1X28.091Y-14.595
N21120G1X28.042Y-14.404
N21130G1X28.012Y-14.206
N21140G1X28.001Y-14.000
N21150G00Z6.000
N21160S12000M03
(Profile 2)
()
N21190G00X-35.025Y-21.000Z6.000
N21200G1Z-0.500F1200.0
N21210G1X35.025F3600.0
N21220G1X35.357Y-20.983
N21230G1X35.704Y-20.930
N21240G1X36.041Y-20.844
N21250G1X36.363Y-20.726
N21260G1X36.669Y-20.578
N21270G1X36.958Y-20.403
N21280G1X37.227Y-20.201
N21290G1X37.476Y-19.976
N21300G1X37.701Y-19.727
N21310G1X37.903Y-19.458
N21320G1X38.078Y-19.169
N21330G1X38.226Y-18.863
N21340G1X38.344Y-18.541
N21350G1X38.430Y-18.204
N21360G1X38.483Y-17.857
N21370G1X38.500Y-17.525
N21380G1Y17.525
N21390G1X38.483Y17.857
N21400G1X38.430Y18.204
N21410G1X38.344Y18.541
N21420G1X38.226Y18.863
N21430G1X38.078Y19.169
N21440G1X37.903Y19.458
N21450G1X37.701Y19.727
N21460G1X37.476Y19.976
N21470G1X37.227Y20.201
N21480G1X36.958Y20.403
N21490G1X36.669Y20.578
N21500G1X36.363Y20.726
N21510G1X36.041Y20.844
N21520G1X35.704Y20.930
N21530G1X35.357Y20.983
N21540G1X35.025Y21.000
N21550G1X-35.025
N21560G1X-35.357Y20.983
N21570G1X-35.704Y20.930
N21580G1X-36.041Y20.844
N21590G1X-36.363Y20.726
N21600G1X-36.669Y20.578
N21610G1X-36.958Y20.403
N21620G1X-37.227Y20.201
N21630G1X-37.476Y19.976
N21640G1X-37.701Y19.727
N21650G1X-37.903Y19.458
N21660G1X-38.078Y19.169
N21670G1X-38.226Y18.863
N21680G1X-38.344Y18.541
N21690G1X-38.430Y18.204
N21700G1X-38.483Y17.857
N21710G1X-38.500Y17.525
N21720G1Y-17.525
N21730G1X-38.483Y-17.857
N21740G1X-38.430Y-18.204
N21750G1X-38.344Y-18.541
N21760G1X-38.226Y-18.863
N21770G1X-38.078Y-19.169
N21780G1X-37.903Y-19.458
N21790G1X-37.701Y-19.727
N21800G1X-37.476Y-19.976
N21810G1X-37.227Y-20.201
N21820G1X-36.958Y-20.403
N21830G1X-36.669Y-20.578
N21840G1X-36.363Y-20.726
N21850G1X-36.041Y-20.844
N21860G1X-35.704Y-20.930
N21870G1X-35.357Y-20.983
N21880G1X-35.025Y-21.000
N21890G1Z-1.000F1200.0
N21900G1X35.025F3600.0
N21910G1X35.357Y-20.983
N21920G1X35.704Y-20.930
N21930G1X36.041Y-20.844
N21940G1X36.363Y-20.726
N21950G1X36.669Y-20.578
N21960G1X36.958Y-20.403
N21970G1X37.227Y-20.201
N21980G1X37.476Y-19.976
N21990G1X37.701Y-19.727
N22000G1X37.903Y-19.458
N22010G1X38.078Y-19.169
N22020G1X38.226Y-18.863
N22030G1X38.344Y-18.541
N22040G1X38.430Y-18.204
N22050G1X38.483Y-17.857
N22060G1X38.500Y-17.525
N22070G1Y17.525
N22080G1X38.483Y17.857
N22090G1X38.430Y18.204
N22100G1X38.344Y18.541
N22110G1X38.226Y18.863
N22120G1X38.078Y19.169
N22130G1X37.903Y19.458
N22140G1X37.701Y19.727
N22150G1X37.476Y19.976
N22160G1X37.227Y20.201
N22170G1X36.958Y20.403
N22180G1X36.669Y20.578
N22190G1X36.363Y20.726
N22200G1X36.041Y20.844
N22210G1X35.704Y20.930
N22220G1X35.357Y20.983
N22230G1X35.025Y21.000
N22240G1X-35.025
N22250G1X-35.357Y20.983
N22260G1X-35.704Y20.930
N22270G1X-36.041Y20.844
N22280G1X-36.363Y20.726
N22290G1X-36.669Y20.578
N22300G1X-36.958Y20.403
N22310G1X-37.227Y20.201
N22320G1X-37.476Y19.976
N22330G1X-37.701Y19.727
N22340G1X-37.903Y19.458
N22350G1X-38.078Y19.169
N22360G1X-38.226Y18.863
N22370G1X-38.344Y18.541
N22380G1X-38.430Y18.204
N22390G1X-38.483Y17.857
N22400G1X-38.500Y17.525
N22410G1Y-17.525
N22420G1X-38.483Y-17.857
N22430G1X-38.430Y-18.204
N22440G1X-38.344Y-18.541
N22450G1X-38.226Y-18.863
N22460G1X-38.078Y-19.169
N22470G1X-37.903Y-19.458
N22480G1X-37.701Y-19.727
N22490G1X-37.476Y-19.976
N22500G1X-37.227Y-20.201
N22510G1X-36.958Y-20.403
N22520G1X-36.669Y-20.578
N22530G1X-36.363Y-20.726
N22540G1X-36.041Y-20.844
N22550G1X-35.704Y-20.930
N22560G1X-35.357Y-20.983
N22570G1X-35.025Y-21.000
N22580G1Z-1.500F1200.0
N22590G1X35.025F3600.0
N22600G1X35.357Y-20.983
N22610G1X35.704Y-20.930
N22620G1X36.041Y-20.844
N22630G1X36.363Y-20.726
N22640G1X36.669Y-20.578
N22650G1X36.958Y-20.403
N22660G1X37.227Y-20.201
N22670G1X37.476Y-19.976
N22680G1X37.701Y-19.727
N22690G1X37.903Y-19.458
N22700G1X38.078Y-19.169
N22710G1X38.226Y-18.863
N22720G1X38.344Y-18.541
N22730G1X38.430Y-18.204
N22740G1X38.483Y-17.857
N22750G1X38.500Y-17.525
N22760G1Y17.525
N22770G1X38.483Y17.857
N22780G1X38.430Y18.204
N22790G1X38.344Y18.541
N22800G1X38.226Y18.863
N22810G1X38.078Y19.169
N22820G1X37.903Y19.458
N22830G1X37.701Y19.727
N22840G1X37.476Y19.976
N22850G1X37.227Y20.201
N22860G1X36.958Y20.403
N22870G1X36.669Y20.578
N22880G1X36.363Y20.726
N22890G1X36.041Y20.844
N22900G1X35.704Y20.930
N22910G1X35.357Y20.983
N22920G1X35.025Y21.000
N22930G1X-35.025
N22940G1X-35.357Y20.983
N22950G1X-35.704Y20.930
N22960G1X-36.041Y20.844
N22970G1X-36.363Y20.726
N22980G1X-36.669Y20.578
N22990G1X-36.958Y20.403
N23000G1X-37.227Y20.201
N23010G1X-37.476Y19.976
N23020G1X-37.701Y19.727
N23030G1X-37.903Y19.458
N23040G1X-38.078Y19.169
N23050G1X-38.226Y18.863
N23060G1X-38.344Y18.541
N23070G1X-38.430Y18.204
N23080G1X-38.483Y17.857
N23090G1X-38.500Y17.525
N23100G1Y-17.525
N23110G1X-38.483Y-17.857
N23120G1X-38.430Y-18.204
N23130G1X-38.344Y-18.541
N23140G1X-38.226Y-18.863
N23150G1X-38.078Y-19.169
N23160G1X-37.903Y-19.458
N23170G1X-37.701Y-19.727
N23180G1X-37.476Y-19.976
N23190G1X-37.227Y-20.201
N23200G1X-36.958Y-20.403
N23210G1X-36.669Y-20.578
N23220G1X-36.363Y-20.726
N23230G1X-36.041Y-20.844
N23240G1X-35.704Y-20.930
N23250G1X-35.357Y-20.983
N23260G1X-35.025Y-21.000
N23270G1Z-2.000F1200.0
N23280G1X35.025F3600.0
N23290G1X35.357Y-20.983
N23300G1X35.704Y-20.930
N23310G1X36.041Y-20.844
N23320G1X36.363Y-20.726
N23330G1X36.669Y-20.578
N23340G1X36.958Y-20.403
N23350G1X37.227Y-20.201
N23360G1X37.476Y-19.976
N23370G1X37.701Y-19.727
N23380G1X37.903Y-19.458
N23390G1X38.078Y-19.169
N23400G1X38.226Y-18.863
N23410G1X38.344Y-18.541
N23420G1X38.430Y-18.204
N23430G1X38.483Y-17.857
N23440G1X38.500Y-17.525
N23450G1Y17.525
N23460G1X38.483Y17.857
N23470G1X38.430Y18.204
N23480G1X38.344Y18.541
N23490G1X38.226Y18.863
N23500G1X38.078Y19.169
N23510G1X37.903Y19.458
N23520G1X37.701Y19.727
N23530G1X37.476Y19.976
N23540G1X37.227Y20.201
N23550G1X36.958Y20.403
N23560G1X36.669Y20.578
N23570G1X36.363Y20.726
N23580G1X36.041Y20.844
N23590G1X35.704Y20.930
N23600G1X35.357Y20.983
N23610G1X35.025Y21.000
N23620G1X-35.025
N23630G1X-35.357Y20.983
N23640G1X-35.704Y20.930
N23650G1X-36.041Y20.844
N23660G1X-36.363Y20.726
N23670G1X-36.669Y20.578
N23680G1X-36.958Y20.403
N23690G1X-37.227Y20.201
N23700G1X-37.476Y19.976
N23710G1X-37.701Y19.727
N23720G1X-37.903Y19.458
N23730G1X-38.078Y19.169
N23740G1X-38.226Y18.863
N23750G1X-38.344Y18.541
N23760G1X-38.430Y18.204
N23770G1X-38.483Y17.857
N23780G1X-38.500Y17.525
N23790G1Y-17.525
N23800G1X-38.483Y-17.857
N23810G1X-38.430Y-18.204
N23820G1X-38.344Y-18.541
N23830G1X-38.226Y-18.863
N23840G1X-38.078Y-19.169
N23850G1X-37.903Y-19.458
N23860G1X-37.701Y-19.727
N23870G1X-37.476Y-19.976
N23880G1X-37.227Y-20.201
N23890G1X-36.958Y-20.403
N23900G1X-36.669Y-20.578
N23910G1X-36.363Y-20.726
N23920G1X-36.041Y-20.844
N23930G1X-35.704Y-20.930
N23940G1X-35.357Y-20.983
N23950G1X-35.025Y-21.000
N23960G00Z6.000
N23970G00Z20.000
N23980G00X0.000Y0.000
N23990M09
N24000M30
%
