( SWITCH_PANELS_ENGRAVE )
( File created: Friday December 13 2019 - 01:53 PM)
( USBCNC Postprocessor )
( Material Size)
( X= 250.000, Y= 250.000, Z= 2.000)
()
(Toolpaths used in this file:)
(Quick Engrave 1)
(Tools used in this file: )
(1 = Engraving Tool)
N100G00G21G17G90G40G49
N110G80
N120 (Engraving Tool)
N130G00G43Z20.000H1
N140S12000M03
N150(Toolpath:- Quick Engrave 1)
N160()
N170G94
N180X0.000Y0.000F1200.0
N190G00X5.275Y-5.203Z6.000
N200G1Z-0.500F480.0
N210G1X6.060F1200.0
N220G1X6.170Y-5.161
N230G1X6.224Y-5.123
N240G1X5.014
N250G1X4.986Y-5.112
N260G1X4.902Y-5.043
N270G1X6.336
N280G1X6.406Y-4.963
N290G1X4.828
N300G1X4.769Y-4.883
N310G1X6.470
N320G1X6.512Y-4.803
N330G1X5.970
N340G1X6.018Y-4.782
N350G1X6.078Y-4.723
N360G1X6.555
N370G1X6.574Y-4.643
N380G1X6.134
N390G1X6.170Y-4.579
N400G1X6.173Y-4.563
N410G1X6.594
N420G1X6.602Y-4.531
N430G1X6.603Y-4.483
N440G1X6.191
N450G1X6.197Y-4.457
N460G1X6.191Y-4.403
N470G1X6.606
N480G1X6.606Y-4.394
N490G1X6.598Y-4.323
N500G1X6.182
N510G1X6.149Y-4.243
N520G1X6.585
N530G1X6.561Y-4.163
N540G1X6.098
N550G1X6.057Y-4.114
N560G1X6.008Y-4.083
N570G1X6.532
N580G1X6.489Y-4.003
N590G1X5.851
N600G1X5.669Y-3.923
N610G1X6.435
N620G1X6.368Y-3.843
N630G1X5.486
N640G1X5.304Y-3.763
N650G1X6.270
N660G1X6.231Y-3.733
N670G1X6.207Y-3.719
N680G1X6.184Y-3.705
N690G1X6.161Y-3.692
N700G1X6.144Y-3.683
N710G1X5.164
N720G1X5.095Y-3.638
N730G1X5.059Y-3.603
N740G1X5.964
N750G1X5.783Y-3.523
N760G1X4.976
N770G1X4.924Y-3.443
N780G1X5.602
N790G1X5.434Y-3.369
N800G1X5.420Y-3.363
N810G1X4.879
N820G1X4.849Y-3.283
N830G1X5.310
N840G1X5.267Y-3.228
N850G1X5.256Y-3.203
N860G1X4.827
N870G1X4.815Y-3.123
N880G1X5.228
N890G1X5.219Y-3.084
N900G1X5.220Y-3.043
N910G1X4.805
N920G1X4.811Y-2.963
N930G1X5.223
N940G1X5.223Y-2.958
N950G1X5.255Y-2.883
N960G1X4.817
N970G1X4.817Y-2.880
N980G1X4.843Y-2.803
N990G1X5.304
N1000G1X5.329Y-2.772
N1010G1X5.393Y-2.723
N1020G1X4.870
N1030G1X4.872Y-2.717
N1040G1X4.918Y-2.643
N1050G1X6.364
N1060G1X6.331Y-2.583
N1070G1X6.314Y-2.563
N1080G1X4.969
N1090G1X5.046Y-2.483
N1100G1X6.243
N1110G1X6.211Y-2.448
N1120G1X6.140Y-2.403
N1130G1X5.141
N1140G1X5.241Y-2.339
N1150G1X5.287Y-2.323
N1160G1X5.980
N1170G00Z6.000
N1180G00X5.336Y-4.803
N1190G1Z-0.500F480.0
N1200G1X4.732F1200.0
N1210G1X4.696Y-4.723
N1220G1X5.188
N1230G1X5.139Y-4.668
N1240G1X5.128Y-4.643
N1250G1X4.672
N1260G1X4.662Y-4.607
N1270G1X4.653Y-4.563
N1280G1X5.088
N1290G1X5.085Y-4.557
N1300G1X5.063Y-4.483
N1310G1X4.642
N1320G1X4.644Y-4.405
N1330G1X4.645Y-4.403
N1340G1X5.040
N1350G1X5.039Y-4.401
N1360G1X4.988Y-4.323
N1370G1X4.691
N1380G00Z6.000
N1390G00X6.170Y-3.123
N1400G1Z-0.500F480.0
N1410G1X6.476F1200.0
N1420G1X6.506Y-3.078
N1430G1X6.517Y-3.043
N1440G1X6.118
N1450G1X6.081Y-2.963
N1460G1X6.522
N1470G1X6.521Y-2.947
N1480G1X6.508Y-2.909
N1490G1X6.494Y-2.883
N1500G1X6.040
N1510G1X6.000Y-2.820
N1520G1X5.982Y-2.803
N1530G1X6.450
N1540G1X6.407Y-2.723
N1550G1X5.875
N1560G00Z6.000
N1570G00X5.405Y-2.283
N1580G1Z-0.500F480.0
N1590G1X5.241Y-2.339F1200.0
N1600G1X5.096Y-2.432
N1610G1X4.969Y-2.563
N1620G1X4.872Y-2.717
N1630G1X4.817Y-2.880
N1640G1X4.804Y-3.053
N1650G1X4.832Y-3.236
N1660G1X4.888Y-3.389
N1670G1X4.976Y-3.523
N1680G1X5.095Y-3.638
N1690G1X5.245Y-3.736
N1700G1X5.267Y-3.747
N1710G1X5.945Y-4.045
N1720G1X6.057Y-4.114
N1730G1X6.136Y-4.211
N1740G1X6.184Y-4.330
N1750G1X6.197Y-4.457
N1760G1X6.170Y-4.579
N1770G1X6.105Y-4.697
N1780G1X6.018Y-4.782
N1790G1X5.908Y-4.832
N1800G1X5.775Y-4.849
N1810G1X5.498Y-4.838
N1820G1X5.288Y-4.793
N1830G1X5.207Y-4.747
N1840G1X5.139Y-4.668
N1850G1X5.085Y-4.557
N1860G1X5.043Y-4.414
N1870G1X5.039Y-4.401
N1880G1X4.976Y-4.305
N1890G1X4.877Y-4.257
N1900G1X4.777Y-4.263
N1910G1X4.694Y-4.319
N1920G1X4.644Y-4.405
N1930G1X4.642Y-4.505
N1940G1X4.662Y-4.607
N1950G1X4.688Y-4.707
N1960G1X4.765Y-4.878
N1970G1X4.865Y-5.013
N1980G1X4.986Y-5.112
N1990G1X5.129Y-5.173
N2000G1X5.446Y-5.239
N2010G1X5.778Y-5.261
N2020G1X5.977Y-5.236
N2030G1X6.170Y-5.161
N2040G1X6.330Y-5.049
N2050G1X6.462Y-4.899
N2060G1X6.555Y-4.723
N2070G1X6.602Y-4.531
N2080G1X6.606Y-4.394
N2090G1X6.590Y-4.260
N2100G1X6.542Y-4.101
N2110G1X6.466Y-3.960
N2120G1X6.362Y-3.837
N2130G1X6.231Y-3.733
N2140G1X6.207Y-3.719
N2150G1X6.184Y-3.705
N2160G1X6.161Y-3.692
N2170G1X6.134Y-3.678
N2180G1X6.111Y-3.668
N2190G1X5.434Y-3.369
N2200G1X5.417Y-3.362
N2210G1X5.400Y-3.355
N2220G1X5.384Y-3.345
N2230G1X5.371Y-3.336
N2240G1X5.312Y-3.286
N2250G1X5.267Y-3.228
N2260G1X5.236Y-3.160
N2270G1X5.219Y-3.084
N2280G1X5.223Y-2.958
N2290G1X5.272Y-2.845
N2300G1X5.329Y-2.772
N2310G1X5.399Y-2.719
N2320G1X5.479Y-2.687
N2330G1X5.572Y-2.675
N2340G1X5.707Y-2.679
N2350G1X5.802Y-2.695
N2360G1X5.868Y-2.720
N2370G1X5.931Y-2.754
N2380G1X6.000Y-2.820
N2390G1X6.052Y-2.901
N2400G1X6.133Y-3.075
N2410G1X6.192Y-3.153
N2420G1X6.272Y-3.192
N2430G1X6.359Y-3.195
N2440G1X6.439Y-3.160
N2450G1X6.470Y-3.134
N2460G1X6.506Y-3.078
N2470G1X6.526Y-3.016
N2480G1X6.521Y-2.947
N2490G1X6.508Y-2.909
N2500G1X6.331Y-2.583
N2510G1X6.211Y-2.448
N2520G1X6.048Y-2.345
N2530G1X5.900Y-2.298
N2540G1X5.748Y-2.269
N2550G1X5.586Y-2.265
N2560G1X5.405Y-2.283
N2570G00Z6.000
N2580G00X7.541Y-5.203
N2590G1Z-0.500F480.0
N2600G1X7.824F1200.0
N2610G1X7.841Y-5.186
N2620G1X7.876Y-5.123
N2630G1X7.489
N2640G1X7.476Y-5.097
N2650G1X7.466Y-5.043
N2660G1X7.901
N2670G1X7.924Y-4.963
N2680G1X7.450
N2690G1X7.434Y-4.883
N2700G1X7.947
N2710G1X7.970Y-4.803
N2720G1X7.419
N2730G1X7.403Y-4.723
N2740G1X7.994
N2750G1X8.017Y-4.643
N2760G1X7.387
N2770G1X7.372Y-4.563
N2780G1X8.040
N2790G1X8.063Y-4.483
N2800G1X7.356
N2810G1X7.340Y-4.403
N2820G1X8.087
N2830G1X8.110Y-4.323
N2840G1X7.325
N2850G1X7.309Y-4.243
N2860G1X8.133
N2870G1X8.156Y-4.163
N2880G1X7.725
N2890G1X7.748Y-4.083
N2900G1X8.180
N2910G1X8.203Y-4.003
N2920G1X7.772
N2930G1X7.795Y-3.923
N2940G1X8.226
N2950G1X8.249Y-3.843
N2960G1X7.818
N2970G1X7.842Y-3.763
N2980G1X8.273
N2990G1X8.296Y-3.683
N3000G1X7.865
N3010G1X7.889Y-3.603
N3020G1X8.319
N3030G1X8.343Y-3.523
N3040G1X7.912
N3050G1X7.935Y-3.443
N3060G1X8.366
N3070G1X8.389Y-3.363
N3080G1X7.959
N3090G1X7.982Y-3.283
N3100G1X8.412
N3110G1X8.428Y-3.227
N3120G1X8.445Y-3.283
N3130G1X8.877
N3140G1X8.900Y-3.363
N3150G1X8.468
N3160G1X8.492Y-3.443
N3170G1X8.924
N3180G1X8.947Y-3.523
N3190G1X8.515
N3200G1X8.539Y-3.603
N3210G1X8.970
N3220G1X8.994Y-3.683
N3230G1X8.562
N3240G1X8.585Y-3.763
N3250G1X9.017
N3260G1X9.041Y-3.843
N3270G1X8.609
N3280G1X8.632Y-3.923
N3290G1X9.064
N3300G1X9.088Y-4.003
N3310G1X8.656
N3320G1X8.679Y-4.083
N3330G1X9.111
N3340G1X9.134Y-4.163
N3350G1X8.703
N3360G1X8.726Y-4.243
N3370G1X9.549
N3380G1X9.534Y-4.323
N3390G1X8.750
N3400G1X8.773Y-4.403
N3410G1X9.518
N3420G1X9.502Y-4.483
N3430G1X8.796
N3440G1X8.820Y-4.563
N3450G1X9.487
N3460G1X9.471Y-4.643
N3470G1X8.843
N3480G1X8.867Y-4.723
N3490G1X9.455
N3500G1X9.440Y-4.803
N3510G1X8.890
N3520G1X8.914Y-4.883
N3530G1X9.424
N3540G1X9.408Y-4.963
N3550G1X8.937
N3560G1X8.961Y-5.043
N3570G1X9.393
N3580G1X9.382Y-5.097
N3590G1X9.371Y-5.123
N3600G1X8.986
N3610G1X9.019Y-5.184
N3620G1X9.039Y-5.203
N3630G1X9.325
N3640G00Z6.000
N3650G00X7.713Y-4.163
N3660G1Z-0.500F480.0
N3670G1X7.293F1200.0
N3680G1X7.278Y-4.083
N3690G1X7.698
N3700G1X7.683Y-4.003
N3710G1X7.262
N3720G1X7.246Y-3.923
N3730G1X7.667
N3740G1X7.652Y-3.843
N3750G1X7.231
N3760G1X7.215Y-3.763
N3770G1X7.636
N3780G1X7.621Y-3.683
N3790G1X7.199
N3800G1X7.184Y-3.603
N3810G1X7.605
N3820G1X7.590Y-3.523
N3830G1X7.168
N3840G1X7.152Y-3.443
N3850G1X7.575
N3860G1X7.559Y-3.363
N3870G1X7.137
N3880G1X7.121Y-3.283
N3890G1X7.544
N3900G1X7.528Y-3.203
N3910G1X7.105
N3920G1X7.090Y-3.123
N3930G1X7.513
N3940G1X7.497Y-3.043
N3950G1X7.074
N3960G1X7.058Y-2.963
N3970G1X7.482
N3980G1X7.467Y-2.883
N3990G1X7.043
N4000G1X7.027Y-2.803
N4010G1X7.451
N4020G1X7.436Y-2.723
N4030G1X7.011
N4040G1X6.996Y-2.643
N4050G1X7.420
N4060G1X7.405Y-2.563
N4070G1X6.980
N4080G1X6.969Y-2.509
N4090G1X6.972Y-2.483
N4100G1X7.389
N4110G1X7.380Y-2.432
N4120G1X7.364Y-2.403
N4130G1X6.985
N4140G1X7.011Y-2.344
N4150G1X7.034Y-2.323
N4160G1X7.310
N4170G00Z6.000
N4180G00X9.565Y-4.163
N4190G1Z-0.500F480.0
N4200G1X9.145F1200.0
N4210G1X9.160Y-4.083
N4220G1X9.581
N4230G1X9.596Y-4.003
N4240G1X9.176
N4250G1X9.191Y-3.923
N4260G1X9.612
N4270G1X9.628Y-3.843
N4280G1X9.207
N4290G1X9.223Y-3.763
N4300G1X9.643
N4310G1X9.659Y-3.683
N4320G1X9.238
N4330G1X9.254Y-3.603
N4340G1X9.675
N4350G1X9.690Y-3.523
N4360G1X9.270
N4370G1X9.285Y-3.443
N4380G1X9.706
N4390G1X9.722Y-3.363
N4400G1X9.301
N4410G1X9.317Y-3.283
N4420G1X9.737
N4430G1X9.753Y-3.203
N4440G1X9.332
N4450G1X9.348Y-3.123
N4460G1X9.769
N4470G1X9.784Y-3.043
N4480G1X9.364
N4490G1X9.379Y-2.963
N4500G1X9.800
N4510G1X9.816Y-2.883
N4520G1X9.395
N4530G1X9.411Y-2.803
N4540G1X9.832
N4550G1X9.847Y-2.723
N4560G1X9.426
N4570G1X9.442Y-2.643
N4580G1X9.863
N4590G1X9.879Y-2.563
N4600G1X9.458
N4610G1X9.473Y-2.483
N4620G1X9.888
N4630G1X9.884Y-2.419
N4640G1X9.878Y-2.403
N4650G1X9.496
N4660G1X9.521Y-2.348
N4670G1X9.545Y-2.323
N4680G1X9.827
N4690G00Z6.000
N4700G00X8.853Y-3.203
N4710G1Z-0.500F480.0
N4720G1X8.005F1200.0
N4730G1X8.029Y-3.123
N4740G1X8.830
N4750G1X8.807Y-3.043
N4760G1X8.052
N4770G1X8.076Y-2.963
N4780G1X8.783
N4790G1X8.760Y-2.883
N4800G1X8.099
N4810G1X8.122Y-2.803
N4820G1X8.736
N4830G1X8.713Y-2.723
N4840G1X8.146
N4850G1X8.169Y-2.643
N4860G1X8.690
N4870G1X8.666Y-2.563
N4880G1X8.192
N4890G1X8.216Y-2.483
N4900G1X8.643
N4910G1X8.628Y-2.432
N4920G1X8.613Y-2.403
N4930G1X8.247
N4940G1X8.267Y-2.368
N4950G1X8.312Y-2.323
N4960G1X8.555
N4970G00Z6.000
N4980G00X6.969Y-2.509
N4990G1Z-0.500F480.0
N5000G1X7.476Y-5.097F1200.0
N5010G1X7.510Y-5.166
N5020G1X7.554Y-5.218
N5030G1X7.608Y-5.251
N5040G1X7.673Y-5.265
N5050G1X7.738Y-5.260
N5060G1X7.794Y-5.233
N5070G1X7.841Y-5.186
N5080G1X7.879Y-5.117
N5090G1X8.428Y-3.227
N5100G1X8.982Y-5.117
N5110G1X9.019Y-5.184
N5120G1X9.067Y-5.231
N5130G1X9.124Y-5.258
N5140G1X9.191Y-5.265
N5150G1X9.257Y-5.252
N5160G1X9.311Y-5.220
N5170G1X9.353Y-5.168
N5180G1X9.382Y-5.097
N5190G1X9.889Y-2.509
N5200G1X9.884Y-2.419
N5210G1X9.855Y-2.349
N5220G1X9.802Y-2.299
N5230G1X9.724Y-2.271
N5240G1X9.642Y-2.267
N5250G1X9.574Y-2.293
N5260G1X9.521Y-2.348
N5270G1X9.483Y-2.432
N5280G1X9.140Y-4.184
N5290G1X8.628Y-2.432
N5300G1X8.594Y-2.365
N5310G1X8.550Y-2.318
N5320G1X8.496Y-2.290
N5330G1X8.432Y-2.282
N5340G1X8.368Y-2.293
N5350G1X8.313Y-2.322
N5360G1X8.267Y-2.368
N5370G1X8.231Y-2.432
N5380G1X7.718Y-4.187
N5390G1X7.380Y-2.432
N5400G1X7.336Y-2.349
N5410G1X7.281Y-2.294
N5420G1X7.214Y-2.267
N5430G1X7.136Y-2.268
N5440G1X7.063Y-2.295
N5450G1X7.011Y-2.344
N5460G1X6.980Y-2.416
N5470G1X6.969Y-2.509
N5480G00Z6.000
N5490G00X6.888Y-9.751
N5500G1Z-0.500F480.0
N5510G1X7.273F1200.0
N5520G1X7.344Y-9.727
N5530G1X7.443Y-9.671
N5540G1X6.672
N5550G1X6.570Y-9.617
N5560G1X6.540Y-9.591
N5570G1X7.542
N5580G1X7.635Y-9.511
N5590G1X6.447
N5600G1X6.413Y-9.482
N5610G1X6.374Y-9.431
N5620G1X7.704
N5630G1X7.764Y-9.351
N5640G1X7.167
N5650G1X7.210Y-9.334
N5660G1X7.288Y-9.274
N5670G1X7.291Y-9.271
N5680G1X7.821
N5690G1X7.861Y-9.191
N5700G1X7.360
N5710G1X7.418Y-9.123
N5720G1X7.426Y-9.111
N5730G1X7.901
N5740G1X7.908Y-9.095
N5750G1X7.932Y-9.031
N5760G1X7.473
N5770G1X7.513Y-8.964
N5780G1X7.517Y-8.951
N5790G1X7.961
N5800G1X7.979Y-8.901
N5810G1X7.986Y-8.871
N5820G1X7.544
N5830G1X7.571Y-8.791
N5840G1X8.006
N5850G1X8.025Y-8.711
N5860G1X7.588
N5870G1X7.601Y-8.631
N5880G1X8.037
N5890G1X8.047Y-8.551
N5900G1X7.614
N5910G1X7.619Y-8.522
N5920G1X7.621Y-8.471
N5930G1X8.056
N5940G1X8.058Y-8.391
N5950G1X7.624
N5960G1X7.627Y-8.311
N5970G1X8.060
N5980G1X8.061Y-8.267
N5990G1X8.059Y-8.231
N6000G1X7.628
N6010G1X7.621Y-8.151
N6020G1X8.053
N6030G1X8.048Y-8.071
N6040G1X7.614
N6050G1X7.607Y-7.991
N6060G1X8.035
N6070G1X8.022Y-7.911
N6080G1X7.590
N6090G1X7.571Y-7.831
N6100G1X8.006
N6110G1X7.984Y-7.751
N6120G1X7.552
N6130G1X7.544Y-7.715
N6140G1X7.525Y-7.671
N6150G1X7.962
N6160G1X7.954Y-7.641
N6170G1X7.930Y-7.591
N6180G1X7.490
N6190G1X7.455Y-7.511
N6200G1X7.891
N6210G1X7.853Y-7.431
N6220G1X7.407
N6230G1X7.375Y-7.383
N6240G1X7.343Y-7.351
N6250G1X7.815
N6260G1X7.807Y-7.334
N6270G1X7.763Y-7.271
N6280G1X7.245
N6290G1X7.202Y-7.243
N6300G1X7.097Y-7.203
N6310G1X7.029Y-7.194
N6320G1X6.903Y-7.212
N6330G1X6.792Y-7.267
N6340G1X6.789Y-7.271
N6350G1X6.265
N6360G1X6.232Y-7.321
N6370G1X6.219Y-7.351
N6380G1X6.706
N6390G1X6.699Y-7.357
N6400G1X6.654Y-7.431
N6410G1X6.183
N6420G1X6.148Y-7.511
N6430G1X6.610
N6440G1X6.577Y-7.591
N6450G1X6.121
N6460G1X6.096Y-7.671
N6470G1X6.543
N6480G1X6.509Y-7.751
N6490G1X6.072
N6500G1X6.071Y-7.755
N6510G1X6.056Y-7.831
N6520G1X6.487
N6530G1X6.465Y-7.911
N6540G1X6.041
N6550G1X6.026Y-7.984
N6560G1X6.026Y-7.991
N6570G1X6.445
N6580G1X6.436Y-8.071
N6590G1X6.019
N6600G1X6.012Y-8.151
N6610G1X6.427
N6620G1X6.426Y-8.231
N6630G1X6.007
N6640G1X6.009Y-8.311
N6650G1X6.426
N6660G1X6.426Y-8.341
N6670G1X6.430Y-8.391
N6680G1X6.010
N6690G1X6.012Y-8.451
N6700G1X6.014Y-8.471
N6710G1X6.437
N6720G1X6.444Y-8.551
N6730G1X6.025
N6740G1X6.035Y-8.631
N6750G1X6.461
N6760G1X6.477Y-8.711
N6770G1X6.049
N6780G1X6.069Y-8.791
N6790G1X6.497
N6800G1X6.525Y-8.871
N6810G1X6.089
N6820G1X6.097Y-8.901
N6830G1X6.115Y-8.951
N6840G1X6.552
N6850G1X6.555Y-8.958
N6860G1X6.594Y-9.031
N6870G1X6.146
N6880G1X6.177Y-9.110
N6890G1X6.177Y-9.111
N6900G1X6.637
N6910G1X6.650Y-9.135
N6920G1X6.693Y-9.191
N6930G1X6.219
N6940G1X6.262Y-9.271
N6950G1X6.773
N6960G1X6.775Y-9.273
N6970G1X6.850Y-9.321
N6980G1X6.923Y-9.351
N6990G1X6.314
N7000G00Z6.000
N7010G00X6.318Y-7.191
N7020G1Z-0.500F480.0
N7030G1X7.706F1200.0
N7040G1X7.649Y-7.111
N7050G1X6.380
N7060G1X6.456Y-7.031
N7070G1X7.586
N7080G1X7.504Y-6.951
N7090G1X6.553
N7100G1X6.656Y-6.878
N7110G1X6.673Y-6.871
N7120G1X7.385
N7130G1X7.345Y-6.846
N7140G1X7.189Y-6.795
N7150G1X7.142Y-6.791
N7160G1X6.926
N7170G00Z6.000
N7180G00X7.288Y-9.274
N7190G1Z-0.500F480.0
N7200G1X7.210Y-9.334F1200.0
N7210G1X7.125Y-9.367
N7220G1X7.033Y-9.374
N7230G1X6.934Y-9.355
N7240G1X6.850Y-9.321
N7250G1X6.775Y-9.273
N7260G1X6.708Y-9.211
N7270G1X6.650Y-9.135
N7280G1X6.555Y-8.958
N7290G1X6.487Y-8.761
N7300G1X6.445Y-8.553
N7310G1X6.426Y-8.341
N7320G1X6.427Y-8.145
N7330G1X6.446Y-7.980
N7340G1X6.508Y-7.753
N7350G1X6.621Y-7.484
N7360G1X6.699Y-7.357
N7370G1X6.792Y-7.267
N7380G1X6.903Y-7.212
N7390G1X7.029Y-7.194
N7400G1X7.097Y-7.203
N7410G1X7.202Y-7.243
N7420G1X7.295Y-7.303
N7430G1X7.375Y-7.383
N7440G1X7.442Y-7.482
N7450G1X7.544Y-7.715
N7460G1X7.606Y-7.974
N7470G1X7.630Y-8.248
N7480G1X7.619Y-8.522
N7490G1X7.578Y-8.769
N7500G1X7.513Y-8.964
N7510G1X7.418Y-9.123
N7520G1X7.288Y-9.274
N7530G00Z6.000
N7540G00X7.662Y-9.488
N7550G1Z-0.500F480.0
N7560G1X7.816Y-9.280F1200.0
N7570G1X7.908Y-9.095
N7580G1X7.979Y-8.901
N7590G1X8.028Y-8.697
N7600G1X8.055Y-8.483
N7610G1X8.061Y-8.267
N7620G1X8.046Y-8.055
N7630G1X8.010Y-7.846
N7640G1X7.954Y-7.641
N7650G1X7.807Y-7.334
N7660G1X7.606Y-7.050
N7670G1X7.484Y-6.931
N7680G1X7.345Y-6.846
N7690G1X7.189Y-6.795
N7700G1X7.017Y-6.778
N7710G1X6.832Y-6.803
N7720G1X6.656Y-6.878
N7730G1X6.490Y-6.995
N7740G1X6.349Y-7.143
N7750G1X6.232Y-7.321
N7760G1X6.139Y-7.530
N7770G1X6.071Y-7.755
N7780G1X6.026Y-7.984
N7790G1X6.007Y-8.216
N7800G1X6.012Y-8.451
N7810G1X6.042Y-8.681
N7820G1X6.097Y-8.901
N7830G1X6.177Y-9.110
N7840G1X6.282Y-9.308
N7850G1X6.413Y-9.482
N7860G1X6.570Y-9.617
N7870G1X6.753Y-9.713
N7880G1X6.962Y-9.771
N7890G1X7.095Y-9.782
N7900G1X7.223Y-9.767
N7910G1X7.344Y-9.727
N7920G1X7.460Y-9.661
N7930G1X7.662Y-9.488
N7940G00Z6.000
N7950G00X8.533Y-9.741
N7960G1Z-0.500F480.0
N7970G1X8.776F1200.0
N7980G1X8.794Y-9.730
N7990G1X8.837Y-9.666
N8000G1X8.838Y-9.661
N8010G1X8.472
N8020G1X8.450Y-9.581
N8030G1X8.860
N8040G1X8.862Y-9.576
N8050G1Y-9.501
N8060G1X8.449
N8070G1Y-9.421
N8080G1X8.862
N8090G1Y-9.341
N8100G1X8.449
N8110G1Y-9.261
N8120G1X8.862
N8130G1Y-9.181
N8140G1X8.449
N8150G1Y-9.101
N8160G1X8.862
N8170G1Y-9.021
N8180G1X8.449
N8190G1Y-8.941
N8200G1X8.862
N8210G1Y-8.861
N8220G1X8.449
N8230G1Y-8.781
N8240G1X8.862
N8250G1Y-8.701
N8260G1X8.449
N8270G1Y-8.621
N8280G1X8.862
N8290G1Y-8.541
N8300G1X8.449
N8310G1Y-8.461
N8320G1X8.862
N8330G1Y-8.381
N8340G1X8.449
N8350G1Y-8.301
N8360G1X8.862
N8370G1Y-8.221
N8380G1X8.449
N8390G1Y-8.141
N8400G1X8.862
N8410G1Y-8.061
N8420G1X8.449
N8430G1Y-7.981
N8440G1X8.862
N8450G1Y-7.901
N8460G1X8.449
N8470G1Y-7.821
N8480G1X8.862
N8490G1Y-7.741
N8500G1X8.449
N8510G1Y-7.661
N8520G1X9.315
N8530G1X9.265Y-7.581
N8540G1X8.449
N8550G1Y-7.501
N8560G1X9.215
N8570G1X9.166Y-7.421
N8580G1X8.449
N8590G1Y-7.341
N8600G1X9.116
N8610G1X9.066Y-7.261
N8620G1X8.449
N8630G1Y-7.181
N8640G1X9.016
N8650G1X8.966Y-7.101
N8660G1X8.449
N8670G1Y-7.021
N8680G1X8.917
N8690G1X8.867Y-6.941
N8700G1X8.461
N8710G1X8.467Y-6.920
N8720G1X8.499Y-6.863
N8730G1X8.500Y-6.861
N8740G1X8.813
N8750G1X8.781Y-6.822
N8760G1X8.728Y-6.787
N8770G1X8.697Y-6.781
N8780G1X8.642
N8790G00Z6.000
N8800G00X10.142Y-9.741
N8810G1Z-0.500F480.0
N8820G1X10.391F1200.0
N8830G1X10.435Y-9.702
N8840G1X10.455Y-9.661
N8850G1X10.078
N8860G1X10.028Y-9.581
N8870G1X10.471
N8880G1X10.472Y-9.576
N8890G1Y-9.501
N8900G1X9.978
N8910G1X9.928Y-9.421
N8920G1X10.472
N8930G1Y-9.341
N8940G1X9.878
N8950G1X9.828Y-9.261
N8960G1X10.472
N8970G1Y-9.181
N8980G1X9.778
N8990G1X9.729Y-9.101
N9000G1X10.472
N9010G1Y-9.021
N9020G1X9.679
N9030G1X9.629Y-8.941
N9040G1X10.472
N9050G1Y-8.861
N9060G1X9.579
N9070G1X9.529Y-8.781
N9080G1X10.012
N9090G1X9.963Y-8.701
N9100G1X9.479
N9110G1X9.429Y-8.621
N9120G1X9.913
N9130G1X9.863Y-8.541
N9140G1X9.379
N9150G1X9.329Y-8.461
N9160G1X9.813
N9170G1X9.763Y-8.381
N9180G1X9.280
N9190G1X9.230Y-8.301
N9200G1X9.714
N9210G1X9.664Y-8.221
N9220G1X9.180
N9230G1X9.130Y-8.141
N9240G1X9.614
N9250G1X9.564Y-8.061
N9260G1X9.080
N9270G1X9.030Y-7.981
N9280G1X9.514
N9290G1X9.465Y-7.901
N9300G1X8.980
N9310G1X8.930Y-7.821
N9320G1X9.415
N9330G1X9.365Y-7.741
N9340G1X8.880
N9350G00Z6.000
N9360G00X10.059Y-8.781
N9370G1Z-0.500F480.0
N9380G1X10.472F1200.0
N9390G1Y-8.701
N9400G1X10.059
N9410G1Y-8.621
N9420G1X10.472
N9430G1Y-8.541
N9440G1X10.059
N9450G1Y-8.461
N9460G1X10.472
N9470G1Y-8.381
N9480G1X10.059
N9490G1Y-8.301
N9500G1X10.472
N9510G1Y-8.221
N9520G1X10.059
N9530G1Y-8.141
N9540G1X10.472
N9550G1Y-8.061
N9560G1X10.059
N9570G1Y-7.981
N9580G1X10.472
N9590G1Y-7.901
N9600G1X10.059
N9610G1Y-7.821
N9620G1X10.472
N9630G1Y-7.741
N9640G1X10.059
N9650G1Y-7.661
N9660G1X10.472
N9670G1Y-7.581
N9680G1X10.059
N9690G1Y-7.501
N9700G1X10.472
N9710G1Y-7.421
N9720G1X10.059
N9730G1Y-7.341
N9740G1X10.472
N9750G1Y-7.261
N9760G1X10.059
N9770G1Y-7.181
N9780G1X10.472
N9790G1Y-7.101
N9800G1X10.059
N9810G1Y-7.021
N9820G1X10.472
N9830G1Y-6.989
N9840G1X10.462Y-6.941
N9850G1X10.071
N9860G1X10.082Y-6.898
N9870G1X10.107Y-6.861
N9880G1X10.431
N9890G00Z6.000
N9900G00X8.449Y-9.576
N9910G1Z-0.500F480.0
N9920G1X8.473Y-9.666F1200.0
N9930G1X8.516Y-9.730
N9940G1X8.576Y-9.769
N9950G1X8.655Y-9.781
N9960G1X8.733Y-9.769
N9970G1X8.794Y-9.730
N9980G1X8.837Y-9.666
N9990G1X8.862Y-9.576
N10000G1Y-7.711
N10010G1X10.092Y-9.685
N10020G1X10.138Y-9.739
N10030G1X10.191Y-9.771
N10040G1X10.253Y-9.782
N10050G1X10.323Y-9.772
N10060G1X10.388Y-9.744
N10070G1X10.435Y-9.702
N10080G1X10.462Y-9.646
N10090G1X10.472Y-9.576
N10100G1Y-6.989
N10110G1X10.454Y-6.899
N10120G1X10.414Y-6.835
N10130G1X10.354Y-6.796
N10140G1X10.272Y-6.782
N10150G1X10.189Y-6.794
N10160G1X10.126Y-6.833
N10170G1X10.082Y-6.898
N10180G1X10.059Y-6.989
N10190G1Y-8.856
N10200G1X8.828Y-6.879
N10210G1X8.781Y-6.822
N10220G1X8.728Y-6.787
N10230G1X8.669Y-6.776
N10240G1X8.605Y-6.789
N10250G1X8.545Y-6.819
N10260G1X8.499Y-6.863
N10270G1X8.467Y-6.920
N10280G1X8.449Y-6.989
N10290G1Y-9.576
N10300G00Z6.000
N10310G00X10.948Y-5.209
N10320G1Z-0.500F480.0
N10330G1X10.668F1200.0
N10340G1X10.646Y-5.193
N10350G1X10.609Y-5.136
N10360G1X10.607Y-5.129
N10370G1X11.001
N10380G1X11.005Y-5.121
N10390G1X11.029Y-5.049
N10400G1X10.601
N10410G1X10.611Y-4.994
N10420G1X10.619Y-4.969
N10430G1X11.054
N10440G1X11.080Y-4.889
N10450G1X10.645
N10460G1X10.670Y-4.809
N10470G1X11.105
N10480G1X11.131Y-4.729
N10490G1X10.696
N10500G1X10.721Y-4.649
N10510G1X11.156
N10520G1X11.182Y-4.569
N10530G1X10.747
N10540G1X10.772Y-4.489
N10550G1X11.207
N10560G1X11.233Y-4.409
N10570G1X10.798
N10580G1X10.823Y-4.329
N10590G1X11.258
N10600G1X11.284Y-4.249
N10610G1X10.848
N10620G1X10.874Y-4.169
N10630G1X11.309
N10640G1X11.335Y-4.089
N10650G1X10.899
N10660G1X10.925Y-4.009
N10670G1X11.360
N10680G1X11.386Y-3.929
N10690G1X10.950
N10700G1X10.976Y-3.849
N10710G1X11.411
N10720G1X11.437Y-3.769
N10730G1X11.001
N10740G1X11.027Y-3.689
N10750G1X11.462
N10760G1X11.488Y-3.609
N10770G1X11.052
N10780G1X11.077Y-3.529
N10790G1X11.513
N10800G1X11.539Y-3.449
N10810G1X11.103
N10820G1X11.128Y-3.369
N10830G1X11.564
N10840G1X11.590Y-3.289
N10850G1X11.154
N10860G1X11.179Y-3.209
N10870G1X11.615
N10880G1X11.641Y-3.129
N10890G1X11.205
N10900G1X11.230Y-3.049
N10910G1X11.666
N10920G1X11.692Y-2.969
N10930G1X11.256
N10940G1X11.281Y-2.889
N10950G1X11.717
N10960G1X11.743Y-2.809
N10970G1X11.307
N10980G1X11.332Y-2.729
N10990G1X11.768
N11000G1X11.794Y-2.649
N11010G1X10.271
N11020G1X10.225Y-2.613
N11030G1X10.200Y-2.569
N11040G1X11.819
N11050G1X11.830Y-2.534
N11060G1X11.835Y-2.489
N11070G1X10.178
N11080G1X10.175Y-2.472
N11090G1X10.186Y-2.409
N11100G1X11.827
N11110G1X11.800Y-2.350
N11120G1X11.775Y-2.329
N11130G1X10.227
N11140G00Z6.000
N11150G00X10.288Y-2.281
N11160G1Z-0.500F480.0
N11170G1X10.225Y-2.330F1200.0
N11180G1X10.187Y-2.398
N11190G1X10.175Y-2.472
N11200G1X10.187Y-2.546
N11210G1X10.225Y-2.613
N11220G1X10.288Y-2.662
N11230G1X10.377Y-2.678
N11240G1X11.348
N11250G1X10.611Y-4.994
N11260G1X10.597Y-5.070
N11270G1X10.609Y-5.136
N11280G1X10.646Y-5.193
N11290G1X10.709Y-5.239
N11300G1X10.783Y-5.266
N11310G1X10.850Y-5.267
N11320G1X10.912Y-5.241
N11330G1X10.969Y-5.189
N11340G1X11.005Y-5.121
N11350G1X11.830Y-2.534
N11360G1X11.840Y-2.438
N11370G1X11.800Y-2.350
N11380G1X11.725Y-2.286
N11390G1X11.631Y-2.265
N11400G1X10.377
N11410G1X10.288Y-2.281
N11420G00Z6.000
N11430G00X21.256Y-5.203
N11440G1Z-0.500F480.0
N11450G1X22.041F1200.0
N11460G1X22.150Y-5.161
N11470G1X22.204Y-5.123
N11480G1X20.994
N11490G1X20.967Y-5.112
N11500G1X20.883Y-5.043
N11510G1X22.316
N11520G1X22.387Y-4.963
N11530G1X20.809
N11540G1X20.750Y-4.883
N11550G1X22.451
N11560G1X22.493Y-4.803
N11570G1X21.951
N11580G1X21.998Y-4.782
N11590G1X22.058Y-4.723
N11600G1X22.535
N11610G1X22.536Y-4.723
N11620G1X22.555Y-4.643
N11630G1X22.115
N11640G1X22.150Y-4.579
N11650G1X22.154Y-4.563
N11660G1X22.575
N11670G1X22.582Y-4.531
N11680G1X22.584Y-4.483
N11690G1X22.172
N11700G1X22.177Y-4.457
N11710G1X22.172Y-4.403
N11720G1X22.587
N11730G1X22.587Y-4.394
N11740G1X22.578Y-4.323
N11750G1X22.162
N11760G1X22.130Y-4.243
N11770G1X22.566
N11780G1X22.541Y-4.163
N11790G1X22.078
N11800G1X22.037Y-4.114
N11810G1X21.989Y-4.083
N11820G1X22.513
N11830G1X22.470Y-4.003
N11840G1X21.832
N11850G1X21.650Y-3.923
N11860G1X22.416
N11870G1X22.348Y-3.843
N11880G1X21.467
N11890G1X21.285Y-3.763
N11900G1X22.251
N11910G1X22.212Y-3.733
N11920G1X22.188Y-3.719
N11930G1X22.165Y-3.705
N11940G1X22.141Y-3.692
N11950G1X22.125Y-3.683
N11960G1X21.145
N11970G1X21.075Y-3.638
N11980G1X21.039Y-3.603
N11990G1X21.945
N12000G1X21.764Y-3.523
N12010G1X20.957
N12020G1X20.956Y-3.523
N12030G1X20.905Y-3.443
N12040G1X21.583
N12050G1X21.415Y-3.369
N12060G1X21.401Y-3.363
N12070G1X20.860
N12080G1X20.830Y-3.283
N12090G1X21.291
N12100G1X21.248Y-3.228
N12110G1X21.237Y-3.203
N12120G1X20.808
N12130G1X20.795Y-3.123
N12140G1X21.208
N12150G1X21.200Y-3.084
N12160G1X21.201Y-3.043
N12170G1X20.785
N12180G1X20.792Y-2.963
N12190G1X21.204
N12200G1X21.204Y-2.958
N12210G1X21.236Y-2.883
N12220G1X20.798
N12230G1X20.798Y-2.880
N12240G1X20.824Y-2.803
N12250G1X21.285
N12260G1X21.310Y-2.772
N12270G1X21.373Y-2.723
N12280G1X20.851
N12290G1X20.853Y-2.717
N12300G1X20.899Y-2.643
N12310G1X22.344
N12320G1X22.311Y-2.583
N12330G1X22.294Y-2.563
N12340G1X20.949
N12350G1X20.950Y-2.563
N12360G1X21.027Y-2.483
N12370G1X22.223
N12380G1X22.192Y-2.448
N12390G1X22.121Y-2.403
N12400G1X21.122
N12410G1X21.222Y-2.339
N12420G1X21.268Y-2.323
N12430G1X21.961
N12440G00Z6.000
N12450G00X21.317Y-4.803
N12460G1Z-0.500F480.0
N12470G1X20.713F1200.0
N12480G1X20.677Y-4.723
N12490G1X21.168
N12500G1X21.120Y-4.668
N12510G1X21.108Y-4.643
N12520G1X20.652
N12530G1X20.643Y-4.607
N12540G1X20.634Y-4.563
N12550G1X21.069
N12560G1X21.065Y-4.557
N12570G1X21.044Y-4.483
N12580G1X20.623
N12590G1X20.624Y-4.405
N12600G1X20.625Y-4.403
N12610G1X21.020
N12620G1X21.019Y-4.401
N12630G1X20.969Y-4.323
N12640G1X20.672
N12650G00Z6.000
N12660G00X22.151Y-3.123
N12670G1Z-0.500F480.0
N12680G1X22.457F1200.0
N12690G1X22.487Y-3.078
N12700G1X22.498Y-3.043
N12710G1X22.099
N12720G1X22.061Y-2.963
N12730G1X22.503
N12740G1X22.502Y-2.947
N12750G1X22.489Y-2.909
N12760G1X22.475Y-2.883
N12770G1X22.021
N12780G1X21.981Y-2.820
N12790G1X21.963Y-2.803
N12800G1X22.431
N12810G1X22.388Y-2.723
N12820G1X21.856
N12830G00Z6.000
N12840G00X21.385Y-2.283
N12850G1Z-0.500F480.0
N12860G1X21.222Y-2.339F1200.0
N12870G1X21.077Y-2.432
N12880G1X20.950Y-2.563
N12890G1X20.853Y-2.717
N12900G1X20.798Y-2.880
N12910G1X20.785Y-3.053
N12920G1X20.813Y-3.236
N12930G1X20.869Y-3.389
N12940G1X20.956Y-3.523
N12950G1X21.075Y-3.638
N12960G1X21.226Y-3.736
N12970G1X21.248Y-3.747
N12980G1X21.926Y-4.045
N12990G1X22.037Y-4.114
N13000G1X22.117Y-4.211
N13010G1X22.165Y-4.330
N13020G1X22.177Y-4.457
N13030G1X22.150Y-4.579
N13040G1X22.086Y-4.697
N13050G1X21.998Y-4.782
N13060G1X21.889Y-4.832
N13070G1X21.756Y-4.849
N13080G1X21.478Y-4.838
N13090G1X21.269Y-4.793
N13100G1X21.188Y-4.747
N13110G1X21.120Y-4.668
N13120G1X21.065Y-4.557
N13130G1X21.024Y-4.414
N13140G1X21.019Y-4.401
N13150G1X20.956Y-4.305
N13160G1X20.858Y-4.257
N13170G1X20.757Y-4.263
N13180G1X20.674Y-4.319
N13190G1X20.624Y-4.405
N13200G1X20.622Y-4.505
N13210G1X20.643Y-4.607
N13220G1X20.669Y-4.707
N13230G1X20.746Y-4.878
N13240G1X20.845Y-5.013
N13250G1X20.967Y-5.112
N13260G1X21.110Y-5.173
N13270G1X21.427Y-5.239
N13280G1X21.759Y-5.261
N13290G1X21.958Y-5.236
N13300G1X22.150Y-5.161
N13310G1X22.311Y-5.049
N13320G1X22.443Y-4.899
N13330G1X22.536Y-4.723
N13340G1X22.582Y-4.531
N13350G1X22.587Y-4.394
N13360G1X22.571Y-4.260
N13370G1X22.522Y-4.101
N13380G1X22.447Y-3.960
N13390G1X22.343Y-3.837
N13400G1X22.212Y-3.733
N13410G1X22.188Y-3.719
N13420G1X22.165Y-3.705
N13430G1X22.141Y-3.692
N13440G1X22.115Y-3.678
N13450G1X22.092Y-3.668
N13460G1X21.415Y-3.369
N13470G1X21.397Y-3.362
N13480G1X21.381Y-3.355
N13490G1X21.365Y-3.345
N13500G1X21.352Y-3.336
N13510G1X21.293Y-3.286
N13520G1X21.248Y-3.228
N13530G1X21.217Y-3.160
N13540G1X21.200Y-3.084
N13550G1X21.204Y-2.958
N13560G1X21.252Y-2.845
N13570G1X21.310Y-2.772
N13580G1X21.379Y-2.719
N13590G1X21.460Y-2.687
N13600G1X21.553Y-2.675
N13610G1X21.687Y-2.679
N13620G1X21.783Y-2.695
N13630G1X21.849Y-2.720
N13640G1X21.911Y-2.754
N13650G1X21.981Y-2.820
N13660G1X22.032Y-2.901
N13670G1X22.114Y-3.075
N13680G1X22.173Y-3.153
N13690G1X22.253Y-3.192
N13700G1X22.340Y-3.195
N13710G1X22.420Y-3.160
N13720G1X22.451Y-3.134
N13730G1X22.487Y-3.078
N13740G1X22.506Y-3.016
N13750G1X22.502Y-2.947
N13760G1X22.489Y-2.909
N13770G1X22.311Y-2.583
N13780G1X22.192Y-2.448
N13790G1X22.029Y-2.345
N13800G1X21.881Y-2.298
N13810G1X21.728Y-2.269
N13820G1X21.567Y-2.265
N13830G1X21.385Y-2.283
N13840G00Z6.000
N13850G00X23.522Y-5.203
N13860G1Z-0.500F480.0
N13870G1X23.804F1200.0
N13880G1X23.822Y-5.186
N13890G1X23.857Y-5.123
N13900G1X23.470
N13910G1X23.457Y-5.097
N13920G1X23.447Y-5.043
N13930G1X23.881
N13940G1X23.905Y-4.963
N13950G1X23.431
N13960G1X23.415Y-4.883
N13970G1X23.928
N13980G1X23.951Y-4.803
N13990G1X23.400
N14000G1X23.384Y-4.723
N14010G1X23.974
N14020G1X23.998Y-4.643
N14030G1X23.368
N14040G1X23.352Y-4.563
N14050G1X24.021
N14060G1X24.044Y-4.483
N14070G1X23.337
N14080G1X23.321Y-4.403
N14090G1X24.067
N14100G1X24.091Y-4.323
N14110G1X23.305
N14120G1X23.290Y-4.243
N14130G1X24.114
N14140G1X24.137Y-4.163
N14150G1X23.706
N14160G1X23.729Y-4.083
N14170G1X24.160
N14180G1X24.184Y-4.003
N14190G1X23.752
N14200G1X23.776Y-3.923
N14210G1X24.207
N14220G1X24.230Y-3.843
N14230G1X23.799
N14240G1X23.823Y-3.763
N14250G1X24.253
N14260G1X24.277Y-3.683
N14270G1X23.846
N14280G1X23.869Y-3.603
N14290G1X24.300
N14300G1X24.323Y-3.523
N14310G1X23.893
N14320G1X23.916Y-3.443
N14330G1X24.347
N14340G1X24.370Y-3.363
N14350G1X23.939
N14360G1X23.963Y-3.283
N14370G1X24.393
N14380G1X24.409Y-3.227
N14390G1X24.426Y-3.283
N14400G1X24.858
N14410G1X24.881Y-3.363
N14420G1X24.449
N14430G1X24.472Y-3.443
N14440G1X24.904
N14450G1X24.928Y-3.523
N14460G1X24.496
N14470G1X24.519Y-3.603
N14480G1X24.951
N14490G1X24.975Y-3.683
N14500G1X24.543
N14510G1X24.566Y-3.763
N14520G1X24.998
N14530G1X25.021Y-3.843
N14540G1X24.590
N14550G1X24.613Y-3.923
N14560G1X25.045
N14570G1X25.068Y-4.003
N14580G1X24.637
N14590G1X24.660Y-4.083
N14600G1X25.092
N14610G1X25.115Y-4.163
N14620G1X24.683
N14630G1X24.707Y-4.243
N14640G1X25.530
N14650G1X25.514Y-4.323
N14660G1X24.730
N14670G1X24.754Y-4.403
N14680G1X25.499
N14690G1X25.483Y-4.483
N14700G1X24.777
N14710G1X24.801Y-4.563
N14720G1X25.467
N14730G1X25.452Y-4.643
N14740G1X24.824
N14750G1X24.848Y-4.723
N14760G1X25.436
N14770G1X25.420Y-4.803
N14780G1X24.871
N14790G1X24.894Y-4.883
N14800G1X25.405
N14810G1X25.389Y-4.963
N14820G1X24.918
N14830G1X24.941Y-5.043
N14840G1X25.373
N14850G1X25.363Y-5.097
N14860G1X25.352Y-5.123
N14870G1X24.966
N14880G1X25.000Y-5.184
N14890G1X25.019Y-5.203
N14900G1X25.305
N14910G00Z6.000
N14920G00X23.694Y-4.163
N14930G1Z-0.500F480.0
N14940G1X23.274F1200.0
N14950G1X23.258Y-4.083
N14960G1X23.679
N14970G1X23.663Y-4.003
N14980G1X23.243
N14990G1X23.227Y-3.923
N15000G1X23.648
N15010G1X23.632Y-3.843
N15020G1X23.211
N15030G1X23.196Y-3.763
N15040G1X23.617
N15050G1X23.602Y-3.683
N15060G1X23.180
N15070G1X23.164Y-3.603
N15080G1X23.586
N15090G1X23.571Y-3.523
N15100G1X23.149
N15110G1X23.133Y-3.443
N15120G1X23.555
N15130G1X23.540Y-3.363
N15140G1X23.117
N15150G1X23.102Y-3.283
N15160G1X23.524
N15170G1X23.509Y-3.203
N15180G1X23.086
N15190G1X23.070Y-3.123
N15200G1X23.494
N15210G1X23.478Y-3.043
N15220G1X23.055
N15230G1X23.039Y-2.963
N15240G1X23.463
N15250G1X23.447Y-2.883
N15260G1X23.023
N15270G1X23.008Y-2.803
N15280G1X23.432
N15290G1X23.416Y-2.723
N15300G1X22.992
N15310G1X22.976Y-2.643
N15320G1X23.401
N15330G1X23.386Y-2.563
N15340G1X22.961
N15350G1X22.950Y-2.509
N15360G1X22.953Y-2.483
N15370G1X23.370
N15380G1X23.360Y-2.432
N15390G1X23.345Y-2.403
N15400G1X22.966
N15410G1X22.992Y-2.344
N15420G1X23.015Y-2.323
N15430G1X23.291
N15440G00Z6.000
N15450G00X25.546Y-4.163
N15460G1Z-0.500F480.0
N15470G1X25.125F1200.0
N15480G1X25.141Y-4.083
N15490G1X25.561
N15500G1X25.577Y-4.003
N15510G1X25.157
N15520G1X25.172Y-3.923
N15530G1X25.593
N15540G1X25.609Y-3.843
N15550G1X25.188
N15560G1X25.204Y-3.763
N15570G1X25.624
N15580G1X25.640Y-3.683
N15590G1X25.219
N15600G1X25.235Y-3.603
N15610G1X25.656
N15620G1X25.671Y-3.523
N15630G1X25.250
N15640G1X25.266Y-3.443
N15650G1X25.687
N15660G1X25.703Y-3.363
N15670G1X25.282
N15680G1X25.297Y-3.283
N15690G1X25.718
N15700G1X25.734Y-3.203
N15710G1X25.313
N15720G1X25.329Y-3.123
N15730G1X25.750
N15740G1X25.765Y-3.043
N15750G1X25.344
N15760G1X25.360Y-2.963
N15770G1X25.781
N15780G1X25.797Y-2.883
N15790G1X25.376
N15800G1X25.391Y-2.803
N15810G1X25.812
N15820G1X25.828Y-2.723
N15830G1X25.407
N15840G1X25.423Y-2.643
N15850G1X25.844
N15860G1X25.859Y-2.563
N15870G1X25.438
N15880G1X25.454Y-2.483
N15890G1X25.868
N15900G1X25.865Y-2.419
N15910G1X25.858Y-2.403
N15920G1X25.477
N15930G1X25.502Y-2.348
N15940G1X25.526Y-2.323
N15950G1X25.808
N15960G00Z6.000
N15970G00X24.834Y-3.203
N15980G1Z-0.500F480.0
N15990G1X23.986F1200.0
N16000G1X24.010Y-3.123
N16010G1X24.811
N16020G1X24.787Y-3.043
N16030G1X24.033
N16040G1X24.056Y-2.963
N16050G1X24.764
N16060G1X24.741Y-2.883
N16070G1X24.080
N16080G1X24.103Y-2.803
N16090G1X24.717
N16100G1X24.694Y-2.723
N16110G1X24.126
N16120G1X24.150Y-2.643
N16130G1X24.670
N16140G1X24.647Y-2.563
N16150G1X24.173
N16160G1X24.197Y-2.483
N16170G1X24.623
N16180G1X24.608Y-2.432
N16190G1X24.594Y-2.403
N16200G1X24.228
N16210G1X24.248Y-2.368
N16220G1X24.292Y-2.323
N16230G1X24.536
N16240G00Z6.000
N16250G00X22.950Y-2.509
N16260G1Z-0.500F480.0
N16270G1X23.457Y-5.097F1200.0
N16280G1X23.491Y-5.166
N16290G1X23.535Y-5.218
N16300G1X23.589Y-5.251
N16310G1X23.653Y-5.265
N16320G1X23.718Y-5.260
N16330G1X23.775Y-5.233
N16340G1X23.822Y-5.186
N16350G1X23.860Y-5.117
N16360G1X24.409Y-3.227
N16370G1X24.963Y-5.117
N16380G1X25.000Y-5.184
N16390G1X25.047Y-5.231
N16400G1X25.105Y-5.258
N16410G1X25.172Y-5.265
N16420G1X25.238Y-5.252
N16430G1X25.292Y-5.220
N16440G1X25.333Y-5.168
N16450G1X25.363Y-5.097
N16460G1X25.870Y-2.509
N16470G1X25.865Y-2.419
N16480G1X25.836Y-2.349
N16490G1X25.783Y-2.299
N16500G1X25.705Y-2.271
N16510G1X25.623Y-2.267
N16520G1X25.555Y-2.293
N16530G1X25.502Y-2.348
N16540G1X25.464Y-2.432
N16550G1X25.121Y-4.184
N16560G1X24.608Y-2.432
N16570G1X24.575Y-2.365
N16580G1X24.531Y-2.318
N16590G1X24.477Y-2.290
N16600G1X24.413Y-2.282
N16610G1X24.348Y-2.293
N16620G1X24.293Y-2.322
N16630G1X24.248Y-2.368
N16640G1X24.211Y-2.432
N16650G1X23.699Y-4.187
N16660G1X23.360Y-2.432
N16670G1X23.317Y-2.349
N16680G1X23.261Y-2.294
N16690G1X23.195Y-2.267
N16700G1X23.117Y-2.268
N16710G1X23.044Y-2.295
N16720G1X22.992Y-2.344
N16730G1X22.961Y-2.416
N16740G1X22.950Y-2.509
N16750G00Z6.000
N16760G00X22.888Y-9.751
N16770G1Z-0.500F480.0
N16780G1X23.273F1200.0
N16790G1X23.344Y-9.727
N16800G1X23.443Y-9.671
N16810G1X22.672
N16820G1X22.570Y-9.617
N16830G1X22.540Y-9.591
N16840G1X23.542
N16850G1X23.635Y-9.511
N16860G1X22.447
N16870G1X22.413Y-9.482
N16880G1X22.374Y-9.431
N16890G1X23.704
N16900G1X23.764Y-9.351
N16910G1X23.167
N16920G1X23.210Y-9.334
N16930G1X23.288Y-9.274
N16940G1X23.291Y-9.271
N16950G1X23.821
N16960G1X23.861Y-9.191
N16970G1X23.360
N16980G1X23.418Y-9.123
N16990G1X23.426Y-9.111
N17000G1X23.901
N17010G1X23.908Y-9.095
N17020G1X23.932Y-9.031
N17030G1X23.473
N17040G1X23.513Y-8.964
N17050G1X23.517Y-8.951
N17060G1X23.961
N17070G1X23.979Y-8.901
N17080G1X23.986Y-8.871
N17090G1X23.544
N17100G1X23.571Y-8.791
N17110G1X24.006
N17120G1X24.025Y-8.711
N17130G1X23.588
N17140G1X23.601Y-8.631
N17150G1X24.037
N17160G1X24.047Y-8.551
N17170G1X23.614
N17180G1X23.619Y-8.522
N17190G1X23.621Y-8.471
N17200G1X24.056
N17210G1X24.058Y-8.391
N17220G1X23.624
N17230G1X23.627Y-8.311
N17240G1X24.060
N17250G1X24.061Y-8.267
N17260G1X24.059Y-8.231
N17270G1X23.628
N17280G1X23.621Y-8.151
N17290G1X24.053
N17300G1X24.048Y-8.071
N17310G1X23.614
N17320G1X23.607Y-7.991
N17330G1X24.035
N17340G1X24.022Y-7.911
N17350G1X23.590
N17360G1X23.571Y-7.831
N17370G1X24.006
N17380G1X23.984Y-7.751
N17390G1X23.552
N17400G1X23.544Y-7.715
N17410G1X23.525Y-7.671
N17420G1X23.962
N17430G1X23.954Y-7.641
N17440G1X23.930Y-7.591
N17450G1X23.490
N17460G1X23.455Y-7.511
N17470G1X23.891
N17480G1X23.853Y-7.431
N17490G1X23.407
N17500G1X23.375Y-7.383
N17510G1X23.343Y-7.351
N17520G1X23.815
N17530G1X23.807Y-7.334
N17540G1X23.763Y-7.271
N17550G1X23.245
N17560G1X23.202Y-7.243
N17570G1X23.097Y-7.203
N17580G1X23.029Y-7.194
N17590G1X22.903Y-7.212
N17600G1X22.792Y-7.267
N17610G1X22.789Y-7.271
N17620G1X22.265
N17630G1X22.232Y-7.321
N17640G1X22.219Y-7.351
N17650G1X22.706
N17660G1X22.699Y-7.357
N17670G1X22.654Y-7.431
N17680G1X22.183
N17690G1X22.148Y-7.511
N17700G1X22.610
N17710G1X22.577Y-7.591
N17720G1X22.121
N17730G1X22.096Y-7.671
N17740G1X22.543
N17750G1X22.509Y-7.751
N17760G1X22.072
N17770G1X22.071Y-7.755
N17780G1X22.056Y-7.831
N17790G1X22.487
N17800G1X22.465Y-7.911
N17810G1X22.041
N17820G1X22.026Y-7.984
N17830G1X22.026Y-7.991
N17840G1X22.445
N17850G1X22.436Y-8.071
N17860G1X22.019
N17870G1X22.012Y-8.151
N17880G1X22.427
N17890G1X22.426Y-8.231
N17900G1X22.007
N17910G1X22.009Y-8.311
N17920G1X22.426
N17930G1X22.426Y-8.341
N17940G1X22.430Y-8.391
N17950G1X22.010
N17960G1X22.012Y-8.451
N17970G1X22.014Y-8.471
N17980G1X22.437
N17990G1X22.444Y-8.551
N18000G1X22.025
N18010G1X22.035Y-8.631
N18020G1X22.461
N18030G1X22.477Y-8.711
N18040G1X22.049
N18050G1X22.069Y-8.791
N18060G1X22.497
N18070G1X22.525Y-8.871
N18080G1X22.089
N18090G1X22.097Y-8.901
N18100G1X22.115Y-8.951
N18110G1X22.552
N18120G1X22.555Y-8.958
N18130G1X22.594Y-9.031
N18140G1X22.146
N18150G1X22.177Y-9.110
N18160G1X22.177Y-9.111
N18170G1X22.637
N18180G1X22.650Y-9.135
N18190G1X22.693Y-9.191
N18200G1X22.219
N18210G1X22.262Y-9.271
N18220G1X22.772
N18230G1X22.775Y-9.273
N18240G1X22.850Y-9.321
N18250G1X22.923Y-9.351
N18260G1X22.314
N18270G00Z6.000
N18280G00X22.318Y-7.191
N18290G1Z-0.500F480.0
N18300G1X23.706F1200.0
N18310G1X23.649Y-7.111
N18320G1X22.380
N18330G1X22.456Y-7.031
N18340G1X23.586
N18350G1X23.504Y-6.951
N18360G1X22.553
N18370G1X22.656Y-6.878
N18380G1X22.673Y-6.871
N18390G1X23.385
N18400G1X23.345Y-6.846
N18410G1X23.189Y-6.795
N18420G1X23.142Y-6.791
N18430G1X22.926
N18440G00Z6.000
N18450G00X23.288Y-9.274
N18460G1Z-0.500F480.0
N18470G1X23.210Y-9.334F1200.0
N18480G1X23.125Y-9.367
N18490G1X23.033Y-9.374
N18500G1X22.934Y-9.355
N18510G1X22.850Y-9.321
N18520G1X22.775Y-9.273
N18530G1X22.708Y-9.211
N18540G1X22.650Y-9.135
N18550G1X22.555Y-8.958
N18560G1X22.487Y-8.761
N18570G1X22.445Y-8.553
N18580G1X22.426Y-8.341
N18590G1X22.427Y-8.145
N18600G1X22.446Y-7.980
N18610G1X22.508Y-7.753
N18620G1X22.621Y-7.484
N18630G1X22.699Y-7.357
N18640G1X22.792Y-7.267
N18650G1X22.903Y-7.212
N18660G1X23.029Y-7.194
N18670G1X23.097Y-7.203
N18680G1X23.202Y-7.243
N18690G1X23.295Y-7.303
N18700G1X23.375Y-7.383
N18710G1X23.442Y-7.482
N18720G1X23.544Y-7.715
N18730G1X23.606Y-7.974
N18740G1X23.630Y-8.248
N18750G1X23.619Y-8.522
N18760G1X23.578Y-8.769
N18770G1X23.513Y-8.964
N18780G1X23.418Y-9.123
N18790G1X23.288Y-9.274
N18800G00Z6.000
N18810G00X23.662Y-9.488
N18820G1Z-0.500F480.0
N18830G1X23.816Y-9.280F1200.0
N18840G1X23.908Y-9.095
N18850G1X23.979Y-8.901
N18860G1X24.028Y-8.697
N18870G1X24.055Y-8.483
N18880G1X24.061Y-8.267
N18890G1X24.046Y-8.055
N18900G1X24.010Y-7.846
N18910G1X23.954Y-7.641
N18920G1X23.807Y-7.334
N18930G1X23.606Y-7.050
N18940G1X23.484Y-6.931
N18950G1X23.345Y-6.846
N18960G1X23.189Y-6.795
N18970G1X23.017Y-6.778
N18980G1X22.832Y-6.803
N18990G1X22.656Y-6.878
N19000G1X22.490Y-6.995
N19010G1X22.349Y-7.143
N19020G1X22.232Y-7.321
N19030G1X22.139Y-7.530
N19040G1X22.071Y-7.755
N19050G1X22.026Y-7.984
N19060G1X22.007Y-8.216
N19070G1X22.012Y-8.451
N19080G1X22.042Y-8.681
N19090G1X22.097Y-8.901
N19100G1X22.177Y-9.110
N19110G1X22.282Y-9.308
N19120G1X22.413Y-9.482
N19130G1X22.570Y-9.617
N19140G1X22.753Y-9.713
N19150G1X22.962Y-9.771
N19160G1X23.095Y-9.782
N19170G1X23.223Y-9.767
N19180G1X23.344Y-9.727
N19190G1X23.460Y-9.661
N19200G1X23.662Y-9.488
N19210G00Z6.000
N19220G00X24.533Y-9.741
N19230G1Z-0.500F480.0
N19240G1X24.776F1200.0
N19250G1X24.794Y-9.730
N19260G1X24.837Y-9.666
N19270G1X24.838Y-9.661
N19280G1X24.472
N19290G1X24.450Y-9.581
N19300G1X24.860
N19310G1X24.862Y-9.576
N19320G1Y-9.501
N19330G1X24.449
N19340G1Y-9.421
N19350G1X24.862
N19360G1Y-9.341
N19370G1X24.449
N19380G1Y-9.261
N19390G1X24.862
N19400G1Y-9.181
N19410G1X24.449
N19420G1Y-9.101
N19430G1X24.862
N19440G1Y-9.021
N19450G1X24.449
N19460G1Y-8.941
N19470G1X24.862
N19480G1Y-8.861
N19490G1X24.449
N19500G1Y-8.781
N19510G1X24.862
N19520G1Y-8.701
N19530G1X24.449
N19540G1Y-8.621
N19550G1X24.862
N19560G1Y-8.541
N19570G1X24.449
N19580G1Y-8.461
N19590G1X24.862
N19600G1Y-8.381
N19610G1X24.449
N19620G1Y-8.301
N19630G1X24.862
N19640G1Y-8.221
N19650G1X24.449
N19660G1Y-8.141
N19670G1X24.862
N19680G1Y-8.061
N19690G1X24.449
N19700G1Y-7.981
N19710G1X24.862
N19720G1Y-7.901
N19730G1X24.449
N19740G1Y-7.821
N19750G1X24.862
N19760G1Y-7.741
N19770G1X24.449
N19780G1Y-7.661
N19790G1X25.315
N19800G1X25.265Y-7.581
N19810G1X24.449
N19820G1Y-7.501
N19830G1X25.215
N19840G1X25.166Y-7.421
N19850G1X24.449
N19860G1Y-7.341
N19870G1X25.116
N19880G1X25.066Y-7.261
N19890G1X24.449
N19900G1Y-7.181
N19910G1X25.016
N19920G1X24.966Y-7.101
N19930G1X24.449
N19940G1Y-7.021
N19950G1X24.917
N19960G1X24.867Y-6.941
N19970G1X24.461
N19980G1X24.467Y-6.920
N19990G1X24.499Y-6.863
N20000G1X24.500Y-6.861
N20010G1X24.813
N20020G1X24.781Y-6.822
N20030G1X24.728Y-6.787
N20040G1X24.697Y-6.781
N20050G1X24.642
N20060G00Z6.000
N20070G00X26.142Y-9.741
N20080G1Z-0.500F480.0
N20090G1X26.391F1200.0
N20100G1X26.435Y-9.702
N20110G1X26.455Y-9.661
N20120G1X26.078
N20130G1X26.028Y-9.581
N20140G1X26.471
N20150G1X26.472Y-9.576
N20160G1Y-9.501
N20170G1X25.978
N20180G1X25.928Y-9.421
N20190G1X26.472
N20200G1Y-9.341
N20210G1X25.878
N20220G1X25.828Y-9.261
N20230G1X26.472
N20240G1Y-9.181
N20250G1X25.778
N20260G1X25.729Y-9.101
N20270G1X26.472
N20280G1Y-9.021
N20290G1X25.679
N20300G1X25.629Y-8.941
N20310G1X26.472
N20320G1Y-8.861
N20330G1X25.579
N20340G1X25.529Y-8.781
N20350G1X26.012
N20360G1X25.963Y-8.701
N20370G1X25.479
N20380G1X25.429Y-8.621
N20390G1X25.913
N20400G1X25.863Y-8.541
N20410G1X25.379
N20420G1X25.329Y-8.461
N20430G1X25.813
N20440G1X25.763Y-8.381
N20450G1X25.280
N20460G1X25.230Y-8.301
N20470G1X25.714
N20480G1X25.664Y-8.221
N20490G1X25.180
N20500G1X25.130Y-8.141
N20510G1X25.614
N20520G1X25.564Y-8.061
N20530G1X25.080
N20540G1X25.030Y-7.981
N20550G1X25.514
N20560G1X25.465Y-7.901
N20570G1X24.980
N20580G1X24.930Y-7.821
N20590G1X25.415
N20600G1X25.365Y-7.741
N20610G1X24.880
N20620G00Z6.000
N20630G00X26.059Y-8.781
N20640G1Z-0.500F480.0
N20650G1X26.472F1200.0
N20660G1Y-8.701
N20670G1X26.059
N20680G1Y-8.621
N20690G1X26.472
N20700G1Y-8.541
N20710G1X26.059
N20720G1Y-8.461
N20730G1X26.472
N20740G1Y-8.381
N20750G1X26.059
N20760G1Y-8.301
N20770G1X26.472
N20780G1Y-8.221
N20790G1X26.059
N20800G1Y-8.141
N20810G1X26.472
N20820G1Y-8.061
N20830G1X26.059
N20840G1Y-7.981
N20850G1X26.472
N20860G1Y-7.901
N20870G1X26.059
N20880G1Y-7.821
N20890G1X26.472
N20900G1Y-7.741
N20910G1X26.059
N20920G1Y-7.661
N20930G1X26.472
N20940G1Y-7.581
N20950G1X26.059
N20960G1Y-7.501
N20970G1X26.472
N20980G1Y-7.421
N20990G1X26.059
N21000G1Y-7.341
N21010G1X26.472
N21020G1Y-7.261
N21030G1X26.059
N21040G1Y-7.181
N21050G1X26.472
N21060G1Y-7.101
N21070G1X26.059
N21080G1Y-7.021
N21090G1X26.472
N21100G1Y-6.989
N21110G1X26.462Y-6.941
N21120G1X26.071
N21130G1X26.082Y-6.898
N21140G1X26.107Y-6.861
N21150G1X26.431
N21160G00Z6.000
N21170G00X24.449Y-9.576
N21180G1Z-0.500F480.0
N21190G1X24.473Y-9.666F1200.0
N21200G1X24.516Y-9.730
N21210G1X24.576Y-9.769
N21220G1X24.655Y-9.781
N21230G1X24.733Y-9.769
N21240G1X24.794Y-9.730
N21250G1X24.837Y-9.666
N21260G1X24.862Y-9.576
N21270G1Y-7.711
N21280G1X26.092Y-9.685
N21290G1X26.138Y-9.739
N21300G1X26.191Y-9.771
N21310G1X26.253Y-9.782
N21320G1X26.323Y-9.772
N21330G1X26.388Y-9.744
N21340G1X26.435Y-9.702
N21350G1X26.462Y-9.646
N21360G1X26.472Y-9.576
N21370G1Y-6.989
N21380G1X26.454Y-6.899
N21390G1X26.414Y-6.835
N21400G1X26.354Y-6.796
N21410G1X26.272Y-6.782
N21420G1X26.189Y-6.794
N21430G1X26.126Y-6.833
N21440G1X26.082Y-6.898
N21450G1X26.059Y-6.989
N21460G1Y-8.856
N21470G1X24.828Y-6.879
N21480G1X24.781Y-6.822
N21490G1X24.728Y-6.787
N21500G1X24.669Y-6.776
N21510G1X24.605Y-6.789
N21520G1X24.545Y-6.819
N21530G1X24.499Y-6.863
N21540G1X24.467Y-6.920
N21550G1X24.449Y-6.989
N21560G1Y-9.576
N21570G00Z6.000
N21580G00X27.290Y-5.217
N21590G1Z-0.500F480.0
N21600G1X26.738F1200.0
N21610G1X26.598Y-5.163
N21620G1X26.563Y-5.137
N21630G1X27.453
N21640G1X27.541Y-5.079
N21650G1X27.563Y-5.057
N21660G1X26.453
N21670G1X26.425Y-5.037
N21680G1X26.375Y-4.977
N21690G1X27.645
N21700G1X27.681Y-4.942
N21710G1X27.710Y-4.897
N21720G1X26.309
N21730G1X26.288Y-4.873
N21740G1X26.262Y-4.817
N21750G1X26.848
N21760G1X26.757Y-4.774
N21770G1X26.718Y-4.737
N21780G1X26.224
N21790G1X26.196Y-4.679
N21800G1X26.192Y-4.657
N21810G1X26.645
N21820G1X26.600Y-4.577
N21830G1X26.173
N21840G1X26.161Y-4.522
N21850G1X26.160Y-4.497
N21860G1X26.579
N21870G1X26.567Y-4.449
N21880G1X26.568Y-4.417
N21890G1X26.156
N21900G1X26.154Y-4.367
N21910G1X26.158Y-4.337
N21920G1X26.571
N21930G1X26.571Y-4.334
N21940G1X26.597Y-4.257
N21950G1X26.170
N21960G1X26.177Y-4.214
N21970G1X26.189Y-4.177
N21980G1X26.641
N21990G1X26.679Y-4.122
N22000G1X26.706Y-4.097
N22010G1X26.217
N22020G1X26.229Y-4.064
N22030G1X26.251Y-4.017
N22040G1X26.816
N22050G1X26.876Y-3.988
N22060G1X26.992Y-3.971
N22070G1X27.118Y-3.988
N22080G1X27.186Y-4.017
N22090G1X27.761
N22100G1X27.798Y-4.085
N22110G1X27.801Y-4.097
N22120G1X27.305
N22130G1X27.355Y-4.144
N22140G1X27.372Y-4.177
N22150G1X27.825
N22160G1X27.845Y-4.244
N22170G1X27.846Y-4.257
N22180G1X27.416
N22190G1X27.423Y-4.271
N22200G1X27.434Y-4.337
N22210G1X27.853
N22220G1X27.861Y-4.417
N22230G1X27.446
N22240G1X27.438Y-4.497
N22250G1X27.852
N22260G1X27.844Y-4.577
N22270G1X27.415
N22280G1X27.414Y-4.582
N22290G1X27.374Y-4.656
N22300G1X27.372Y-4.657
N22310G1X27.825
N22320G1X27.797Y-4.737
N22330G1X27.300
N22340G1X27.249Y-4.779
N22350G1X27.177Y-4.817
N22360G1X27.761
N22370G00Z6.000
N22380G00X27.718Y-3.937
N22390G1Z-0.500F480.0
N22400G1X26.305F1200.0
N22410G1X26.361Y-3.857
N22420G1X27.651
N22430G1X27.609Y-3.806
N22440G1X27.601Y-3.800
N22450G1X27.594Y-3.793
N22460G1X27.584Y-3.777
N22470G1X26.438
N22480G1X26.450Y-3.766
N22490G1X26.394Y-3.711
N22500G1X26.381Y-3.697
N22510G1X27.633
N22520G1X27.700Y-3.617
N22530G1X26.318
N22540G1X26.266Y-3.537
N22550G1X26.895
N22560G1X26.799Y-3.509
N22570G1X26.734Y-3.469
N22580G1X26.721Y-3.457
N22590G1X26.227
N22600G1X26.198Y-3.377
N22610G1X26.650
N22620G1X26.631Y-3.350
N22630G1X26.607Y-3.297
N22640G1X26.178
N22650G1X26.168Y-3.217
N22660G1X26.584
N22670G1X26.567Y-3.137
N22680G1X26.158
N22690G1X26.156Y-3.120
N22700G1X26.163Y-3.057
N22710G1X26.577
N22720G1X26.585Y-2.999
N22730G1X26.596Y-2.977
N22740G1X26.173
N22750G1X26.180Y-2.909
N22760G1X26.185Y-2.897
N22770G1X26.635
N22780G1X26.645Y-2.876
N22790G1X26.698Y-2.817
N22800G1X26.214
N22810G1X26.244Y-2.737
N22820G1X26.791
N22830G1X26.845Y-2.703
N22840G1X26.956Y-2.672
N22850G1X27.073Y-2.680
N22860G1X27.196Y-2.726
N22870G1X27.212Y-2.737
N22880G1X27.767
N22890G1X27.805Y-2.817
N22900G1X27.320
N22910G1X27.383Y-2.890
N22920G1X27.387Y-2.897
N22930G1X27.828
N22940G1X27.848Y-2.977
N22950G1X27.422
N22960G1X27.430Y-2.997
N22970G1X27.438Y-3.057
N22980G1X27.854
N22990G1X27.859Y-3.137
N23000G1X27.443
N23010G1X27.430Y-3.217
N23020G1X27.851
N23030G1X27.842Y-3.297
N23040G1X27.413
N23050G1X27.385Y-3.354
N23060G1X27.366Y-3.377
N23070G1X27.818
N23080G1X27.793Y-3.457
N23090G1X27.278
N23100G1X27.219Y-3.502
N23110G1X27.117Y-3.537
N23120G1X27.750
N23130G00Z6.000
N23140G00X27.722Y-2.657
N23150G1Z-0.500F480.0
N23160G1X26.295F1200.0
N23170G1X26.350Y-2.577
N23180G1X27.662
N23190G1X27.641Y-2.549
N23200G1X27.587Y-2.497
N23210G1X26.431
N23220G1X26.499Y-2.434
N23230G1X26.527Y-2.417
N23240G1X27.488
N23250G1X27.438Y-2.383
N23260G1X27.343Y-2.337
N23270G1X26.663
N23280G00Z6.000
N23290G00X27.792Y-3.460
N23300G1Z-0.500F480.0
N23310G1X27.840Y-3.309F1200.0
N23320G1X27.859Y-3.144
N23330G1X27.849Y-2.980
N23340G1X27.809Y-2.825
N23350G1X27.740Y-2.682
N23360G1X27.641Y-2.549
N23370G1X27.546Y-2.457
N23380G1X27.438Y-2.383
N23390G1X27.319Y-2.326
N23400G1X27.188Y-2.286
N23410G1X27.052Y-2.266
N23420G1X26.920Y-2.267
N23430G1X26.792Y-2.290
N23440G1X26.667Y-2.335
N23450G1X26.499Y-2.434
N23460G1X26.357Y-2.567
N23470G1X26.248Y-2.727
N23480G1X26.180Y-2.909
N23490G1X26.156Y-3.120
N23500G1X26.183Y-3.337
N23510G1X26.242Y-3.501
N23520G1X26.340Y-3.652
N23530G1X26.394Y-3.711
N23540G1X26.450Y-3.766
N23550G1X26.410Y-3.804
N23560G1X26.372Y-3.841
N23570G1X26.254Y-4.011
N23580G1X26.229Y-4.064
N23590G1X26.177Y-4.214
N23600G1X26.154Y-4.367
N23610G1X26.161Y-4.522
N23620G1X26.196Y-4.679
N23630G1X26.288Y-4.873
N23640G1X26.425Y-5.037
N23650G1X26.598Y-5.163
N23660G1X26.797Y-5.240
N23670G1X26.925Y-5.261
N23680G1X27.048Y-5.265
N23690G1X27.167Y-5.252
N23700G1X27.282Y-5.221
N23710G1X27.422Y-5.158
N23720G1X27.541Y-5.079
N23730G1X27.681Y-4.942
N23740G1X27.781Y-4.786
N23750G1X27.841Y-4.611
N23760G1X27.861Y-4.417
N23770G1X27.845Y-4.244
N23780G1X27.798Y-4.085
N23790G1X27.719Y-3.939
N23800G1X27.609Y-3.806
N23810G1X27.601Y-3.800
N23820G1X27.594Y-3.793
N23830G1X27.572Y-3.759
N23840G1X27.609Y-3.727
N23850G1X27.715Y-3.600
N23860G1X27.792Y-3.460
N23870G00Z6.000
N23880G00X27.337Y-3.413
N23890G1Z-0.500F480.0
N23900G1X27.219Y-3.502F1200.0
N23910G1X27.084Y-3.549
N23920G1X26.941Y-3.552
N23930G1X26.799Y-3.509
N23940G1X26.734Y-3.469
N23950G1X26.678Y-3.416
N23960G1X26.631Y-3.350
N23970G1X26.595Y-3.271
N23980G1X26.566Y-3.133
N23990G1X26.585Y-2.999
N24000G1X26.645Y-2.876
N24010G1X26.738Y-2.772
N24020G1X26.845Y-2.703
N24030G1X26.956Y-2.672
N24040G1X27.073Y-2.680
N24050G1X27.196Y-2.726
N24060G1X27.305Y-2.800
N24070G1X27.383Y-2.890
N24080G1X27.430Y-2.997
N24090G1X27.446Y-3.120
N24100G1X27.419Y-3.285
N24110G1X27.385Y-3.354
N24120G1X27.337Y-3.413
N24130G00Z6.000
N24140G00X26.876Y-3.988
N24150G1Z-0.500F480.0
N24160G1X26.992Y-3.971F1200.0
N24170G1X27.118Y-3.988
N24180G1X27.250Y-4.045
N24190G1X27.355Y-4.144
N24200G1X27.423Y-4.271
N24210G1X27.446Y-4.412
N24220G1X27.438Y-4.500
N24230G1X27.414Y-4.582
N24240G1X27.374Y-4.656
N24250G1X27.317Y-4.723
N24260G1X27.249Y-4.779
N24270G1X27.175Y-4.819
N24280G1X27.094Y-4.842
N24290G1X27.007Y-4.850
N24300G1X26.876Y-4.831
N24310G1X26.757Y-4.774
N24320G1X26.660Y-4.684
N24330G1X26.596Y-4.571
N24340G1X26.567Y-4.449
N24350G1X26.571Y-4.334
N24360G1X26.608Y-4.225
N24370G1X26.679Y-4.122
N24380G1X26.772Y-4.038
N24390G1X26.876Y-3.988
N24400G00Z6.000
N24410G00X24.533Y10.259
N24420G1Z-0.500F480.0
N24430G1X24.776F1200.0
N24440G1X24.794Y10.270
N24450G1X24.837Y10.334
N24460G1X24.838Y10.339
N24470G1X24.472
N24480G1X24.450Y10.419
N24490G1X24.860
N24500G1X24.862Y10.424
N24510G1Y10.499
N24520G1X24.449
N24530G1Y10.579
N24540G1X24.862
N24550G1Y10.659
N24560G1X24.449
N24570G1Y10.739
N24580G1X24.862
N24590G1Y10.819
N24600G1X24.449
N24610G1Y10.899
N24620G1X24.862
N24630G1Y10.979
N24640G1X24.449
N24650G1Y11.059
N24660G1X24.862
N24670G1Y11.139
N24680G1X24.449
N24690G1Y11.219
N24700G1X24.862
N24710G1Y11.299
N24720G1X24.449
N24730G1Y11.379
N24740G1X24.862
N24750G1Y11.459
N24760G1X24.449
N24770G1Y11.539
N24780G1X24.862
N24790G1Y11.619
N24800G1X24.449
N24810G1Y11.699
N24820G1X24.862
N24830G1Y11.779
N24840G1X24.449
N24850G1Y11.859
N24860G1X24.862
N24870G1Y11.939
N24880G1X24.449
N24890G1Y12.019
N24900G1X24.862
N24910G1Y12.099
N24920G1X24.449
N24930G1Y12.179
N24940G1X24.862
N24950G1Y12.259
N24960G1X24.449
N24970G1Y12.339
N24980G1X25.315
N24990G1X25.265Y12.419
N25000G1X24.449
N25010G1Y12.499
N25020G1X25.215
N25030G1X25.166Y12.579
N25040G1X24.449
N25050G1Y12.659
N25060G1X25.116
N25070G1X25.066Y12.739
N25080G1X24.449
N25090G1Y12.819
N25100G1X25.016
N25110G1X24.966Y12.899
N25120G1X24.449
N25130G1Y12.979
N25140G1X24.917
N25150G1X24.867Y13.059
N25160G1X24.461
N25170G1X24.467Y13.080
N25180G1X24.499Y13.137
N25190G1X24.500Y13.139
N25200G1X24.813
N25210G1X24.781Y13.178
N25220G1X24.728Y13.213
N25230G1X24.697Y13.219
N25240G1X24.642
N25250G00Z6.000
N25260G00X26.142Y10.259
N25270G1Z-0.500F480.0
N25280G1X26.391F1200.0
N25290G1X26.435Y10.298
N25300G1X26.455Y10.339
N25310G1X26.078
N25320G1X26.028Y10.419
N25330G1X26.471
N25340G1X26.472Y10.424
N25350G1Y10.499
N25360G1X25.978
N25370G1X25.928Y10.579
N25380G1X26.472
N25390G1Y10.659
N25400G1X25.878
N25410G1X25.828Y10.739
N25420G1X26.472
N25430G1Y10.819
N25440G1X25.778
N25450G1X25.729Y10.899
N25460G1X26.472
N25470G1Y10.979
N25480G1X25.679
N25490G1X25.629Y11.059
N25500G1X26.472
N25510G1Y11.139
N25520G1X25.579
N25530G1X25.529Y11.219
N25540G1X26.012
N25550G1X25.963Y11.299
N25560G1X25.479
N25570G1X25.429Y11.379
N25580G1X25.913
N25590G1X25.863Y11.459
N25600G1X25.379
N25610G1X25.329Y11.539
N25620G1X25.813
N25630G1X25.763Y11.619
N25640G1X25.280
N25650G1X25.230Y11.699
N25660G1X25.714
N25670G1X25.664Y11.779
N25680G1X25.180
N25690G1X25.130Y11.859
N25700G1X25.614
N25710G1X25.564Y11.939
N25720G1X25.080
N25730G1X25.030Y12.019
N25740G1X25.514
N25750G1X25.465Y12.099
N25760G1X24.980
N25770G1X24.930Y12.179
N25780G1X25.415
N25790G1X25.365Y12.259
N25800G1X24.880
N25810G00Z6.000
N25820G00X26.059Y11.219
N25830G1Z-0.500F480.0
N25840G1X26.472F1200.0
N25850G1Y11.299
N25860G1X26.059
N25870G1Y11.379
N25880G1X26.472
N25890G1Y11.459
N25900G1X26.059
N25910G1Y11.539
N25920G1X26.472
N25930G1Y11.619
N25940G1X26.059
N25950G1Y11.699
N25960G1X26.472
N25970G1Y11.779
N25980G1X26.059
N25990G1Y11.859
N26000G1X26.472
N26010G1Y11.939
N26020G1X26.059
N26030G1Y12.019
N26040G1X26.472
N26050G1Y12.099
N26060G1X26.059
N26070G1Y12.179
N26080G1X26.472
N26090G1Y12.259
N26100G1X26.059
N26110G1Y12.339
N26120G1X26.472
N26130G1Y12.419
N26140G1X26.059
N26150G1Y12.499
N26160G1X26.472
N26170G1Y12.579
N26180G1X26.059
N26190G1Y12.659
N26200G1X26.472
N26210G1Y12.739
N26220G1X26.059
N26230G1Y12.819
N26240G1X26.472
N26250G1Y12.899
N26260G1X26.059
N26270G1Y12.979
N26280G1X26.472
N26290G1Y13.011
N26300G1X26.462Y13.059
N26310G1X26.071
N26320G1X26.082Y13.102
N26330G1X26.107Y13.139
N26340G1X26.431
N26350G00Z6.000
N26360G00X24.449Y10.424
N26370G1Z-0.500F480.0
N26380G1X24.473Y10.334F1200.0
N26390G1X24.516Y10.270
N26400G1X24.576Y10.231
N26410G1X24.655Y10.219
N26420G1X24.733Y10.231
N26430G1X24.794Y10.270
N26440G1X24.837Y10.334
N26450G1X24.862Y10.424
N26460G1Y12.289
N26470G1X26.092Y10.315
N26480G1X26.138Y10.261
N26490G1X26.191Y10.229
N26500G1X26.253Y10.218
N26510G1X26.323Y10.228
N26520G1X26.388Y10.256
N26530G1X26.435Y10.298
N26540G1X26.462Y10.354
N26550G1X26.472Y10.424
N26560G1Y13.011
N26570G1X26.454Y13.101
N26580G1X26.414Y13.165
N26590G1X26.354Y13.204
N26600G1X26.272Y13.218
N26610G1X26.189Y13.206
N26620G1X26.126Y13.167
N26630G1X26.082Y13.102
N26640G1X26.059Y13.011
N26650G1Y11.144
N26660G1X24.828Y13.121
N26670G1X24.781Y13.178
N26680G1X24.728Y13.213
N26690G1X24.669Y13.224
N26700G1X24.605Y13.211
N26710G1X24.545Y13.181
N26720G1X24.499Y13.137
N26730G1X24.467Y13.080
N26740G1X24.449Y13.011
N26750G1Y10.424
N26760G00Z6.000
N26770G00X22.888Y10.249
N26780G1Z-0.500F480.0
N26790G1X23.273F1200.0
N26800G1X23.344Y10.273
N26810G1X23.443Y10.329
N26820G1X22.672
N26830G1X22.570Y10.383
N26840G1X22.540Y10.409
N26850G1X23.542
N26860G1X23.635Y10.489
N26870G1X22.447
N26880G1X22.413Y10.518
N26890G1X22.374Y10.569
N26900G1X23.704
N26910G1X23.764Y10.649
N26920G1X23.167
N26930G1X23.210Y10.666
N26940G1X23.288Y10.726
N26950G1X23.291Y10.729
N26960G1X23.821
N26970G1X23.861Y10.809
N26980G1X23.360
N26990G1X23.418Y10.877
N27000G1X23.426Y10.889
N27010G1X23.901
N27020G1X23.908Y10.905
N27030G1X23.932Y10.969
N27040G1X23.473
N27050G1X23.513Y11.036
N27060G1X23.517Y11.049
N27070G1X23.961
N27080G1X23.979Y11.099
N27090G1X23.986Y11.129
N27100G1X23.544
N27110G1X23.571Y11.209
N27120G1X24.006
N27130G1X24.025Y11.289
N27140G1X23.588
N27150G1X23.601Y11.369
N27160G1X24.037
N27170G1X24.047Y11.449
N27180G1X23.614
N27190G1X23.619Y11.478
N27200G1X23.621Y11.529
N27210G1X24.056
N27220G1X24.058Y11.609
N27230G1X23.624
N27240G1X23.627Y11.689
N27250G1X24.060
N27260G1X24.061Y11.733
N27270G1X24.059Y11.769
N27280G1X23.628
N27290G1X23.621Y11.849
N27300G1X24.053
N27310G1X24.048Y11.929
N27320G1X23.614
N27330G1X23.607Y12.009
N27340G1X24.035
N27350G1X24.022Y12.089
N27360G1X23.590
N27370G1X23.571Y12.169
N27380G1X24.006
N27390G1X23.984Y12.249
N27400G1X23.552
N27410G1X23.544Y12.285
N27420G1X23.525Y12.329
N27430G1X23.962
N27440G1X23.954Y12.359
N27450G1X23.930Y12.409
N27460G1X23.490
N27470G1X23.455Y12.489
N27480G1X23.891
N27490G1X23.853Y12.569
N27500G1X23.407
N27510G1X23.375Y12.617
N27520G1X23.343Y12.649
N27530G1X23.815
N27540G1X23.807Y12.666
N27550G1X23.763Y12.729
N27560G1X23.245
N27570G1X23.202Y12.757
N27580G1X23.097Y12.797
N27590G1X23.029Y12.806
N27600G1X22.903Y12.788
N27610G1X22.792Y12.733
N27620G1X22.789Y12.729
N27630G1X22.265
N27640G1X22.232Y12.679
N27650G1X22.219Y12.649
N27660G1X22.706
N27670G1X22.699Y12.643
N27680G1X22.654Y12.569
N27690G1X22.183
N27700G1X22.148Y12.489
N27710G1X22.610
N27720G1X22.577Y12.409
N27730G1X22.121
N27740G1X22.096Y12.329
N27750G1X22.543
N27760G1X22.509Y12.249
N27770G1X22.072
N27780G1X22.071Y12.245
N27790G1X22.056Y12.169
N27800G1X22.487
N27810G1X22.465Y12.089
N27820G1X22.041
N27830G1X22.026Y12.016
N27840G1X22.026Y12.009
N27850G1X22.445
N27860G1X22.436Y11.929
N27870G1X22.019
N27880G1X22.012Y11.849
N27890G1X22.427
N27900G1X22.426Y11.769
N27910G1X22.007
N27920G1X22.009Y11.689
N27930G1X22.426
N27940G1X22.426Y11.659
N27950G1X22.430Y11.609
N27960G1X22.010
N27970G1X22.012Y11.549
N27980G1X22.014Y11.529
N27990G1X22.437
N28000G1X22.444Y11.449
N28010G1X22.025
N28020G1X22.035Y11.369
N28030G1X22.461
N28040G1X22.477Y11.289
N28050G1X22.049
N28060G1X22.069Y11.209
N28070G1X22.497
N28080G1X22.525Y11.129
N28090G1X22.089
N28100G1X22.097Y11.099
N28110G1X22.115Y11.049
N28120G1X22.552
N28130G1X22.555Y11.042
N28140G1X22.594Y10.969
N28150G1X22.146
N28160G1X22.177Y10.890
N28170G1X22.177Y10.889
N28180G1X22.637
N28190G1X22.650Y10.865
N28200G1X22.693Y10.809
N28210G1X22.219
N28220G1X22.262Y10.729
N28230G1X22.772
N28240G1X22.775Y10.727
N28250G1X22.850Y10.679
N28260G1X22.923Y10.649
N28270G1X22.314
N28280G00Z6.000
N28290G00X22.318Y12.809
N28300G1Z-0.500F480.0
N28310G1X23.706F1200.0
N28320G1X23.649Y12.889
N28330G1X22.380
N28340G1X22.456Y12.969
N28350G1X23.586
N28360G1X23.504Y13.049
N28370G1X22.553
N28380G1X22.656Y13.122
N28390G1X22.673Y13.129
N28400G1X23.385
N28410G1X23.345Y13.154
N28420G1X23.189Y13.205
N28430G1X23.142Y13.209
N28440G1X22.926
N28450G00Z6.000
N28460G00X23.288Y10.726
N28470G1Z-0.500F480.0
N28480G1X23.210Y10.666F1200.0
N28490G1X23.125Y10.633
N28500G1X23.033Y10.626
N28510G1X22.934Y10.645
N28520G1X22.850Y10.679
N28530G1X22.775Y10.727
N28540G1X22.708Y10.789
N28550G1X22.650Y10.865
N28560G1X22.555Y11.042
N28570G1X22.487Y11.239
N28580G1X22.445Y11.447
N28590G1X22.426Y11.659
N28600G1X22.427Y11.855
N28610G1X22.446Y12.020
N28620G1X22.508Y12.247
N28630G1X22.621Y12.516
N28640G1X22.699Y12.643
N28650G1X22.792Y12.733
N28660G1X22.903Y12.788
N28670G1X23.029Y12.806
N28680G1X23.097Y12.797
N28690G1X23.202Y12.757
N28700G1X23.295Y12.697
N28710G1X23.375Y12.617
N28720G1X23.442Y12.518
N28730G1X23.544Y12.285
N28740G1X23.606Y12.026
N28750G1X23.630Y11.752
N28760G1X23.619Y11.478
N28770G1X23.578Y11.231
N28780G1X23.513Y11.036
N28790G1X23.418Y10.877
N28800G1X23.288Y10.726
N28810G00Z6.000
N28820G00X23.662Y10.512
N28830G1Z-0.500F480.0
N28840G1X23.816Y10.720F1200.0
N28850G1X23.908Y10.905
N28860G1X23.979Y11.099
N28870G1X24.028Y11.303
N28880G1X24.055Y11.517
N28890G1X24.061Y11.733
N28900G1X24.046Y11.945
N28910G1X24.010Y12.154
N28920G1X23.954Y12.359
N28930G1X23.807Y12.666
N28940G1X23.606Y12.950
N28950G1X23.484Y13.069
N28960G1X23.345Y13.154
N28970G1X23.189Y13.205
N28980G1X23.017Y13.222
N28990G1X22.832Y13.197
N29000G1X22.656Y13.122
N29010G1X22.490Y13.005
N29020G1X22.349Y12.857
N29030G1X22.232Y12.679
N29040G1X22.139Y12.470
N29050G1X22.071Y12.245
N29060G1X22.026Y12.016
N29070G1X22.007Y11.784
N29080G1X22.012Y11.549
N29090G1X22.042Y11.319
N29100G1X22.097Y11.099
N29110G1X22.177Y10.890
N29120G1X22.282Y10.692
N29130G1X22.413Y10.518
N29140G1X22.570Y10.383
N29150G1X22.753Y10.287
N29160G1X22.962Y10.229
N29170G1X23.095Y10.218
N29180G1X23.223Y10.233
N29190G1X23.344Y10.273
N29200G1X23.460Y10.339
N29210G1X23.662Y10.512
N29220G00Z6.000
N29230G00X23.273Y14.797
N29240G1Z-0.500F480.0
N29250G1X23.555F1200.0
N29260G1X23.573Y14.814
N29270G1X23.608Y14.877
N29280G1X23.221
N29290G1X23.208Y14.903
N29300G1X23.197Y14.957
N29310G1X23.632
N29320G1X23.656Y15.037
N29330G1X23.182
N29340G1X23.166Y15.117
N29350G1X23.679
N29360G1X23.702Y15.197
N29370G1X23.150
N29380G1X23.135Y15.277
N29390G1X23.725
N29400G1X23.749Y15.357
N29410G1X23.119
N29420G1X23.103Y15.437
N29430G1X23.772
N29440G1X23.795Y15.517
N29450G1X23.088
N29460G1X23.072Y15.597
N29470G1X23.818
N29480G1X23.842Y15.677
N29490G1X23.056
N29500G1X23.041Y15.757
N29510G1X23.865
N29520G1X23.888Y15.837
N29530G1X23.457
N29540G1X23.480Y15.917
N29550G1X23.911
N29560G1X23.935Y15.997
N29570G1X23.503
N29580G1X23.527Y16.077
N29590G1X23.958
N29600G1X23.981Y16.157
N29610G1X23.550
N29620G1X23.574Y16.237
N29630G1X24.004
N29640G1X24.028Y16.317
N29650G1X23.597
N29660G1X23.620Y16.397
N29670G1X24.051
N29680G1X24.074Y16.477
N29690G1X23.644
N29700G1X23.667Y16.557
N29710G1X24.097
N29720G1X24.121Y16.637
N29730G1X23.690
N29740G1X23.714Y16.717
N29750G1X24.144
N29760G1X24.160Y16.773
N29770G1X24.177Y16.717
N29780G1X24.609
N29790G1X24.632Y16.637
N29800G1X24.200
N29810G1X24.223Y16.557
N29820G1X24.655
N29830G1X24.679Y16.477
N29840G1X24.247
N29850G1X24.270Y16.397
N29860G1X24.702
N29870G1X24.726Y16.317
N29880G1X24.294
N29890G1X24.317Y16.237
N29900G1X24.749
N29910G1X24.772Y16.157
N29920G1X24.341
N29930G1X24.364Y16.077
N29940G1X24.796
N29950G1X24.819Y15.997
N29960G1X24.387
N29970G1X24.411Y15.917
N29980G1X24.843
N29990G1X24.866Y15.837
N30000G1X24.434
N30010G1X24.458Y15.757
N30020G1X25.281
N30030G1X25.265Y15.677
N30040G1X24.481
N30050G1X24.505Y15.597
N30060G1X25.250
N30070G1X25.234Y15.517
N30080G1X24.528
N30090G1X24.552Y15.437
N30100G1X25.218
N30110G1X25.203Y15.357
N30120G1X24.575
N30130G1X24.598Y15.277
N30140G1X25.187
N30150G1X25.171Y15.197
N30160G1X24.622
N30170G1X24.645Y15.117
N30180G1X25.156
N30190G1X25.140Y15.037
N30200G1X24.669
N30210G1X24.692Y14.957
N30220G1X25.124
N30230G1X25.114Y14.903
N30240G1X25.103Y14.877
N30250G1X24.717
N30260G1X24.751Y14.816
N30270G1X24.770Y14.797
N30280G1X25.056
N30290G00Z6.000
N30300G00X23.445Y15.837
N30310G1Z-0.500F480.0
N30320G1X23.025F1200.0
N30330G1X23.009Y15.917
N30340G1X23.430
N30350G1X23.414Y15.997
N30360G1X22.994
N30370G1X22.978Y16.077
N30380G1X23.399
N30390G1X23.383Y16.157
N30400G1X22.962
N30410G1X22.947Y16.237
N30420G1X23.368
N30430G1X23.353Y16.317
N30440G1X22.931
N30450G1X22.915Y16.397
N30460G1X23.337
N30470G1X23.322Y16.477
N30480G1X22.900
N30490G1X22.884Y16.557
N30500G1X23.306
N30510G1X23.291Y16.637
N30520G1X22.868
N30530G1X22.853Y16.717
N30540G1X23.275
N30550G1X23.260Y16.797
N30560G1X22.837
N30570G1X22.821Y16.877
N30580G1X23.245
N30590G1X23.229Y16.957
N30600G1X22.806
N30610G1X22.790Y17.037
N30620G1X23.214
N30630G1X23.198Y17.117
N30640G1X22.774
N30650G1X22.759Y17.197
N30660G1X23.183
N30670G1X23.167Y17.277
N30680G1X22.743
N30690G1X22.727Y17.357
N30700G1X23.152
N30710G1X23.137Y17.437
N30720G1X22.712
N30730G1X22.701Y17.491
N30740G1X22.704Y17.517
N30750G1X23.121
N30760G1X23.111Y17.568
N30770G1X23.096Y17.597
N30780G1X22.717
N30790G1X22.743Y17.656
N30800G1X22.766Y17.677
N30810G1X23.042
N30820G00Z6.000
N30830G00X25.297Y15.837
N30840G1Z-0.500F480.0
N30850G1X24.876F1200.0
N30860G1X24.892Y15.917
N30870G1X25.312
N30880G1X25.328Y15.997
N30890G1X24.908
N30900G1X24.923Y16.077
N30910G1X25.344
N30920G1X25.359Y16.157
N30930G1X24.939
N30940G1X24.955Y16.237
N30950G1X25.375
N30960G1X25.391Y16.317
N30970G1X24.970
N30980G1X24.986Y16.397
N30990G1X25.406
N31000G1X25.422Y16.477
N31010G1X25.001
N31020G1X25.017Y16.557
N31030G1X25.438
N31040G1X25.454Y16.637
N31050G1X25.033
N31060G1X25.048Y16.717
N31070G1X25.469
N31080G1X25.485Y16.797
N31090G1X25.064
N31100G1X25.080Y16.877
N31110G1X25.501
N31120G1X25.516Y16.957
N31130G1X25.095
N31140G1X25.111Y17.037
N31150G1X25.532
N31160G1X25.548Y17.117
N31170G1X25.127
N31180G1X25.142Y17.197
N31190G1X25.563
N31200G1X25.579Y17.277
N31210G1X25.158
N31220G1X25.174Y17.357
N31230G1X25.595
N31240G1X25.610Y17.437
N31250G1X25.189
N31260G1X25.205Y17.517
N31270G1X25.619
N31280G1X25.616Y17.581
N31290G1X25.609Y17.597
N31300G1X25.228
N31310G1X25.253Y17.652
N31320G1X25.277Y17.677
N31330G1X25.559
N31340G00Z6.000
N31350G00X24.585Y16.797
N31360G1Z-0.500F480.0
N31370G1X23.737F1200.0
N31380G1X23.760Y16.877
N31390G1X24.562
N31400G1X24.538Y16.957
N31410G1X23.784
N31420G1X23.807Y17.037
N31430G1X24.515
N31440G1X24.491Y17.117
N31450G1X23.831
N31460G1X23.854Y17.197
N31470G1X24.468
N31480G1X24.445Y17.277
N31490G1X23.877
N31500G1X23.901Y17.357
N31510G1X24.421
N31520G1X24.398Y17.437
N31530G1X23.924
N31540G1X23.947Y17.517
N31550G1X24.374
N31560G1X24.359Y17.568
N31570G1X24.345Y17.597
N31580G1X23.979
N31590G1X23.999Y17.632
N31600G1X24.043Y17.677
N31610G1X24.287
N31620G00Z6.000
N31630G00X22.701Y17.491
N31640G1Z-0.500F480.0
N31650G1X23.208Y14.903F1200.0
N31660G1X23.242Y14.834
N31670G1X23.286Y14.782
N31680G1X23.340Y14.749
N31690G1X23.404Y14.735
N31700G1X23.469Y14.740
N31710G1X23.526Y14.767
N31720G1X23.573Y14.814
N31730G1X23.611Y14.883
N31740G1X24.160Y16.773
N31750G1X24.714Y14.883
N31760G1X24.751Y14.816
N31770G1X24.798Y14.769
N31780G1X24.856Y14.742
N31790G1X24.923Y14.735
N31800G1X24.989Y14.748
N31810G1X25.043Y14.780
N31820G1X25.084Y14.832
N31830G1X25.114Y14.903
N31840G1X25.621Y17.491
N31850G1X25.616Y17.581
N31860G1X25.587Y17.651
N31870G1X25.534Y17.701
N31880G1X25.456Y17.729
N31890G1X25.374Y17.733
N31900G1X25.306Y17.707
N31910G1X25.253Y17.652
N31920G1X25.215Y17.568
N31930G1X24.872Y15.816
N31940G1X24.359Y17.568
N31950G1X24.326Y17.635
N31960G1X24.282Y17.682
N31970G1X24.228Y17.710
N31980G1X24.164Y17.718
N31990G1X24.099Y17.707
N32000G1X24.044Y17.678
N32010G1X23.999Y17.632
N32020G1X23.962Y17.568
N32030G1X23.450Y15.813
N32040G1X23.111Y17.568
N32050G1X23.068Y17.651
N32060G1X23.012Y17.706
N32070G1X22.946Y17.733
N32080G1X22.868Y17.732
N32090G1X22.795Y17.705
N32100G1X22.743Y17.656
N32110G1X22.712Y17.584
N32120G1X22.701Y17.491
N32130G00Z6.000
N32140G00X21.007Y14.797
N32150G1Z-0.500F480.0
N32160G1X21.792F1200.0
N32170G1X21.901Y14.839
N32180G1X21.955Y14.877
N32190G1X20.745
N32200G1X20.718Y14.888
N32210G1X20.634Y14.957
N32220G1X22.067
N32230G1X22.137Y15.037
N32240G1X20.560
N32250G1X20.501Y15.117
N32260G1X22.202
N32270G1X22.244Y15.197
N32280G1X21.702
N32290G1X21.749Y15.218
N32300G1X21.809Y15.277
N32310G1X22.286
N32320G1X22.287Y15.277
N32330G1X22.306Y15.357
N32340G1X21.866
N32350G1X21.901Y15.421
N32360G1X21.905Y15.437
N32370G1X22.326
N32380G1X22.333Y15.469
N32390G1X22.335Y15.517
N32400G1X21.922
N32410G1X21.928Y15.543
N32420G1X21.923Y15.597
N32430G1X22.337
N32440G1X22.338Y15.606
N32450G1X22.329Y15.677
N32460G1X21.913
N32470G1X21.881Y15.757
N32480G1X22.317
N32490G1X22.292Y15.837
N32500G1X21.829
N32510G1X21.788Y15.886
N32520G1X21.740Y15.917
N32530G1X22.264
N32540G1X22.221Y15.997
N32550G1X21.583
N32560G1X21.401Y16.077
N32570G1X22.167
N32580G1X22.099Y16.157
N32590G1X21.218
N32600G1X21.036Y16.237
N32610G1X22.002
N32620G1X21.963Y16.267
N32630G1X21.939Y16.281
N32640G1X21.916Y16.295
N32650G1X21.892Y16.308
N32660G1X21.876Y16.317
N32670G1X20.896
N32680G1X20.826Y16.362
N32690G1X20.790Y16.397
N32700G1X21.696
N32710G1X21.515Y16.477
N32720G1X20.708
N32730G1X20.707Y16.477
N32740G1X20.656Y16.557
N32750G1X21.334
N32760G1X21.166Y16.631
N32770G1X21.152Y16.637
N32780G1X20.611
N32790G1X20.581Y16.717
N32800G1X21.042
N32810G1X20.999Y16.772
N32820G1X20.988Y16.797
N32830G1X20.559
N32840G1X20.546Y16.877
N32850G1X20.959
N32860G1X20.950Y16.916
N32870G1X20.952Y16.957
N32880G1X20.536
N32890G1X20.542Y17.037
N32900G1X20.955
N32910G1X20.955Y17.042
N32920G1X20.987Y17.117
N32930G1X20.549
N32940G1X20.549Y17.120
N32950G1X20.575Y17.197
N32960G1X21.036
N32970G1X21.061Y17.228
N32980G1X21.124Y17.277
N32990G1X20.602
N33000G1X20.604Y17.283
N33010G1X20.650Y17.357
N33020G1X22.095
N33030G1X22.062Y17.417
N33040G1X22.045Y17.437
N33050G1X20.700
N33060G1X20.701Y17.437
N33070G1X20.778Y17.517
N33080G1X21.974
N33090G1X21.943Y17.552
N33100G1X21.872Y17.597
N33110G1X20.873
N33120G1X20.973Y17.661
N33130G1X21.019Y17.677
N33140G1X21.712
N33150G00Z6.000
N33160G00X21.068Y15.197
N33170G1Z-0.500F480.0
N33180G1X20.464F1200.0
N33190G1X20.428Y15.277
N33200G1X20.919
N33210G1X20.871Y15.332
N33220G1X20.859Y15.357
N33230G1X20.403
N33240G1X20.394Y15.393
N33250G1X20.385Y15.437
N33260G1X20.820
N33270G1X20.816Y15.443
N33280G1X20.795Y15.517
N33290G1X20.374
N33300G1X20.375Y15.595
N33310G1X20.376Y15.597
N33320G1X20.771
N33330G1X20.770Y15.599
N33340G1X20.720Y15.677
N33350G1X20.423
N33360G00Z6.000
N33370G00X21.902Y16.877
N33380G1Z-0.500F480.0
N33390G1X22.208F1200.0
N33400G1X22.238Y16.922
N33410G1X22.249Y16.957
N33420G1X21.850
N33430G1X21.812Y17.037
N33440G1X22.254
N33450G1X22.253Y17.053
N33460G1X22.240Y17.091
N33470G1X22.226Y17.117
N33480G1X21.772
N33490G1X21.731Y17.180
N33500G1X21.714Y17.197
N33510G1X22.182
N33520G1X22.139Y17.277
N33530G1X21.607
N33540G00Z6.000
N33550G00X21.136Y17.717
N33560G1Z-0.500F480.0
N33570G1X20.973Y17.661F1200.0
N33580G1X20.827Y17.568
N33590G1X20.701Y17.437
N33600G1X20.604Y17.283
N33610G1X20.549Y17.120
N33620G1X20.536Y16.947
N33630G1X20.564Y16.764
N33640G1X20.620Y16.611
N33650G1X20.707Y16.477
N33660G1X20.826Y16.362
N33670G1X20.977Y16.264
N33680G1X20.999Y16.253
N33690G1X21.677Y15.955
N33700G1X21.788Y15.886
N33710G1X21.868Y15.789
N33720G1X21.916Y15.670
N33730G1X21.928Y15.543
N33740G1X21.901Y15.421
N33750G1X21.837Y15.303
N33760G1X21.749Y15.218
N33770G1X21.639Y15.168
N33780G1X21.507Y15.151
N33790G1X21.229Y15.162
N33800G1X21.020Y15.207
N33810G1X20.939Y15.253
N33820G1X20.871Y15.332
N33830G1X20.816Y15.443
N33840G1X20.775Y15.586
N33850G1X20.770Y15.599
N33860G1X20.707Y15.695
N33870G1X20.609Y15.743
N33880G1X20.508Y15.737
N33890G1X20.425Y15.681
N33900G1X20.375Y15.595
N33910G1X20.373Y15.495
N33920G1X20.394Y15.393
N33930G1X20.420Y15.293
N33940G1X20.497Y15.122
N33950G1X20.596Y14.987
N33960G1X20.718Y14.888
N33970G1X20.861Y14.827
N33980G1X21.178Y14.761
N33990G1X21.510Y14.739
N34000G1X21.709Y14.764
N34010G1X21.901Y14.839
N34020G1X22.062Y14.951
N34030G1X22.194Y15.101
N34040G1X22.287Y15.277
N34050G1X22.333Y15.469
N34060G1X22.338Y15.606
N34070G1X22.322Y15.740
N34080G1X22.273Y15.899
N34090G1X22.198Y16.040
N34100G1X22.094Y16.163
N34110G1X21.963Y16.267
N34120G1X21.939Y16.281
N34130G1X21.916Y16.295
N34140G1X21.892Y16.308
N34150G1X21.866Y16.322
N34160G1X21.843Y16.332
N34170G1X21.166Y16.631
N34180G1X21.148Y16.638
N34190G1X21.132Y16.645
N34200G1X21.116Y16.655
N34210G1X21.103Y16.664
N34220G1X21.044Y16.714
N34230G1X20.999Y16.772
N34240G1X20.968Y16.840
N34250G1X20.950Y16.916
N34260G1X20.955Y17.042
N34270G1X21.003Y17.155
N34280G1X21.061Y17.228
N34290G1X21.130Y17.281
N34300G1X21.211Y17.313
N34310G1X21.304Y17.325
N34320G1X21.438Y17.321
N34330G1X21.534Y17.305
N34340G1X21.600Y17.280
N34350G1X21.662Y17.246
N34360G1X21.731Y17.180
N34370G1X21.783Y17.099
N34380G1X21.865Y16.925
N34390G1X21.924Y16.847
N34400G1X22.004Y16.808
N34410G1X22.091Y16.805
N34420G1X22.171Y16.840
N34430G1X22.202Y16.866
N34440G1X22.238Y16.922
N34450G1X22.257Y16.984
N34460G1X22.253Y17.053
N34470G1X22.240Y17.091
N34480G1X22.062Y17.417
N34490G1X21.943Y17.552
N34500G1X21.780Y17.655
N34510G1X21.632Y17.702
N34520G1X21.479Y17.731
N34530G1X21.318Y17.735
N34540G1X21.136Y17.717
N34550G00Z6.000
N34560G00X27.475Y14.802
N34570G1Z-0.500F480.0
N34580G1X27.174F1200.0
N34590G1X27.138Y14.838
N34600G1X27.127Y14.882
N34610G1X27.520
N34620G1X27.527Y14.942
N34630G1Y14.962
N34640G1X27.113
N34650G1X27.113Y15.042
N34660G1X27.527
N34670G1Y15.098
N34680G1Y15.122
N34690G1X27.113
N34700G1X27.112Y15.202
N34710G1X27.527
N34720G1Y15.273
N34730G1X27.906
N34740G1X27.960Y15.282
N34750G1X26.068
N34760G1X26.017Y15.294
N34770G1X25.945Y15.358
N34780G1X25.943Y15.362
N34790G1X28.073
N34800G1X28.097Y15.405
N34810G1X28.103Y15.442
N34820G1X25.909
N34830G1X25.907Y15.447
N34840G1X25.913Y15.522
N34850G1X28.102
N34860G1X28.097Y15.554
N34870G1X28.069Y15.602
N34880G1X25.934
N34890G1X25.960Y15.682
N34900G1X27.932
N34910G1X27.906Y15.687
N34920G1X27.527
N34930G1Y15.762
N34940G1X27.112
N34950G1Y15.842
N34960G1X27.527
N34970G1Y15.922
N34980G1X27.112
N34990G1Y16.002
N35000G1X27.527
N35010G1Y16.082
N35020G1X27.112
N35030G1Y16.162
N35040G1X27.527
N35050G1Y16.242
N35060G1X27.112
N35070G1Y16.295
N35080G1X27.115Y16.322
N35090G1X27.521
N35100G1X27.508Y16.386
N35110G1X27.495Y16.402
N35120G1X27.139
N35130G1X27.142Y16.408
N35140G1X27.179Y16.450
N35150G1X27.230Y16.482
N35160G1X27.410
N35170G00Z6.000
N35180G00X26.420Y15.762
N35190G1Z-0.500F480.0
N35200G1X25.985F1200.0
N35210G1X26.011Y15.842
N35220G1X26.446
N35230G1X26.471Y15.922
N35240G1X26.037
N35250G1X26.063Y16.002
N35260G1X26.497
N35270G1X26.523Y16.082
N35280G1X26.088
N35290G1X26.114Y16.162
N35300G1X26.548
N35310G1X26.574Y16.242
N35320G1X26.140
N35330G1X26.165Y16.322
N35340G1X26.600
N35350G1X26.626Y16.402
N35360G1X26.191
N35370G1X26.217Y16.482
N35380G1X26.651
N35390G1X26.677Y16.562
N35400G1X26.242
N35410G1X26.268Y16.642
N35420G1X26.703
N35430G1X26.729Y16.722
N35440G1X26.294
N35450G1X26.319Y16.802
N35460G1X26.754
N35470G1X26.780Y16.882
N35480G1X26.345
N35490G1X26.371Y16.962
N35500G1X26.806
N35510G1X26.831Y17.042
N35520G1X26.397
N35530G1X26.422Y17.122
N35540G1X26.857
N35550G1X26.883Y17.202
N35560G1X26.448
N35570G1X26.474Y17.282
N35580G1X26.909
N35590G1X26.934Y17.362
N35600G1X26.499
N35610G1X26.525Y17.442
N35620G1X26.960
N35630G1X26.967Y17.464
N35640G1X26.978Y17.522
N35650G1X26.551
N35660G1X26.573Y17.592
N35670G1X26.574Y17.596
N35680G1X26.576Y17.602
N35690G1X26.970
N35700G1X26.938Y17.656
N35710G1X26.907Y17.682
N35720G1X26.631
N35730G00Z6.000
N35740G00X27.114Y14.942
N35750G1Z-0.500F480.0
N35760G1X27.138Y14.838F1200.0
N35770G1X27.212Y14.766
N35780G1X27.314Y14.736
N35790G1X27.418Y14.760
N35800G1X27.466Y14.792
N35810G1X27.500Y14.832
N35820G1X27.520Y14.882
N35830G1X27.527Y14.942
N35840G1Y15.098
N35850G1Y15.273
N35860G1X27.906
N35870G1X27.995Y15.289
N35880G1X28.058Y15.337
N35890G1X28.097Y15.405
N35900G1X28.110Y15.479
N35910G1X28.097Y15.554
N35920G1X28.058Y15.622
N35930G1X27.995Y15.671
N35940G1X27.906Y15.687
N35950G1X27.527
N35960G1Y16.295
N35970G1X27.508Y16.386
N35980G1X27.450Y16.458
N35990G1X27.399Y16.490
N36000G1X27.345Y16.504
N36010G1X27.289Y16.502
N36020G1X27.231Y16.483
N36030G1X27.179Y16.450
N36040G1X27.142Y16.408
N36050G1X27.119Y16.356
N36060G1X27.112Y16.295
N36070G1Y15.687
N36080G1X26.396
N36090G1X26.967Y17.464
N36100G1X26.981Y17.537
N36110G1X26.971Y17.601
N36120G1X26.938Y17.656
N36130G1X26.882Y17.703
N36140G1X26.793Y17.734
N36150G1X26.703Y17.725
N36160G1X26.626Y17.680
N36170G1X26.576Y17.602
N36180G1X26.574Y17.596
N36190G1X26.573Y17.592
N36200G1X25.915Y15.544
N36210G1X25.907Y15.447
N36220G1X25.945Y15.358
N36230G1X26.017Y15.294
N36240G1X26.111Y15.273
N36250G1X27.112
N36260G1X27.113Y15.103
N36270G1X27.114Y14.942
N36280G00Z6.000
N36290G00X10.692Y14.784
N36300G1Z-0.500F480.0
N36310G1X11.311F1200.0
N36320G1X11.356Y14.797
N36330G1X11.494Y14.864
N36340G1X10.504
N36350G1X10.389Y14.944
N36360G1X11.609
N36370G1X11.659Y14.981
N36380G1X11.698Y15.024
N36390G1X10.300
N36400G1X10.235Y15.088
N36410G1X10.223Y15.104
N36420G1X11.771
N36430G1X11.813Y15.151
N36440G1X11.832Y15.184
N36450G1X11.196
N36460G1X11.288Y15.223
N36470G1X11.343Y15.264
N36480G1X11.877
N36490G1X11.922Y15.344
N36500G1X11.433
N36510G1X11.499Y15.421
N36520G1X11.501Y15.424
N36530G1X11.949
N36540G1X11.972Y15.504
N36550G1X11.539
N36560G1X11.555Y15.538
N36570G1X11.568Y15.583
N36580G1X11.569Y15.584
N36590G1X11.995
N36600G1X11.997Y15.664
N36610G1X11.582
N36620G1X11.584Y15.744
N36630G1X11.999
N36640G1X12.001Y15.815
N36650G1X12.000Y15.824
N36660G1X11.582
N36670G1X11.579Y15.866
N36680G1X11.567Y15.904
N36690G1X11.987
N36700G1X11.976Y15.966
N36710G1X11.971Y15.984
N36720G1X11.535
N36730G1X11.497Y16.055
N36740G1X11.490Y16.064
N36750G1X11.946
N36760G1X11.932Y16.108
N36770G1X11.915Y16.144
N36780G1X11.428
N36790G1X11.350Y16.214
N36800G1X11.334Y16.224
N36810G1X11.877
N36820G1X11.869Y16.240
N36830G1X11.826Y16.304
N36840G1X11.172
N36850G1X11.154Y16.311
N36860G1X11.048Y16.330
N36870G1X10.938Y16.328
N36880G1X10.824Y16.305
N36890G1X10.820Y16.304
N36900G1X10.677
N36910G00Z6.000
N36920G00X10.785Y15.184
N36930G1Z-0.500F480.0
N36940G1X10.166F1200.0
N36950G1X10.135Y15.228
N36960G1X10.118Y15.264
N36970G1X10.648
N36980G1X10.629Y15.278
N36990G1X10.571Y15.344
N37000G1X10.080
N37010G1X10.061Y15.385
N37020G1X10.050Y15.424
N37030G1X10.501
N37040G1X10.495Y15.431
N37050G1X10.461Y15.504
N37060G1X10.027
N37070G1X10.012Y15.558
N37080G1X10.010Y15.584
N37090G1X10.431
N37100G1X10.419Y15.633
N37110G1X10.406Y15.664
N37120G1X10.023
N37130G1X10.036Y15.703
N37140G1X10.069Y15.744
N37150G1X10.353
N37160G00Z6.000
N37170G00X10.578Y16.384
N37180G1Z-0.500F480.0
N37190G1X11.767F1200.0
N37200G1X11.695Y16.464
N37210G1X10.544
N37220G1X10.542Y16.471
N37230G1X10.544Y16.544
N37240G1X11.599
N37250G1X11.574Y16.565
N37260G1X11.474Y16.624
N37270G1X10.584
N37280G1X10.586Y16.628
N37290G1X10.648Y16.704
N37300G1X11.286
N37310G1X11.243Y16.715
N37320G1X11.199Y16.726
N37330G1X11.246Y16.784
N37340G1X10.713
N37350G1X10.778Y16.864
N37360G1X11.311
N37370G1X11.376Y16.944
N37380G1X10.843
N37390G1X10.907Y17.024
N37400G1X11.440
N37410G1X11.505Y17.104
N37420G1X10.972
N37430G1X11.037Y17.184
N37440G1X11.570
N37450G1X11.635Y17.264
N37460G1X11.102
N37470G1X11.147Y17.321
N37480G1X10.454
N37490G1X10.366Y17.339
N37500G1X10.359Y17.344
N37510G1X11.700
N37520G1X11.744Y17.398
N37530G1X11.759Y17.424
N37540G1X10.278
N37550G1X10.252Y17.472
N37560G1X10.251Y17.504
N37570G1X11.785
N37580G1X11.787Y17.556
N37590G1X11.779Y17.584
N37600G1X10.256
N37610G1X10.272Y17.638
N37620G1X10.293Y17.664
N37630G1X11.741
N37640G00Z6.000
N37650G00X10.141Y15.790
N37660G1Z-0.500F480.0
N37670G1X10.080Y15.758F1200.0
N37680G1X10.036Y15.703
N37690G1X10.009Y15.626
N37700G1X10.010Y15.589
N37710G1X10.012Y15.558
N37720G1X10.061Y15.385
N37730G1X10.135Y15.228
N37740G1X10.235Y15.088
N37750G1X10.360Y14.965
N37760G1X10.504Y14.864
N37770G1X10.660Y14.792
N37780G1X10.829Y14.749
N37790G1X11.010Y14.735
N37800G1X11.188Y14.750
N37810G1X11.356Y14.797
N37820G1X11.513Y14.873
N37830G1X11.659Y14.981
N37840G1X11.813Y15.151
N37850G1X11.929Y15.357
N37860G1X11.995Y15.583
N37870G1X12.001Y15.815
N37880G1X11.976Y15.966
N37890G1X11.932Y16.108
N37900G1X11.869Y16.240
N37910G1X11.787Y16.363
N37920G1X11.688Y16.472
N37930G1X11.574Y16.565
N37940G1X11.446Y16.641
N37950G1X11.304Y16.699
N37960G1X11.288Y16.704
N37970G1X11.243Y16.715
N37980G1X11.199Y16.726
N37990G1X11.744Y17.398
N38000G1X11.784Y17.468
N38010G1X11.787Y17.556
N38020G1X11.763Y17.635
N38030G1X11.721Y17.691
N38040G1X11.661Y17.724
N38050G1X11.582Y17.735
N38060G1X10.453
N38070G1X10.374Y17.724
N38080G1X10.314Y17.692
N38090G1X10.272Y17.638
N38100G1X10.249Y17.562
N38110G1X10.252Y17.472
N38120G1X10.295Y17.393
N38130G1X10.366Y17.339
N38140G1X10.454Y17.321
N38150G1X11.147
N38160G1X10.586Y16.628
N38170G1X10.544Y16.558
N38180G1X10.542Y16.471
N38190G1X10.553Y16.428
N38200G1X10.594Y16.357
N38210G1X10.655Y16.311
N38220G1X10.719Y16.291
N38230G1X10.787Y16.294
N38240G1X10.815Y16.302
N38250G1X10.824Y16.305
N38260G1X10.938Y16.328
N38270G1X11.048Y16.330
N38280G1X11.154Y16.311
N38290G1X11.256Y16.272
N38300G1X11.350Y16.214
N38310G1X11.430Y16.142
N38320G1X11.497Y16.055
N38330G1X11.552Y15.952
N38340G1X11.579Y15.866
N38350G1X11.585Y15.788
N38360G1X11.581Y15.624
N38370G1X11.568Y15.583
N38380G1X11.555Y15.538
N38390G1X11.499Y15.421
N38400G1X11.404Y15.311
N38410G1X11.288Y15.223
N38420G1X11.169Y15.173
N38430G1X10.966Y15.149
N38440G1X10.873Y15.159
N38450G1X10.785Y15.184
N38460G1X10.704Y15.224
N38470G1X10.629Y15.278
N38480G1X10.495Y15.431
N38490G1X10.440Y15.548
N38500G1X10.419Y15.633
N38510G1X10.388Y15.708
N38520G1X10.330Y15.768
N38530G1X10.219Y15.801
N38540G1X10.141Y15.790
N38550G00Z6.000
N38560G00X7.377Y14.797
N38570G1Z-0.500F480.0
N38580G1X7.660F1200.0
N38590G1X7.677Y14.814
N38600G1X7.712Y14.877
N38610G1X7.325
N38620G1X7.312Y14.903
N38630G1X7.302Y14.957
N38640G1X7.736
N38650G1X7.760Y15.037
N38660G1X7.286
N38670G1X7.270Y15.117
N38680G1X7.783
N38690G1X7.806Y15.197
N38700G1X7.255
N38710G1X7.239Y15.277
N38720G1X7.829
N38730G1X7.853Y15.357
N38740G1X7.223
N38750G1X7.208Y15.437
N38760G1X7.876
N38770G1X7.899Y15.517
N38780G1X7.192
N38790G1X7.176Y15.597
N38800G1X7.922
N38810G1X7.946Y15.677
N38820G1X7.160
N38830G1X7.145Y15.757
N38840G1X7.969
N38850G1X7.992Y15.837
N38860G1X7.561
N38870G1X7.584Y15.917
N38880G1X8.016
N38890G1X8.039Y15.997
N38900G1X7.607
N38910G1X7.631Y16.077
N38920G1X8.062
N38930G1X8.085Y16.157
N38940G1X7.654
N38950G1X7.678Y16.237
N38960G1X8.109
N38970G1X8.132Y16.317
N38980G1X7.701
N38990G1X7.724Y16.397
N39000G1X8.155
N39010G1X8.178Y16.477
N39020G1X7.748
N39030G1X7.771Y16.557
N39040G1X8.202
N39050G1X8.225Y16.637
N39060G1X7.794
N39070G1X7.818Y16.717
N39080G1X8.248
N39090G1X8.264Y16.773
N39100G1X8.281Y16.717
N39110G1X8.713
N39120G1X8.736Y16.637
N39130G1X8.304
N39140G1X8.327Y16.557
N39150G1X8.759
N39160G1X8.783Y16.477
N39170G1X8.351
N39180G1X8.374Y16.397
N39190G1X8.806
N39200G1X8.830Y16.317
N39210G1X8.398
N39220G1X8.421Y16.237
N39230G1X8.853
N39240G1X8.876Y16.157
N39250G1X8.445
N39260G1X8.468Y16.077
N39270G1X8.900
N39280G1X8.923Y15.997
N39290G1X8.492
N39300G1X8.515Y15.917
N39310G1X8.947
N39320G1X8.970Y15.837
N39330G1X8.538
N39340G1X8.562Y15.757
N39350G1X9.385
N39360G1X9.370Y15.677
N39370G1X8.585
N39380G1X8.609Y15.597
N39390G1X9.354
N39400G1X9.338Y15.517
N39410G1X8.632
N39420G1X8.656Y15.437
N39430G1X9.322
N39440G1X9.307Y15.357
N39450G1X8.679
N39460G1X8.703Y15.277
N39470G1X9.291
N39480G1X9.275Y15.197
N39490G1X8.726
N39500G1X8.749Y15.117
N39510G1X9.260
N39520G1X9.244Y15.037
N39530G1X8.773
N39540G1X8.796Y14.957
N39550G1X9.228
N39560G1X9.218Y14.903
N39570G1X9.207Y14.877
N39580G1X8.821
N39590G1X8.855Y14.816
N39600G1X8.874Y14.797
N39610G1X9.160
N39620G00Z6.000
N39630G00X7.549Y15.837
N39640G1Z-0.500F480.0
N39650G1X7.129F1200.0
N39660G1X7.113Y15.917
N39670G1X7.534
N39680G1X7.518Y15.997
N39690G1X7.098
N39700G1X7.082Y16.077
N39710G1X7.503
N39720G1X7.487Y16.157
N39730G1X7.066
N39740G1X7.051Y16.237
N39750G1X7.472
N39760G1X7.457Y16.317
N39770G1X7.035
N39780G1X7.019Y16.397
N39790G1X7.441
N39800G1X7.426Y16.477
N39810G1X7.004
N39820G1X6.988Y16.557
N39830G1X7.410
N39840G1X7.395Y16.637
N39850G1X6.972
N39860G1X6.957Y16.717
N39870G1X7.379
N39880G1X7.364Y16.797
N39890G1X6.941
N39900G1X6.925Y16.877
N39910G1X7.349
N39920G1X7.333Y16.957
N39930G1X6.910
N39940G1X6.894Y17.037
N39950G1X7.318
N39960G1X7.302Y17.117
N39970G1X6.878
N39980G1X6.863Y17.197
N39990G1X7.287
N40000G1X7.272Y17.277
N40010G1X6.847
N40020G1X6.831Y17.357
N40030G1X7.256
N40040G1X7.241Y17.437
N40050G1X6.816
N40060G1X6.805Y17.491
N40070G1X6.808Y17.517
N40080G1X7.225
N40090G1X7.215Y17.568
N40100G1X7.200Y17.597
N40110G1X6.821
N40120G1X6.847Y17.656
N40130G1X6.870Y17.677
N40140G1X7.146
N40150G00Z6.000
N40160G00X9.401Y15.837
N40170G1Z-0.500F480.0
N40180G1X8.980F1200.0
N40190G1X8.996Y15.917
N40200G1X9.417
N40210G1X9.432Y15.997
N40220G1X9.012
N40230G1X9.027Y16.077
N40240G1X9.448
N40250G1X9.464Y16.157
N40260G1X9.043
N40270G1X9.059Y16.237
N40280G1X9.479
N40290G1X9.495Y16.317
N40300G1X9.074
N40310G1X9.090Y16.397
N40320G1X9.511
N40330G1X9.526Y16.477
N40340G1X9.106
N40350G1X9.121Y16.557
N40360G1X9.542
N40370G1X9.558Y16.637
N40380G1X9.137
N40390G1X9.152Y16.717
N40400G1X9.573
N40410G1X9.589Y16.797
N40420G1X9.168
N40430G1X9.184Y16.877
N40440G1X9.605
N40450G1X9.620Y16.957
N40460G1X9.199
N40470G1X9.215Y17.037
N40480G1X9.636
N40490G1X9.652Y17.117
N40500G1X9.231
N40510G1X9.246Y17.197
N40520G1X9.667
N40530G1X9.683Y17.277
N40540G1X9.262
N40550G1X9.278Y17.357
N40560G1X9.699
N40570G1X9.714Y17.437
N40580G1X9.293
N40590G1X9.309Y17.517
N40600G1X9.723
N40610G1X9.720Y17.581
N40620G1X9.713Y17.597
N40630G1X9.332
N40640G1X9.357Y17.652
N40650G1X9.381Y17.677
N40660G1X9.663
N40670G00Z6.000
N40680G00X8.689Y16.797
N40690G1Z-0.500F480.0
N40700G1X7.841F1200.0
N40710G1X7.865Y16.877
N40720G1X8.666
N40730G1X8.642Y16.957
N40740G1X7.888
N40750G1X7.911Y17.037
N40760G1X8.619
N40770G1X8.596Y17.117
N40780G1X7.935
N40790G1X7.958Y17.197
N40800G1X8.572
N40810G1X8.549Y17.277
N40820G1X7.981
N40830G1X8.005Y17.357
N40840G1X8.525
N40850G1X8.502Y17.437
N40860G1X8.028
N40870G1X8.052Y17.517
N40880G1X8.478
N40890G1X8.464Y17.568
N40900G1X8.449Y17.597
N40910G1X8.083
N40920G1X8.103Y17.632
N40930G1X8.147Y17.677
N40940G1X8.391
N40950G00Z6.000
N40960G00X6.805Y17.491
N40970G1Z-0.500F480.0
N40980G1X7.312Y14.903F1200.0
N40990G1X7.346Y14.834
N41000G1X7.390Y14.782
N41010G1X7.444Y14.749
N41020G1X7.508Y14.735
N41030G1X7.573Y14.740
N41040G1X7.630Y14.767
N41050G1X7.677Y14.814
N41060G1X7.715Y14.883
N41070G1X8.264Y16.773
N41080G1X8.818Y14.883
N41090G1X8.855Y14.816
N41100G1X8.902Y14.769
N41110G1X8.960Y14.742
N41120G1X9.027Y14.735
N41130G1X9.093Y14.748
N41140G1X9.147Y14.780
N41150G1X9.188Y14.832
N41160G1X9.218Y14.903
N41170G1X9.725Y17.491
N41180G1X9.720Y17.581
N41190G1X9.691Y17.651
N41200G1X9.638Y17.701
N41210G1X9.560Y17.729
N41220G1X9.478Y17.733
N41230G1X9.410Y17.707
N41240G1X9.357Y17.652
N41250G1X9.319Y17.568
N41260G1X8.976Y15.816
N41270G1X8.464Y17.568
N41280G1X8.430Y17.635
N41290G1X8.386Y17.682
N41300G1X8.332Y17.710
N41310G1X8.268Y17.718
N41320G1X8.203Y17.707
N41330G1X8.148Y17.678
N41340G1X8.103Y17.632
N41350G1X8.067Y17.568
N41360G1X7.554Y15.813
N41370G1X7.215Y17.568
N41380G1X7.172Y17.651
N41390G1X7.116Y17.706
N41400G1X7.050Y17.733
N41410G1X6.972Y17.732
N41420G1X6.899Y17.705
N41430G1X6.847Y17.656
N41440G1X6.816Y17.584
N41450G1X6.805Y17.491
N41460G00Z6.000
N41470G00X5.111Y14.797
N41480G1Z-0.500F480.0
N41490G1X5.896F1200.0
N41500G1X6.005Y14.839
N41510G1X6.059Y14.877
N41520G1X4.849
N41530G1X4.822Y14.888
N41540G1X4.738Y14.957
N41550G1X6.172
N41560G1X6.242Y15.037
N41570G1X4.664
N41580G1X4.605Y15.117
N41590G1X6.306
N41600G1X6.348Y15.197
N41610G1X5.806
N41620G1X5.853Y15.218
N41630G1X5.913Y15.277
N41640G1X6.390
N41650G1X6.391Y15.277
N41660G1X6.410Y15.357
N41670G1X5.970
N41680G1X6.005Y15.421
N41690G1X6.009Y15.437
N41700G1X6.430
N41710G1X6.437Y15.469
N41720G1X6.439Y15.517
N41730G1X6.027
N41740G1X6.032Y15.543
N41750G1X6.027Y15.597
N41760G1X6.442
N41770G1X6.442Y15.606
N41780G1X6.433Y15.677
N41790G1X6.017
N41800G1X5.985Y15.757
N41810G1X6.421
N41820G1X6.397Y15.837
N41830G1X5.933
N41840G1X5.893Y15.886
N41850G1X5.844Y15.917
N41860G1X6.368
N41870G1X6.325Y15.997
N41880G1X5.687
N41890G1X5.505Y16.077
N41900G1X6.271
N41910G1X6.204Y16.157
N41920G1X5.322
N41930G1X5.140Y16.237
N41940G1X6.106
N41950G1X6.067Y16.267
N41960G1X6.043Y16.281
N41970G1X6.020Y16.295
N41980G1X5.997Y16.308
N41990G1X5.980Y16.317
N42000G1X5.000
N42010G1X4.930Y16.362
N42020G1X4.894Y16.397
N42030G1X5.800
N42040G1X5.619Y16.477
N42050G1X4.812
N42060G1X4.811Y16.477
N42070G1X4.760Y16.557
N42080G1X5.438
N42090G1X5.270Y16.631
N42100G1X5.256Y16.637
N42110G1X4.715
N42120G1X4.685Y16.717
N42130G1X5.146
N42140G1X5.103Y16.772
N42150G1X5.092Y16.797
N42160G1X4.663
N42170G1X4.650Y16.877
N42180G1X5.064
N42190G1X5.055Y16.916
N42200G1X5.056Y16.957
N42210G1X4.640
N42220G1X4.647Y17.037
N42230G1X5.059
N42240G1X5.059Y17.042
N42250G1X5.091Y17.117
N42260G1X4.653
N42270G1X4.653Y17.120
N42280G1X4.679Y17.197
N42290G1X5.140
N42300G1X5.165Y17.228
N42310G1X5.228Y17.277
N42320G1X4.706
N42330G1X4.708Y17.283
N42340G1X4.754Y17.357
N42350G1X6.199
N42360G1X6.166Y17.417
N42370G1X6.149Y17.437
N42380G1X4.804
N42390G1X4.805Y17.437
N42400G1X4.882Y17.517
N42410G1X6.078
N42420G1X6.047Y17.552
N42430G1X5.976Y17.597
N42440G1X4.977
N42450G1X5.077Y17.661
N42460G1X5.123Y17.677
N42470G1X5.816
N42480G00Z6.000
N42490G00X5.172Y15.197
N42500G1Z-0.500F480.0
N42510G1X4.568F1200.0
N42520G1X4.532Y15.277
N42530G1X5.023
N42540G1X4.975Y15.332
N42550G1X4.963Y15.357
N42560G1X4.507
N42570G1X4.498Y15.393
N42580G1X4.489Y15.437
N42590G1X4.924
N42600G1X4.920Y15.443
N42610G1X4.899Y15.517
N42620G1X4.478
N42630G1X4.479Y15.595
N42640G1X4.481Y15.597
N42650G1X4.875
N42660G1X4.874Y15.599
N42670G1X4.824Y15.677
N42680G1X4.527
N42690G00Z6.000
N42700G00X6.006Y16.877
N42710G1Z-0.500F480.0
N42720G1X6.312F1200.0
N42730G1X6.342Y16.922
N42740G1X6.353Y16.957
N42750G1X5.954
N42760G1X5.917Y17.037
N42770G1X6.358
N42780G1X6.357Y17.053
N42790G1X6.344Y17.091
N42800G1X6.330Y17.117
N42810G1X5.876
N42820G1X5.836Y17.180
N42830G1X5.818Y17.197
N42840G1X6.286
N42850G1X6.243Y17.277
N42860G1X5.711
N42870G00Z6.000
N42880G00X5.240Y17.717
N42890G1Z-0.500F480.0
N42900G1X5.077Y17.661F1200.0
N42910G1X4.932Y17.568
N42920G1X4.805Y17.437
N42930G1X4.708Y17.283
N42940G1X4.653Y17.120
N42950G1X4.640Y16.947
N42960G1X4.668Y16.764
N42970G1X4.724Y16.611
N42980G1X4.811Y16.477
N42990G1X4.930Y16.362
N43000G1X5.081Y16.264
N43010G1X5.103Y16.253
N43020G1X5.781Y15.955
N43030G1X5.893Y15.886
N43040G1X5.972Y15.789
N43050G1X6.020Y15.670
N43060G1X6.032Y15.543
N43070G1X6.005Y15.421
N43080G1X5.941Y15.303
N43090G1X5.853Y15.218
N43100G1X5.744Y15.168
N43110G1X5.611Y15.151
N43120G1X5.333Y15.162
N43130G1X5.124Y15.207
N43140G1X5.043Y15.253
N43150G1X4.975Y15.332
N43160G1X4.920Y15.443
N43170G1X4.879Y15.586
N43180G1X4.874Y15.599
N43190G1X4.811Y15.695
N43200G1X4.713Y15.743
N43210G1X4.612Y15.737
N43220G1X4.529Y15.681
N43230G1X4.479Y15.595
N43240G1X4.477Y15.495
N43250G1X4.498Y15.393
N43260G1X4.524Y15.293
N43270G1X4.601Y15.122
N43280G1X4.700Y14.987
N43290G1X4.822Y14.888
N43300G1X4.965Y14.827
N43310G1X5.282Y14.761
N43320G1X5.614Y14.739
N43330G1X5.813Y14.764
N43340G1X6.005Y14.839
N43350G1X6.166Y14.951
N43360G1X6.298Y15.101
N43370G1X6.391Y15.277
N43380G1X6.437Y15.469
N43390G1X6.442Y15.606
N43400G1X6.426Y15.740
N43410G1X6.378Y15.899
N43420G1X6.302Y16.040
N43430G1X6.198Y16.163
N43440G1X6.067Y16.267
N43450G1X6.043Y16.281
N43460G1X6.020Y16.295
N43470G1X5.997Y16.308
N43480G1X5.970Y16.322
N43490G1X5.947Y16.332
N43500G1X5.270Y16.631
N43510G1X5.252Y16.638
N43520G1X5.236Y16.645
N43530G1X5.220Y16.655
N43540G1X5.207Y16.664
N43550G1X5.148Y16.714
N43560G1X5.103Y16.772
N43570G1X5.072Y16.840
N43580G1X5.055Y16.916
N43590G1X5.059Y17.042
N43600G1X5.107Y17.155
N43610G1X5.165Y17.228
N43620G1X5.234Y17.281
N43630G1X5.315Y17.313
N43640G1X5.408Y17.325
N43650G1X5.542Y17.321
N43660G1X5.638Y17.305
N43670G1X5.704Y17.280
N43680G1X5.767Y17.246
N43690G1X5.836Y17.180
N43700G1X5.887Y17.099
N43710G1X5.969Y16.925
N43720G1X6.028Y16.847
N43730G1X6.108Y16.808
N43740G1X6.195Y16.805
N43750G1X6.275Y16.840
N43760G1X6.306Y16.866
N43770G1X6.342Y16.922
N43780G1X6.361Y16.984
N43790G1X6.357Y17.053
N43800G1X6.344Y17.091
N43810G1X6.166Y17.417
N43820G1X6.047Y17.552
N43830G1X5.884Y17.655
N43840G1X5.736Y17.702
N43850G1X5.583Y17.731
N43860G1X5.422Y17.735
N43870G1X5.240Y17.717
N43880G00Z6.000
N43890G00X6.888Y10.249
N43900G1Z-0.500F480.0
N43910G1X7.273F1200.0
N43920G1X7.344Y10.273
N43930G1X7.443Y10.329
N43940G1X6.672
N43950G1X6.570Y10.383
N43960G1X6.540Y10.409
N43970G1X7.542
N43980G1X7.635Y10.489
N43990G1X6.447
N44000G1X6.413Y10.518
N44010G1X6.374Y10.569
N44020G1X7.704
N44030G1X7.764Y10.649
N44040G1X7.167
N44050G1X7.210Y10.666
N44060G1X7.288Y10.726
N44070G1X7.291Y10.729
N44080G1X7.821
N44090G1X7.861Y10.809
N44100G1X7.360
N44110G1X7.418Y10.877
N44120G1X7.426Y10.889
N44130G1X7.901
N44140G1X7.908Y10.905
N44150G1X7.932Y10.969
N44160G1X7.473
N44170G1X7.513Y11.036
N44180G1X7.517Y11.049
N44190G1X7.961
N44200G1X7.979Y11.099
N44210G1X7.986Y11.129
N44220G1X7.544
N44230G1X7.571Y11.209
N44240G1X8.006
N44250G1X8.025Y11.289
N44260G1X7.588
N44270G1X7.601Y11.369
N44280G1X8.037
N44290G1X8.047Y11.449
N44300G1X7.614
N44310G1X7.619Y11.478
N44320G1X7.621Y11.529
N44330G1X8.056
N44340G1X8.058Y11.609
N44350G1X7.624
N44360G1X7.627Y11.689
N44370G1X8.060
N44380G1X8.061Y11.733
N44390G1X8.059Y11.769
N44400G1X7.628
N44410G1X7.621Y11.849
N44420G1X8.053
N44430G1X8.048Y11.929
N44440G1X7.614
N44450G1X7.607Y12.009
N44460G1X8.035
N44470G1X8.022Y12.089
N44480G1X7.590
N44490G1X7.571Y12.169
N44500G1X8.006
N44510G1X7.984Y12.249
N44520G1X7.552
N44530G1X7.544Y12.285
N44540G1X7.525Y12.329
N44550G1X7.962
N44560G1X7.954Y12.359
N44570G1X7.930Y12.409
N44580G1X7.490
N44590G1X7.455Y12.489
N44600G1X7.891
N44610G1X7.853Y12.569
N44620G1X7.407
N44630G1X7.375Y12.617
N44640G1X7.343Y12.649
N44650G1X7.815
N44660G1X7.807Y12.666
N44670G1X7.763Y12.729
N44680G1X7.245
N44690G1X7.202Y12.757
N44700G1X7.097Y12.797
N44710G1X7.029Y12.806
N44720G1X6.903Y12.788
N44730G1X6.792Y12.733
N44740G1X6.789Y12.729
N44750G1X6.265
N44760G1X6.232Y12.679
N44770G1X6.219Y12.649
N44780G1X6.706
N44790G1X6.699Y12.643
N44800G1X6.654Y12.569
N44810G1X6.183
N44820G1X6.148Y12.489
N44830G1X6.610
N44840G1X6.577Y12.409
N44850G1X6.121
N44860G1X6.096Y12.329
N44870G1X6.543
N44880G1X6.509Y12.249
N44890G1X6.072
N44900G1X6.071Y12.245
N44910G1X6.056Y12.169
N44920G1X6.487
N44930G1X6.465Y12.089
N44940G1X6.041
N44950G1X6.026Y12.016
N44960G1X6.026Y12.009
N44970G1X6.445
N44980G1X6.436Y11.929
N44990G1X6.019
N45000G1X6.012Y11.849
N45010G1X6.427
N45020G1X6.426Y11.769
N45030G1X6.007
N45040G1X6.009Y11.689
N45050G1X6.426
N45060G1X6.426Y11.659
N45070G1X6.430Y11.609
N45080G1X6.010
N45090G1X6.012Y11.549
N45100G1X6.014Y11.529
N45110G1X6.437
N45120G1X6.444Y11.449
N45130G1X6.025
N45140G1X6.035Y11.369
N45150G1X6.461
N45160G1X6.477Y11.289
N45170G1X6.049
N45180G1X6.069Y11.209
N45190G1X6.497
N45200G1X6.525Y11.129
N45210G1X6.089
N45220G1X6.097Y11.099
N45230G1X6.115Y11.049
N45240G1X6.552
N45250G1X6.555Y11.042
N45260G1X6.594Y10.969
N45270G1X6.146
N45280G1X6.177Y10.890
N45290G1X6.177Y10.889
N45300G1X6.637
N45310G1X6.650Y10.865
N45320G1X6.693Y10.809
N45330G1X6.219
N45340G1X6.262Y10.729
N45350G1X6.773
N45360G1X6.775Y10.727
N45370G1X6.850Y10.679
N45380G1X6.923Y10.649
N45390G1X6.314
N45400G00Z6.000
N45410G00X6.318Y12.809
N45420G1Z-0.500F480.0
N45430G1X7.706F1200.0
N45440G1X7.649Y12.889
N45450G1X6.380
N45460G1X6.456Y12.969
N45470G1X7.586
N45480G1X7.504Y13.049
N45490G1X6.553
N45500G1X6.656Y13.122
N45510G1X6.673Y13.129
N45520G1X7.385
N45530G1X7.345Y13.154
N45540G1X7.189Y13.205
N45550G1X7.142Y13.209
N45560G1X6.926
N45570G00Z6.000
N45580G00X7.288Y10.726
N45590G1Z-0.500F480.0
N45600G1X7.210Y10.666F1200.0
N45610G1X7.125Y10.633
N45620G1X7.033Y10.626
N45630G1X6.934Y10.645
N45640G1X6.850Y10.679
N45650G1X6.775Y10.727
N45660G1X6.708Y10.789
N45670G1X6.650Y10.865
N45680G1X6.555Y11.042
N45690G1X6.487Y11.239
N45700G1X6.445Y11.447
N45710G1X6.426Y11.659
N45720G1X6.427Y11.855
N45730G1X6.446Y12.020
N45740G1X6.508Y12.247
N45750G1X6.621Y12.516
N45760G1X6.699Y12.643
N45770G1X6.792Y12.733
N45780G1X6.903Y12.788
N45790G1X7.029Y12.806
N45800G1X7.097Y12.797
N45810G1X7.202Y12.757
N45820G1X7.295Y12.697
N45830G1X7.375Y12.617
N45840G1X7.442Y12.518
N45850G1X7.544Y12.285
N45860G1X7.606Y12.026
N45870G1X7.630Y11.752
N45880G1X7.619Y11.478
N45890G1X7.578Y11.231
N45900G1X7.513Y11.036
N45910G1X7.418Y10.877
N45920G1X7.288Y10.726
N45930G00Z6.000
N45940G00X7.662Y10.512
N45950G1Z-0.500F480.0
N45960G1X7.816Y10.720F1200.0
N45970G1X7.908Y10.905
N45980G1X7.979Y11.099
N45990G1X8.028Y11.303
N46000G1X8.055Y11.517
N46010G1X8.061Y11.733
N46020G1X8.046Y11.945
N46030G1X8.010Y12.154
N46040G1X7.954Y12.359
N46050G1X7.807Y12.666
N46060G1X7.606Y12.950
N46070G1X7.484Y13.069
N46080G1X7.345Y13.154
N46090G1X7.189Y13.205
N46100G1X7.017Y13.222
N46110G1X6.832Y13.197
N46120G1X6.656Y13.122
N46130G1X6.490Y13.005
N46140G1X6.349Y12.857
N46150G1X6.232Y12.679
N46160G1X6.139Y12.470
N46170G1X6.071Y12.245
N46180G1X6.026Y12.016
N46190G1X6.007Y11.784
N46200G1X6.012Y11.549
N46210G1X6.042Y11.319
N46220G1X6.097Y11.099
N46230G1X6.177Y10.890
N46240G1X6.282Y10.692
N46250G1X6.413Y10.518
N46260G1X6.570Y10.383
N46270G1X6.753Y10.287
N46280G1X6.962Y10.229
N46290G1X7.095Y10.218
N46300G1X7.223Y10.233
N46310G1X7.344Y10.273
N46320G1X7.460Y10.339
N46330G1X7.662Y10.512
N46340G00Z6.000
N46350G00X8.533Y10.259
N46360G1Z-0.500F480.0
N46370G1X8.776F1200.0
N46380G1X8.794Y10.270
N46390G1X8.837Y10.334
N46400G1X8.838Y10.339
N46410G1X8.472
N46420G1X8.450Y10.419
N46430G1X8.860
N46440G1X8.862Y10.424
N46450G1Y10.499
N46460G1X8.449
N46470G1Y10.579
N46480G1X8.862
N46490G1Y10.659
N46500G1X8.449
N46510G1Y10.739
N46520G1X8.862
N46530G1Y10.819
N46540G1X8.449
N46550G1Y10.899
N46560G1X8.862
N46570G1Y10.979
N46580G1X8.449
N46590G1Y11.059
N46600G1X8.862
N46610G1Y11.139
N46620G1X8.449
N46630G1Y11.219
N46640G1X8.862
N46650G1Y11.299
N46660G1X8.449
N46670G1Y11.379
N46680G1X8.862
N46690G1Y11.459
N46700G1X8.449
N46710G1Y11.539
N46720G1X8.862
N46730G1Y11.619
N46740G1X8.449
N46750G1Y11.699
N46760G1X8.862
N46770G1Y11.779
N46780G1X8.449
N46790G1Y11.859
N46800G1X8.862
N46810G1Y11.939
N46820G1X8.449
N46830G1Y12.019
N46840G1X8.862
N46850G1Y12.099
N46860G1X8.449
N46870G1Y12.179
N46880G1X8.862
N46890G1Y12.259
N46900G1X8.449
N46910G1Y12.339
N46920G1X9.315
N46930G1X9.265Y12.419
N46940G1X8.449
N46950G1Y12.499
N46960G1X9.215
N46970G1X9.166Y12.579
N46980G1X8.449
N46990G1Y12.659
N47000G1X9.116
N47010G1X9.066Y12.739
N47020G1X8.449
N47030G1Y12.819
N47040G1X9.016
N47050G1X8.966Y12.899
N47060G1X8.449
N47070G1Y12.979
N47080G1X8.917
N47090G1X8.867Y13.059
N47100G1X8.461
N47110G1X8.467Y13.080
N47120G1X8.499Y13.137
N47130G1X8.500Y13.139
N47140G1X8.813
N47150G1X8.781Y13.178
N47160G1X8.728Y13.213
N47170G1X8.697Y13.219
N47180G1X8.642
N47190G00Z6.000
N47200G00X10.142Y10.259
N47210G1Z-0.500F480.0
N47220G1X10.391F1200.0
N47230G1X10.435Y10.298
N47240G1X10.455Y10.339
N47250G1X10.078
N47260G1X10.028Y10.419
N47270G1X10.471
N47280G1X10.472Y10.424
N47290G1Y10.499
N47300G1X9.978
N47310G1X9.928Y10.579
N47320G1X10.472
N47330G1Y10.659
N47340G1X9.878
N47350G1X9.828Y10.739
N47360G1X10.472
N47370G1Y10.819
N47380G1X9.778
N47390G1X9.729Y10.899
N47400G1X10.472
N47410G1Y10.979
N47420G1X9.679
N47430G1X9.629Y11.059
N47440G1X10.472
N47450G1Y11.139
N47460G1X9.579
N47470G1X9.529Y11.219
N47480G1X10.012
N47490G1X9.963Y11.299
N47500G1X9.479
N47510G1X9.429Y11.379
N47520G1X9.913
N47530G1X9.863Y11.459
N47540G1X9.379
N47550G1X9.329Y11.539
N47560G1X9.813
N47570G1X9.763Y11.619
N47580G1X9.280
N47590G1X9.230Y11.699
N47600G1X9.714
N47610G1X9.664Y11.779
N47620G1X9.180
N47630G1X9.130Y11.859
